bin/data/LUT/Chill.CUBE
TITLE "Chill Spring" by Emma Souannhaphanh
LUT_3D_SIZE 5
DOMAIN_MIN 0.000000 0.000000 0.000000
DOMAIN_MAX 0.903226 0.903226 0.903226
0.000000 0.000000 0.000000
0.238953 0.037933 0.100281
0.435455 0.073608 0.185425
0.577972 0.108154 0.262634
0.768097 0.141724 0.332367
0.061798 0.285492 0.045410
0.238953 0.244476 0.045410
0.435455 0.232330 0.084991
0.577972 0.219940 0.122192
0.768097 0.207428 0.157745
0.130310 0.481720 0.084991
0.336243 0.481720 0.084991
0.435455 0.429321 0.084991
0.577972 0.420990 0.122192
0.768097 0.412292 0.157745
0.198883 0.617889 0.122192
0.388947 0.617889 0.122192
0.520996 0.617889 0.122192
0.577972 0.552185 0.122192
0.768097 0.545990 0.157745
0.264709 0.793518 0.157745
0.434723 0.793518 0.157745
0.560120 0.793518 0.157745
0.716614 0.793518 0.157745
0.768097 0.672119 0.157745
0.023682 0.087738 0.305511
0.200043 0.037933 0.305511
0.435455 0.073608 0.404633
0.577972 0.108154 0.456146
0.768097 0.141724 0.499847
0.023682 0.285492 0.263916
0.265808 0.313293 0.333496
0.452820 0.339844 0.395142
0.595947 0.365082 0.448181
0.794495 0.388977 0.492950
0.050568 0.481720 0.251526
0.326660 0.498413 0.360168
0.452820 0.474670 0.360168
0.595947 0.467499 0.385315
0.794495 0.460144 0.409088
0.078522 0.617889 0.238831
0.380676 0.634796 0.385315
0.514587 0.634796 0.385315
0.595947 0.588959 0.385315
0.794495 0.582703 0.409088
0.107086 0.793518 0.225983
0.427399 0.817444 0.409088
0.553345 0.817444 0.409088
0.706879 0.817444 0.409088
0.794495 0.721069 0.409088
0.050568 0.168213 0.500580
0.188660 0.073608 0.500580
0.381592 0.073608 0.500580
0.577972 0.108154 0.581177
0.768097 0.141724 0.617523
0.050568 0.384521 0.500580
0.291840 0.374939 0.516998
0.428192 0.339844 0.516998
0.595947 0.365082 0.575165
0.794495 0.388977 0.611237
0.050568 0.481720 0.449036
0.291840 0.498413 0.493683
0.469604 0.514496 0.532837
0.614899 0.530090 0.569153
0.821655 0.545349 0.605072
0.078522 0.617889 0.440796
0.316833 0.634796 0.486633
0.508148 0.652557 0.548126
0.614899 0.627838 0.548126
0.821655 0.621094 0.563110
0.107086 0.793518 0.432190
0.340698 0.817444 0.479431
0.546692 0.841888 0.563110
0.697205 0.841888 0.563110
0.821655 0.774597 0.563110
0.078522 0.243256 0.633911
0.177185 0.108154 0.633911
0.373077 0.108154 0.633911
0.508850 0.108154 0.633911
0.768097 0.141724 0.758453
0.078522 0.436554 0.633911
0.316833 0.428436 0.650360
0.420776 0.365082 0.650360
0.547394 0.365082 0.650360
0.794495 0.388977 0.749847
0.078522 0.563812 0.633911
0.316833 0.557678 0.650360
0.485840 0.551514 0.667603
0.588562 0.530090 0.667603
0.821655 0.545349 0.741302
0.078522 0.617889 0.569794
0.316833 0.634796 0.605713
0.485840 0.652557 0.643616
0.635010 0.671326 0.685760
0.849457 0.691040 0.732971
0.107086 0.793518 0.563751
0.340698 0.817444 0.599640
0.501740 0.841888 0.637024
0.687836 0.866852 0.704803
0.849457 0.831940 0.704803
0.107086 0.312134 0.803467
0.165680 0.141724 0.803467
0.364258 0.141724 0.803467
0.502411 0.141724 0.803467
0.635895 0.141724 0.803467
0.107086 0.480988 0.803467
0.340698 0.473938 0.826385
0.413208 0.388977 0.826385
0.540833 0.388977 0.826385
0.688782 0.388977 0.826385
0.107086 0.601013 0.803467
0.340698 0.594574 0.826385
0.501740 0.588257 0.849762
0.581360 0.545349 0.849762
0.747253 0.545349 0.849762
0.107086 0.746613 0.803467
0.340698 0.737671 0.826385
0.501740 0.728821 0.849762
0.656250 0.720184 0.873566
0.810577 0.691040 0.873566
0.107086 0.793518 0.686523
0.340698 0.817444 0.733826
0.501740 0.841888 0.785309
0.656250 0.866852 0.840210
0.877838 0.892151 0.897705
