bin/data/LUT/Chill.CUBE
TITLE "Chill Spring" by Emma Souannhaphanh
LUT_3D_SIZE 8
DOMAIN_MIN 0.000000 0.000000 0.000000
DOMAIN_MAX 0.903226 0.903226 0.903226
0.000000 0.000000 0.000000
0.134277 0.022186 0.060516
0.272064 0.043121 0.112946
0.388428 0.063538 0.161957
0.477356 0.083618 0.208282
0.556793 0.103271 0.252136
0.649994 0.122681 0.293457
0.768097 0.141724 0.332367
0.033539 0.172729 0.027313
0.134277 0.146545 0.027313
0.272064 0.138916 0.051270
0.388428 0.131165 0.073914
0.477356 0.123505 0.095795
0.556793 0.115601 0.116913
0.649994 0.122681 0.153015
0.768097 0.141724 0.199921
0.071381 0.319672 0.051270
0.196381 0.319672 0.051270
0.272064 0.274994 0.051270
0.388428 0.268341 0.073914
0.477356 0.261597 0.095795
0.556793 0.254669 0.116913
0.649994 0.247864 0.137634
0.768097 0.240906 0.157745
0.110565 0.436035 0.073914
0.234558 0.436035 0.073914
0.345764 0.436035 0.073914
0.388428 0.383789 0.073914
0.477356 0.378326 0.095795
0.556793 0.372681 0.116913
0.649994 0.367218 0.137634
0.768097 0.361420 0.157745
0.150055 0.521942 0.095795
0.271454 0.521942 0.095795
0.376099 0.521942 0.095795
0.458038 0.521942 0.095795
0.477356 0.468842 0.095795
0.556793 0.464661 0.116913
0.649994 0.460510 0.137634
0.768097 0.456207 0.157745
0.189209 0.597900 0.116913
0.306610 0.597900 0.116913
0.403931 0.597900 0.116913
0.480652 0.597900 0.116913
0.550812 0.597900 0.116913
0.556793 0.536377 0.116913
0.649994 0.532837 0.137634
0.768097 0.529327 0.157745
0.227570 0.685211 0.137634
0.339844 0.685211 0.137634
0.429626 0.685211 0.137634
0.502625 0.685211 0.137634
0.574005 0.685211 0.137634
0.649994 0.676636 0.137634
0.649994 0.600037 0.137634
0.768097 0.596375 0.157745
0.264709 0.793518 0.157745
0.370636 0.793518 0.157745
0.453705 0.793518 0.157745
0.524353 0.793518 0.157745
0.598724 0.793518 0.157745
0.690613 0.793518 0.157745
0.768097 0.764648 0.157745
0.768097 0.672119 0.157745
0.012817 0.051453 0.190094
0.111267 0.022186 0.190094
0.272064 0.043121 0.259979
0.388428 0.063538 0.300842
0.477356 0.083618 0.339325
0.556793 0.103271 0.375092
0.649994 0.122681 0.408264
0.768097 0.141724 0.438385
0.012817 0.172729 0.162781
0.150726 0.191040 0.209106
0.286896 0.208923 0.252838
0.399872 0.226593 0.294159
0.486542 0.243866 0.332977
0.566467 0.260864 0.369293
0.662445 0.277405 0.402832
0.783112 0.293640 0.433533
0.027405 0.319672 0.154755
0.189850 0.334808 0.227539
0.286896 0.313416 0.227539
0.399872 0.307129 0.245605
0.486542 0.300720 0.263275
0.566467 0.294342 0.280548
0.662445 0.287781 0.297333
0.783112 0.293640 0.325928
0.042725 0.436035 0.146606
0.228210 0.447235 0.245605
0.340332 0.447235 0.245605
0.399872 0.414642 0.245605
0.486542 0.409637 0.263275
0.566467 0.404633 0.280548
0.662445 0.399353 0.297333
0.783112 0.394165 0.313721
0.058502 0.521942 0.138489
0.265289 0.530792 0.263275
0.371124 0.530792 0.263275
0.454132 0.530792 0.263275
0.486542 0.492493 0.263275
0.566467 0.488617 0.280548
0.662445 0.484741 0.297333
0.783112 0.480743 0.313721
0.074493 0.597900 0.130157
0.300873 0.607025 0.280548
0.399414 0.607025 0.280548
0.476898 0.607025 0.280548
0.546967 0.607025 0.280548
0.566467 0.557281 0.280548
0.662445 0.553772 0.297333
0.783112 0.550323 0.313721
0.103210 0.685211 0.137634
0.334381 0.696747 0.297333
0.425476 0.696747 0.297333
0.498932 0.696747 0.297333
0.570038 0.696747 0.297333
0.654449 0.696747 0.297333
0.662445 0.622375 0.297333
0.783112 0.618469 0.313721
0.142761 0.793518 0.157745
0.365631 0.807129 0.313721
0.449829 0.807129 0.313721
0.520691 0.807129 0.313721
0.594391 0.807129 0.313721
0.685242 0.807129 0.313721
0.783112 0.796753 0.313721
0.783112 0.699493 0.313721
0.027405 0.099487 0.339935
0.104614 0.043121 0.339935
0.228882 0.043121 0.339935
0.388428 0.063538 0.414062
0.477356 0.083618 0.443726
0.556793 0.103271 0.470551
0.649994 0.122681 0.495087
0.768097 0.141724 0.517822
0.027405 0.240601 0.339935
0.167053 0.233643 0.355103
0.265930 0.208923 0.355103
0.399872 0.226593 0.408722
0.486542 0.243866 0.438904
0.566467 0.260864 0.466217
0.662445 0.277405 0.491119
0.783112 0.293640 0.514160
0.027405 0.319672 0.294891
0.167053 0.334808 0.333618
0.301422 0.349579 0.369873
0.410950 0.363861 0.403381
0.495667 0.377747 0.434052
0.576355 0.391113 0.461792
0.675201 0.404083 0.487091
0.798309 0.416473 0.510376
0.042725 0.436035 0.288147
0.183319 0.447235 0.327301
0.334930 0.457977 0.384125
0.410950 0.442749 0.384125
0.495667 0.438202 0.397919
0.576355 0.433594 0.411224
0.675201 0.428925 0.424042
0.798309 0.424103 0.436340
0.058502 0.521942 0.281311
0.199432 0.530792 0.320892
0.366150 0.539520 0.397919
0.450226 0.539520 0.397919
0.495667 0.514648 0.397919
0.576355 0.511047 0.411224
0.675201 0.507355 0.424042
0.798309 0.503662 0.436340
0.074493 0.597900 0.274261
0.215454 0.607025 0.314453
0.394806 0.616364 0.411224
0.473145 0.616364 0.411224
0.543213 0.616364 0.411224
0.576355 0.578217 0.411224
0.675201 0.574677 0.424042
0.798309 0.571167 0.436340
0.090729 0.685211 0.267334
0.231201 0.696747 0.307831
0.421265 0.708557 0.424042
0.495270 0.708557 0.424042
0.566040 0.708557 0.424042
0.649506 0.708557 0.424042
0.675201 0.646118 0.424042
0.798309 0.641998 0.436340
0.107086 0.793518 0.260284
0.258514 0.807129 0.313721
0.445801 0.820862 0.436340
0.517059 0.820862 0.436340
0.590240 0.820862 0.436340
0.679962 0.820862 0.436340
0.788635 0.820862 0.436340
0.798309 0.728394 0.436340
0.042725 0.145752 0.455658
0.097992 0.063538 0.455658
0.222534 0.063538 0.455658
0.335510 0.063538 0.455658
0.477356 0.083618 0.521942
0.556793 0.103271 0.543243
0.649994 0.122681 0.563965
0.768097 0.141724 0.584320
0.042725 0.280884 0.455658
0.183319 0.274261 0.466675
0.259857 0.226593 0.466675
0.366669 0.226593 0.466675
0.486542 0.243866 0.518219
0.566467 0.260864 0.539734
0.662445 0.277405 0.560486
0.783112 0.293640 0.580902
0.042725 0.393951 0.455658
0.183319 0.388611 0.466675
0.315613 0.383240 0.477295
0.395264 0.363861 0.477295
0.495667 0.377747 0.514526
0.576355 0.391113 0.536163
0.675201 0.404083 0.557037
0.798309 0.416473 0.577484
0.042725 0.436035 0.403931
0.183319 0.447235 0.434570
0.315613 0.457977 0.462280
0.421661 0.468384 0.487518
0.504730 0.478485 0.510742
0.586456 0.488159 0.532623
0.688293 0.497681 0.553589
0.813843 0.506927 0.574066
0.058502 0.521942 0.398499
0.199432 0.530792 0.429565
0.329468 0.539520 0.457794
0.446228 0.548248 0.497406
0.504730 0.536011 0.497406
0.586456 0.532440 0.506927
0.688293 0.528931 0.516296
0.813843 0.525330 0.525391
0.074493 0.597900 0.392883
0.215454 0.607025 0.424622
0.342896 0.616364 0.453217
0.469391 0.625854 0.506927
0.539429 0.625854 0.506927
0.586456 0.599609 0.506927
0.688293 0.595978 0.516296
0.813843 0.592377 0.525391
0.090729 0.685211 0.387421
0.231201 0.696747 0.419373
0.355957 0.708557 0.448639
0.491638 0.720612 0.516296
0.562164 0.720612 0.516296
0.644592 0.720612 0.516296
0.688293 0.671661 0.516296
0.813843 0.667236 0.525391
0.107086 0.793518 0.381683
0.246765 0.807129 0.414276
0.368500 0.820862 0.443909
0.513397 0.834839 0.525391
0.585999 0.834839 0.525391
0.674622 0.834839 0.525391
0.782440 0.834839 0.525391
0.813843 0.758911 0.525391
0.058502 0.190277 0.540161
0.091431 0.083618 0.540161
0.216156 0.083618 0.540161
0.330017 0.083618 0.540161
0.422119 0.083618 0.540161
0.556793 0.103271 0.608917
0.649994 0.122681 0.630310
0.768097 0.141724 0.652893
0.058502 0.319061 0.540161
0.199432 0.312744 0.548798
0.253662 0.243866 0.548798
0.361603 0.243866 0.548798
0.446655 0.243866 0.548798
0.566467 0.260864 0.605347
0.662445 0.277405 0.626648
0.783112 0.293640 0.648956
0.058502 0.423920 0.540161
0.199432 0.419067 0.548798
0.329468 0.414185 0.557404
0.390656 0.377747 0.557404
0.469757 0.377747 0.557404
0.576355 0.391113 0.601868
0.675201 0.404083 0.622955
0.798309 0.416473 0.645172
0.058502 0.503418 0.540161
0.199432 0.499664 0.548798
0.329468 0.495911 0.557404
0.432098 0.492065 0.565948
0.492004 0.478485 0.565948
0.586456 0.488159 0.598358
0.688293 0.497681 0.619415
0.813843 0.506927 0.641296
0.058502 0.521942 0.487946
0.199432 0.530792 0.511169
0.329468 0.539520 0.532959
0.432098 0.548248 0.553955
0.513824 0.556915 0.574463
0.596832 0.565582 0.594910
0.701660 0.574280 0.615753
0.829529 0.583099 0.637543
0.074493 0.597900 0.483856
0.215454 0.607025 0.507355
0.342896 0.616364 0.529419
0.442169 0.625854 0.550446
0.535706 0.635620 0.582947
0.596832 0.621948 0.582947
0.701660 0.618103 0.591431
0.829529 0.614319 0.600006
0.090729 0.685211 0.479767
0.231201 0.696747 0.503540
0.355957 0.708557 0.525787
0.452087 0.720612 0.546997
0.558228 0.732910 0.591431
0.639709 0.732910 0.591431
0.701660 0.698975 0.591431
0.829529 0.694305 0.600006
0.107086 0.793518 0.475555
0.246765 0.807129 0.499664
0.368500 0.820862 0.522186
0.461731 0.834839 0.543488
0.581940 0.848969 0.600006
0.669434 0.848969 0.600006
0.776367 0.848969 0.600006
0.829529 0.790649 0.600006
0.074493 0.232910 0.614471
0.084808 0.103271 0.614471
0.209595 0.103271 0.614471
0.324402 0.103271 0.614471
0.417847 0.103271 0.614471
0.492371 0.103271 0.614471
0.640778 0.122681 0.699249
0.768097 0.141724 0.735474
0.074493 0.354797 0.614471
0.215454 0.348999 0.623352
0.247467 0.260864 0.623352
0.356506 0.260864 0.623352
0.442627 0.260864 0.623352
0.514160 0.260864 0.623352
0.662445 0.277405 0.703247
0.783112 0.293640 0.730682
0.074493 0.451172 0.614471
0.215454 0.446777 0.623352
0.342896 0.442291 0.632446
0.385925 0.391113 0.632446
0.466003 0.391113 0.632446
0.536102 0.391113 0.632446
0.675201 0.404083 0.698792
0.798309 0.416473 0.725983
0.074493 0.525085 0.614471
0.215454 0.521545 0.623352
0.342896 0.517914 0.632446
0.442169 0.514282 0.641693
0.488281 0.488159 0.641693
0.558655 0.488159 0.641693
0.688293 0.497681 0.694397
0.813843 0.506927 0.721252
0.074493 0.592194 0.614471
0.215454 0.588562 0.623352
0.342896 0.584991 0.632446
0.442169 0.581390 0.641693
0.522858 0.577850 0.651184
0.582275 0.565582 0.651184
0.701660 0.574280 0.689972
0.829529 0.583099 0.716614
0.074493 0.597900 0.554321
0.215454 0.607025 0.574799
0.342896 0.616364 0.595276
0.442169 0.625854 0.616150
0.522858 0.635620 0.637878
0.607605 0.645691 0.660950
0.715424 0.656036 0.685638
0.845398 0.666779 0.712036
0.090729 0.685211 0.550842
0.231201 0.696747 0.571381
0.355957 0.708557 0.591797
0.452087 0.720612 0.612610
0.531982 0.732910 0.634155
0.634888 0.745514 0.670990
0.715424 0.727905 0.670990
0.845398 0.722931 0.681396
0.107086 0.793518 0.547394
0.246765 0.807129 0.567993
0.368500 0.820862 0.588379
0.461731 0.834839 0.609070
0.541229 0.848969 0.630463
0.664276 0.863190 0.681396
0.770294 0.863190 0.681396
0.845398 0.823547 0.681396
0.090729 0.273590 0.699249
0.090729 0.137268 0.699249
0.203186 0.122681 0.699249
0.318909 0.122681 0.699249
0.413544 0.122681 0.699249
0.488678 0.122681 0.699249
0.559082 0.122681 0.699249
0.736389 0.141724 0.803467
0.090729 0.388123 0.699249
0.231201 0.382660 0.710358
0.241119 0.277405 0.710358
0.351196 0.277405 0.710358
0.438599 0.277405 0.710358
0.510529 0.277405 0.710358
0.582733 0.277405 0.710358
0.771637 0.293640 0.816498
0.090729 0.476105 0.699249
0.231201 0.472076 0.710358
0.355957 0.467987 0.721771
0.381195 0.404083 0.721771
0.462158 0.404083 0.721771
0.532379 0.404083 0.721771
0.608032 0.404083 0.721771
0.798309 0.416473 0.821320
0.090729 0.546204 0.699249
0.231201 0.542664 0.710358
0.355957 0.539185 0.721771
0.452087 0.535614 0.733398
0.484619 0.497681 0.733398
0.554810 0.497681 0.733398
0.635406 0.497681 0.733398
0.813843 0.506927 0.815948
0.090729 0.614136 0.699249
0.231201 0.610413 0.710358
0.355957 0.606598 0.721771
0.452087 0.602966 0.733398
0.531982 0.599243 0.745239
0.578217 0.574280 0.745239
0.664856 0.574280 0.745239
0.829529 0.583099 0.810699
0.090729 0.685211 0.690948
0.231201 0.689362 0.710358
0.355957 0.684784 0.721771
0.452087 0.680206 0.733398
0.531982 0.675659 0.745239
0.618683 0.671204 0.757385
0.696198 0.656036 0.757385
0.845398 0.666779 0.805389
0.090729 0.685211 0.616547
0.231201 0.696747 0.638275
0.355957 0.708557 0.661346
0.452087 0.720612 0.686096
0.531982 0.732910 0.712524
0.618683 0.745514 0.740417
0.729462 0.758362 0.769714
0.861542 0.771393 0.800201
0.107086 0.793518 0.612976
0.246765 0.807129 0.634491
0.368500 0.820862 0.657349
0.461731 0.834839 0.681793
0.541229 0.848969 0.708008
0.630157 0.863190 0.735626
0.764282 0.877625 0.782257
0.861542 0.857422 0.782257
0.107086 0.312134 0.803467
0.107086 0.182190 0.803467
0.196655 0.141724 0.803467
0.313171 0.141724 0.803467
0.409149 0.141724 0.803467
0.485046 0.141724 0.803467
0.555206 0.141724 0.803467
0.635895 0.141724 0.803467
0.107086 0.418549 0.803467
0.246765 0.413635 0.816498
0.246765 0.305756 0.816498
0.345978 0.293640 0.816498
0.434448 0.293640 0.816498
0.506897 0.293640 0.816498
0.578613 0.293640 0.816498
0.665405 0.293640 0.816498
0.107086 0.499237 0.803467
0.246765 0.495544 0.816498
0.368500 0.491669 0.829681
0.376282 0.416473 0.829681
0.458282 0.416473 0.829681
0.528717 0.416473 0.829681
0.603638 0.416473 0.829681
0.696747 0.416473 0.829681
0.107086 0.567047 0.803467
0.246765 0.563538 0.816498
0.368500 0.560059 0.829681
0.461731 0.556549 0.843048
0.480896 0.506927 0.843048
0.550964 0.506927 0.843048
0.630646 0.506927 0.843048
0.730042 0.506927 0.843048
0.107086 0.637390 0.803467
0.246765 0.633331 0.816498
0.368500 0.629425 0.829681
0.461731 0.625458 0.843048
0.541229 0.621582 0.856537
0.574188 0.583099 0.856537
0.659790 0.583099 0.856537
0.764923 0.583099 0.856537
0.107086 0.722748 0.803467
0.246765 0.717804 0.816498
0.368500 0.712921 0.829681
0.461731 0.708008 0.843048
0.541229 0.703217 0.856537
0.630157 0.698456 0.870117
0.690826 0.666779 0.870117
0.801300 0.666779 0.870117
0.107086 0.793518 0.775787
0.246765 0.807129 0.806580
0.368500 0.812103 0.829681
0.461731 0.806549 0.843048
0.541229 0.801025 0.856537
0.630157 0.795532 0.870117
0.743713 0.790070 0.883850
0.838989 0.771393 0.883850
0.107086 0.793518 0.686523
0.246765 0.807129 0.713013
0.368500 0.820862 0.740906
0.461731 0.834839 0.770233
0.541229 0.848969 0.800720
0.630157 0.863190 0.832245
0.743713 0.877625 0.864594
0.877838 0.892151 0.897705
