bin/data/LUT/Chill.CUBE
TITLE "Chill Spring" by Emma Souannhaphanh
LUT_3D_SIZE 32
0.000000 0.000000 0.000000
0.029907 0.005859 0.017273
0.063721 0.011414 0.032318
0.098846 0.016785 0.046692
0.134277 0.022186 0.060516
0.169800 0.027466 0.074036
0.204712 0.032745 0.087280
0.238953 0.037933 0.100281
0.272064 0.043121 0.112946
0.303802 0.048248 0.125488
0.333954 0.053375 0.137848
0.362213 0.058472 0.149933
0.388428 0.063538 0.161957
0.412720 0.068573 0.173737
0.435455 0.073608 0.185425
0.456879 0.078552 0.196899
0.477356 0.083618 0.208282
0.497192 0.088562 0.219452
0.516785 0.093414 0.230469
0.536530 0.098389 0.241394
0.556793 0.103271 0.252136
0.577972 0.108154 0.262634
0.600311 0.113007 0.273102
0.624298 0.117828 0.283356
0.649994 0.122681 0.293457
0.677307 0.127441 0.303406
0.706177 0.132233 0.313232
0.736481 0.136993 0.322845
0.768097 0.141724 0.332367
0.800903 0.146454 0.341705
0.834747 0.151154 0.350830
0.869598 0.155853 0.359863
0.007355 0.046509 0.007751
0.029907 0.039215 0.007751
0.063721 0.037170 0.014587
0.098846 0.035004 0.021057
0.134277 0.032990 0.027313
0.169800 0.030853 0.033508
0.204712 0.032745 0.043945
0.238953 0.037933 0.058075
0.272064 0.043121 0.071533
0.303802 0.048248 0.084778
0.333954 0.053375 0.097809
0.362213 0.058472 0.110626
0.388428 0.063538 0.123230
0.412720 0.068573 0.135529
0.435455 0.073608 0.147705
0.456879 0.078552 0.159729
0.477356 0.083618 0.171661
0.497192 0.088562 0.183258
0.516785 0.093414 0.194733
0.536530 0.098389 0.206116
0.556793 0.103271 0.217346
0.577972 0.108154 0.228455
0.600311 0.113007 0.239410
0.624298 0.117828 0.250122
0.649994 0.122681 0.260712
0.677307 0.127441 0.271149
0.706177 0.132233 0.281372
0.736481 0.136993 0.291534
0.768097 0.141724 0.301666
0.800903 0.146454 0.311462
0.834747 0.151154 0.320953
0.869598 0.155853 0.330658
0.015686 0.090118 0.014587
0.044556 0.090118 0.014587
0.063721 0.076172 0.014587
0.098846 0.074158 0.021057
0.134277 0.072113 0.027313
0.169800 0.070099 0.033508
0.204712 0.068024 0.039520
0.238953 0.065979 0.045410
0.272064 0.063995 0.051270
0.303802 0.061890 0.056976
0.333954 0.059875 0.062683
0.362213 0.058472 0.069031
0.388428 0.063538 0.082367
0.412720 0.068573 0.095459
0.435455 0.073608 0.108307
0.456879 0.078552 0.120850
0.477356 0.083618 0.133301
0.497192 0.088562 0.145477
0.516785 0.093414 0.157471
0.536530 0.098389 0.169434
0.556793 0.103271 0.181061
0.577972 0.108154 0.192657
0.600311 0.113007 0.204102
0.624298 0.117828 0.215332
0.649994 0.122681 0.226501
0.677307 0.127441 0.237244
0.706177 0.132233 0.248169
0.736481 0.136993 0.258820
0.768097 0.141724 0.269135
0.800903 0.146454 0.279633
0.834747 0.151154 0.289764
0.869598 0.155853 0.299805
0.024506 0.132172 0.021057
0.053955 0.132172 0.021057
0.084808 0.132172 0.021057
0.098846 0.111847 0.021057
0.134277 0.109924 0.027313
0.169800 0.107971 0.033508
0.204712 0.105927 0.039520
0.238953 0.103973 0.045410
0.272064 0.102020 0.051270
0.303802 0.099976 0.056976
0.333954 0.098083 0.062683
0.362213 0.096008 0.068329
0.388428 0.094086 0.073914
0.412720 0.092041 0.079437
0.435455 0.090149 0.084991
0.456879 0.088074 0.090332
0.477356 0.086151 0.095795
0.497192 0.088562 0.105835
0.516785 0.093414 0.118408
0.536530 0.098389 0.130890
0.556793 0.103271 0.143280
0.577972 0.108154 0.155304
0.600311 0.113007 0.167114
0.624298 0.117828 0.178925
0.649994 0.122681 0.190552
0.677307 0.127441 0.201874
0.706177 0.132233 0.213135
0.736481 0.136993 0.224335
0.768097 0.141724 0.235321
0.800903 0.146454 0.246094
0.834747 0.151154 0.256683
0.869598 0.155853 0.267395
0.033539 0.172729 0.027313
0.063538 0.172729 0.027313
0.094513 0.172729 0.027313
0.125885 0.172729 0.027313
0.134277 0.146545 0.027313
0.169800 0.144684 0.033508
0.204712 0.142761 0.039520
0.238953 0.140839 0.045410
0.272064 0.138916 0.051270
0.303802 0.136932 0.056976
0.333954 0.135040 0.062683
0.362213 0.133057 0.068329
0.388428 0.131165 0.073914
0.412720 0.129211 0.079437
0.435455 0.127319 0.084991
0.456879 0.125366 0.090332
0.477356 0.123505 0.095795
0.497192 0.121521 0.101166
0.516785 0.119537 0.106384
0.536530 0.117615 0.111725
0.556793 0.115601 0.116913
0.577972 0.113708 0.122192
0.600311 0.113007 0.128601
0.624298 0.117828 0.141052
0.649994 0.122681 0.153015
0.677307 0.127441 0.165070
0.706177 0.132233 0.176819
0.736481 0.136993 0.188385
0.768097 0.141724 0.199921
0.800903 0.146454 0.211151
0.834747 0.151154 0.222351
0.869598 0.155853 0.233124
0.042786 0.211914 0.033508
0.073212 0.211914 0.033508
0.104370 0.211914 0.033508
0.135803 0.211914 0.033508
0.167175 0.211914 0.033508
0.169800 0.180298 0.033508
0.204712 0.178345 0.039520
0.238953 0.176575 0.045410
0.272064 0.174683 0.051270
0.303802 0.172852 0.056976
0.333954 0.170959 0.062683
0.362213 0.169128 0.068329
0.388428 0.167297 0.073914
0.412720 0.165314 0.079437
0.435455 0.163513 0.084991
0.456879 0.161560 0.090332
0.477356 0.159760 0.095795
0.497192 0.157898 0.101166
0.516785 0.155975 0.106384
0.536530 0.154053 0.111725
0.556793 0.152130 0.116913
0.577972 0.150238 0.122192
0.600311 0.148346 0.127350
0.624298 0.146332 0.132446
0.649994 0.144501 0.137634
0.677307 0.142548 0.142670
0.706177 0.140808 0.147736
0.736481 0.138672 0.152740
0.768097 0.141724 0.162933
0.800903 0.146454 0.174683
0.834747 0.151154 0.186127
0.869598 0.155853 0.197662
0.052246 0.249512 0.039520
0.082947 0.249512 0.039520
0.114166 0.249512 0.039520
0.145691 0.249512 0.039520
0.176941 0.249512 0.039520
0.204712 0.246277 0.039520
0.204712 0.212921 0.039520
0.238953 0.211151 0.045410
0.272064 0.209320 0.051270
0.303802 0.207550 0.056976
0.333954 0.205780 0.062683
0.362213 0.203888 0.068329
0.388428 0.202148 0.073914
0.412720 0.200226 0.079437
0.435455 0.198456 0.084991
0.456879 0.196625 0.090332
0.477356 0.194855 0.095795
0.497192 0.193085 0.101166
0.516785 0.191162 0.106384
0.536530 0.189301 0.111725
0.556793 0.187561 0.116913
0.577972 0.185669 0.122192
0.600311 0.183807 0.127350
0.624298 0.181885 0.132446
0.649994 0.180176 0.137634
0.677307 0.178284 0.142670
0.706177 0.176392 0.147736
0.736481 0.174530 0.152740
0.768097 0.172821 0.157745
0.800903 0.170776 0.162689
0.834747 0.168915 0.167633
0.869598 0.167175 0.172516
0.061798 0.285492 0.045410
0.092743 0.285492 0.045410
0.124084 0.285492 0.045410
0.155548 0.285492 0.045410
0.186707 0.285492 0.045410
0.217377 0.285492 0.045410
0.238953 0.276611 0.045410
0.238953 0.244476 0.045410
0.272064 0.242767 0.051270
0.303802 0.241058 0.056976
0.333954 0.239288 0.062683
0.362213 0.237610 0.068329
0.388428 0.235809 0.073914
0.412720 0.234131 0.079437
0.435455 0.232330 0.084991
0.456879 0.230530 0.090332
0.477356 0.228851 0.095795
0.497192 0.226990 0.101166
0.516785 0.225311 0.106384
0.536530 0.223511 0.111725
0.556793 0.221802 0.116913
0.577972 0.219940 0.122192
0.600311 0.218109 0.127350
0.624298 0.216492 0.132446
0.649994 0.214691 0.137634
0.677307 0.212830 0.142670
0.706177 0.211121 0.147736
0.736481 0.209229 0.152740
0.768097 0.207428 0.157745
0.800903 0.205688 0.162689
0.834747 0.203888 0.167633
0.869598 0.202057 0.172516
0.071381 0.319672 0.051270
0.102509 0.319672 0.051270
0.133972 0.319672 0.051270
0.165344 0.319672 0.051270
0.196381 0.319672 0.051270
0.226898 0.319672 0.051270
0.256592 0.319672 0.051270
0.272064 0.305786 0.051270
0.272064 0.274994 0.051270
0.303802 0.273315 0.056976
0.333954 0.271667 0.062683
0.362213 0.269958 0.068329
0.388428 0.268341 0.073914
0.412720 0.266602 0.079437
0.435455 0.264954 0.084991
0.456879 0.263275 0.090332
0.477356 0.261597 0.095795
0.497192 0.259766 0.101166
0.516785 0.258118 0.106384
0.536530 0.256531 0.111725
0.556793 0.254669 0.116913
0.577972 0.253021 0.122192
0.600311 0.251221 0.127350
0.624298 0.249634 0.132446
0.649994 0.247864 0.137634
0.677307 0.246185 0.142670
0.706177 0.244324 0.147736
0.736481 0.242737 0.152740
0.768097 0.240906 0.157745
0.800903 0.239227 0.162689
0.834747 0.237396 0.167633
0.869598 0.235718 0.172516
0.081085 0.351959 0.056976
0.112366 0.351959 0.056976
0.143768 0.351959 0.056976
0.175079 0.351959 0.056976
0.205994 0.351959 0.056976
0.236328 0.351959 0.056976
0.265747 0.351959 0.056976
0.294128 0.351959 0.056976
0.303802 0.333649 0.056976
0.303802 0.304199 0.056976
0.333954 0.302582 0.062683
0.362213 0.300964 0.068329
0.388428 0.299408 0.073914
0.412720 0.297791 0.079437
0.435455 0.296143 0.084991
0.456879 0.294617 0.090332
0.477356 0.292999 0.095795
0.497192 0.291290 0.101166
0.516785 0.289703 0.106384
0.536530 0.288055 0.111725
0.556793 0.286377 0.116913
0.577972 0.284729 0.122192
0.600311 0.283203 0.127350
0.624298 0.281525 0.132446
0.649994 0.279846 0.137634
0.677307 0.278259 0.142670
0.706177 0.276581 0.147736
0.736481 0.274780 0.152740
0.768097 0.273315 0.157745
0.800903 0.271515 0.162689
0.834747 0.269897 0.167633
0.869598 0.268188 0.172516
0.090942 0.382233 0.062683
0.122314 0.382233 0.062683
0.153717 0.382233 0.062683
0.184906 0.382233 0.062683
0.215607 0.382233 0.062683
0.245636 0.382233 0.062683
0.274811 0.382233 0.062683
0.302826 0.382233 0.062683
0.329651 0.382233 0.062683
0.333954 0.360168 0.062683
0.333954 0.332153 0.062683
0.362213 0.330597 0.068329
0.388428 0.329071 0.073914
0.412720 0.327545 0.079437
0.435455 0.326050 0.084991
0.456879 0.324524 0.090332
0.477356 0.322968 0.095795
0.497192 0.321381 0.101166
0.516785 0.319763 0.106384
0.536530 0.318329 0.111725
0.556793 0.316681 0.116913
0.577972 0.315125 0.122192
0.600311 0.313629 0.127350
0.624298 0.312012 0.132446
0.649994 0.310516 0.137634
0.677307 0.308746 0.142670
0.706177 0.307220 0.147736
0.736481 0.305695 0.152740
0.768097 0.304169 0.157745
0.800903 0.302429 0.162689
0.834747 0.300781 0.167633
0.869598 0.299255 0.172516
0.100708 0.410278 0.068329
0.132080 0.410278 0.068329
0.163513 0.410278 0.068329
0.194580 0.410278 0.068329
0.225037 0.410278 0.068329
0.254913 0.410278 0.068329
0.283691 0.410278 0.068329
0.311401 0.410278 0.068329
0.337738 0.410278 0.068329
0.362213 0.409851 0.068329
0.362213 0.385132 0.068329
0.362213 0.358673 0.068329
0.388428 0.357300 0.073914
0.412720 0.355804 0.079437
0.435455 0.354340 0.084991
0.456879 0.352936 0.090332
0.477356 0.351440 0.095795
0.497192 0.349945 0.101166
0.516785 0.348480 0.106384
0.536530 0.346985 0.111725
0.556793 0.345581 0.116913
0.577972 0.344025 0.122192
0.600311 0.342560 0.127350
0.624298 0.341064 0.132446
0.649994 0.339539 0.137634
0.677307 0.338043 0.142670
0.706177 0.336609 0.147736
0.736481 0.335083 0.152740
0.768097 0.333557 0.157745
0.800903 0.332123 0.162689
0.834747 0.330536 0.167633
0.869598 0.328918 0.172516
0.110565 0.436035 0.073914
0.141968 0.436035 0.073914
0.173340 0.436035 0.073914
0.204254 0.436035 0.073914
0.234558 0.436035 0.073914
0.264099 0.436035 0.073914
0.292511 0.436035 0.073914
0.319763 0.436035 0.073914
0.345764 0.436035 0.073914
0.370117 0.436035 0.073914
0.388428 0.431671 0.073914
0.388428 0.408569 0.073914
0.388428 0.383789 0.073914
0.412720 0.382416 0.079437
0.435455 0.381104 0.084991
0.456879 0.379730 0.090332
0.477356 0.378326 0.095795
0.497192 0.376953 0.101166
0.516785 0.375641 0.106384
0.536530 0.374207 0.111725
0.556793 0.372681 0.116913
0.577972 0.371338 0.122192
0.600311 0.369934 0.127350
0.624298 0.368591 0.132446
0.649994 0.367218 0.137634
0.677307 0.365723 0.142670
0.706177 0.364227 0.147736
0.736481 0.362793 0.152740
0.768097 0.361420 0.157745
0.800903 0.360077 0.162689
0.834747 0.358490 0.167633
0.869598 0.357269 0.172516
0.120453 0.459717 0.079437
0.151886 0.459717 0.079437
0.183044 0.459717 0.079437
0.213867 0.459717 0.079437
0.243866 0.459717 0.079437
0.273071 0.459717 0.079437
0.301147 0.459717 0.079437
0.328125 0.459717 0.079437
0.353577 0.459717 0.079437
0.377441 0.459717 0.079437
0.399719 0.459717 0.079437
0.412720 0.451874 0.079437
0.412720 0.430450 0.079437
0.412720 0.407318 0.079437
0.435455 0.406006 0.084991
0.456879 0.404846 0.090332
0.477356 0.403564 0.095795
0.497192 0.402252 0.101166
0.516785 0.400940 0.106384
0.536530 0.399597 0.111725
0.556793 0.398285 0.116913
0.577972 0.397095 0.122192
0.600311 0.395660 0.127350
0.624298 0.394379 0.132446
0.649994 0.393158 0.137634
0.677307 0.391754 0.142670
0.706177 0.390472 0.147736
0.736481 0.389069 0.152740
0.768097 0.387848 0.157745
0.800903 0.386414 0.162689
0.834747 0.385101 0.167633
0.869598 0.383759 0.172516
0.130310 0.481720 0.084991
0.161743 0.481720 0.084991
0.192780 0.481720 0.084991
0.223389 0.481720 0.084991
0.253143 0.481720 0.084991
0.282074 0.481720 0.084991
0.309784 0.481720 0.084991
0.336243 0.481720 0.084991
0.361267 0.481720 0.084991
0.384552 0.481720 0.084991
0.406464 0.481720 0.084991
0.426910 0.481720 0.084991
0.435455 0.470825 0.084991
0.435455 0.450867 0.084991
0.435455 0.429321 0.084991
0.456879 0.428131 0.090332
0.477356 0.426971 0.095795
0.497192 0.425751 0.101166
0.516785 0.424591 0.106384
0.536530 0.423340 0.111725
0.556793 0.422089 0.116913
0.577972 0.420990 0.122192
0.600311 0.419647 0.127350
0.624298 0.418457 0.132446
0.649994 0.417206 0.137634
0.677307 0.416046 0.142670
0.706177 0.414703 0.147736
0.736481 0.413574 0.152740
0.768097 0.412292 0.157745
0.800903 0.411011 0.162689
0.834747 0.409698 0.167633
0.869598 0.408569 0.172516
0.140198 0.502289 0.090332
0.171478 0.502289 0.090332
0.202454 0.502289 0.090332
0.232788 0.502289 0.090332
0.262329 0.502289 0.090332
0.290833 0.502289 0.090332
0.318237 0.502289 0.090332
0.344177 0.502289 0.090332
0.368744 0.502289 0.090332
0.391632 0.502289 0.090332
0.413025 0.502289 0.090332
0.433136 0.502289 0.090332
0.452271 0.502289 0.090332
0.456879 0.488739 0.090332
0.456879 0.469849 0.090332
0.456879 0.449707 0.090332
0.477356 0.448608 0.095795
0.497192 0.447510 0.101166
0.516785 0.446381 0.106384
0.536530 0.445312 0.111725
0.556793 0.444153 0.116913
0.577972 0.443115 0.122192
0.600311 0.441956 0.127350
0.624298 0.440735 0.132446
0.649994 0.439667 0.137634
0.677307 0.438599 0.142670
0.706177 0.437378 0.147736
0.736481 0.436096 0.152740
0.768097 0.435028 0.157745
0.800903 0.433929 0.162689
0.834747 0.432770 0.167633
0.869598 0.431610 0.172516
0.150055 0.521942 0.095795
0.181274 0.521942 0.095795
0.212067 0.521942 0.095795
0.242188 0.521942 0.095795
0.271454 0.521942 0.095795
0.299622 0.521942 0.095795
0.326599 0.521942 0.095795
0.352142 0.521942 0.095795
0.376099 0.521942 0.095795
0.398499 0.521942 0.095795
0.419434 0.521942 0.095795
0.439240 0.521942 0.095795
0.458038 0.521942 0.095795
0.476166 0.521942 0.095795
0.477356 0.505768 0.095795
0.477356 0.487793 0.095795
0.477356 0.468842 0.095795
0.497192 0.467804 0.101166
0.516785 0.466736 0.106384
0.536530 0.465698 0.111725
0.556793 0.464661 0.116913
0.577972 0.463623 0.122192
0.600311 0.462585 0.127350
0.624298 0.461456 0.132446
0.649994 0.460510 0.137634
0.677307 0.459351 0.142670
0.706177 0.458374 0.147736
0.736481 0.457184 0.152740
0.768097 0.456207 0.157745
0.800903 0.455109 0.162689
0.834747 0.454102 0.167633
0.869598 0.452942 0.172516
0.159882 0.541016 0.101166
0.191040 0.541016 0.101166
0.221649 0.541016 0.101166
0.251526 0.541016 0.101166
0.280426 0.541016 0.101166
0.308228 0.541016 0.101166
0.334747 0.541016 0.101166
0.359772 0.541016 0.101166
0.383240 0.541016 0.101166
0.405151 0.541016 0.101166
0.425751 0.541016 0.101166
0.445221 0.541016 0.101166
0.463806 0.541016 0.101166
0.481720 0.541016 0.101166
0.497192 0.539062 0.101166
0.497192 0.522217 0.101166
0.497192 0.504852 0.101166
0.497192 0.486847 0.101166
0.516785 0.485779 0.106384
0.536530 0.484894 0.111725
0.556793 0.483887 0.116913
0.577972 0.482910 0.122192
0.600311 0.481903 0.127350
0.624298 0.480957 0.132446
0.649994 0.479858 0.137634
0.677307 0.478882 0.142670
0.706177 0.477905 0.147736
0.736481 0.476898 0.152740
0.768097 0.475922 0.157745
0.800903 0.474884 0.162689
0.834747 0.473846 0.167633
0.869598 0.472839 0.172516
0.169678 0.559814 0.106384
0.200684 0.559814 0.106384
0.231018 0.559814 0.106384
0.260712 0.559814 0.106384
0.289215 0.559814 0.106384
0.316711 0.559814 0.106384
0.342712 0.559814 0.106384
0.367371 0.559814 0.106384
0.390289 0.559814 0.106384
0.411774 0.559814 0.106384
0.431946 0.559814 0.106384
0.451141 0.559814 0.106384
0.469513 0.559814 0.106384
0.487183 0.559814 0.106384
0.504639 0.559814 0.106384
0.516785 0.554779 0.106384
0.516785 0.538147 0.106384
0.516785 0.521271 0.106384
0.516785 0.503876 0.106384
0.536530 0.502930 0.111725
0.556793 0.501984 0.116913
0.577972 0.501099 0.122192
0.600311 0.500122 0.127350
0.624298 0.499237 0.132446
0.649994 0.498291 0.137634
0.677307 0.497314 0.142670
0.706177 0.496429 0.147736
0.736481 0.495483 0.152740
0.768097 0.494446 0.157745
0.800903 0.493500 0.162689
0.834747 0.492615 0.167633
0.869598 0.491547 0.172516
0.179504 0.578644 0.111725
0.210358 0.578644 0.111725
0.240417 0.578644 0.111725
0.269806 0.578644 0.111725
0.297974 0.578644 0.111725
0.325012 0.578644 0.111725
0.350616 0.578644 0.111725
0.374725 0.578644 0.111725
0.397247 0.578644 0.111725
0.418213 0.578644 0.111725
0.438141 0.578644 0.111725
0.456970 0.578644 0.111725
0.475159 0.578644 0.111725
0.492706 0.578644 0.111725
0.510071 0.578644 0.111725
0.527466 0.578644 0.111725
0.536530 0.570587 0.111725
0.536530 0.553925 0.111725
0.536530 0.537292 0.111725
0.536530 0.520355 0.111725
0.556793 0.519409 0.116913
0.577972 0.518555 0.122192
0.600311 0.517578 0.127350
0.624298 0.516754 0.132446
0.649994 0.515839 0.137634
0.677307 0.514893 0.142670
0.706177 0.514008 0.147736
0.736481 0.513031 0.152740
0.768097 0.512115 0.157745
0.800903 0.511292 0.162689
0.834747 0.510284 0.167633
0.869598 0.509460 0.172516
0.189209 0.597900 0.116913
0.219849 0.597900 0.116913
0.249847 0.597900 0.116913
0.278687 0.597900 0.116913
0.306610 0.597900 0.116913
0.333252 0.597900 0.116913
0.358429 0.597900 0.116913
0.382019 0.597900 0.116913
0.403931 0.597900 0.116913
0.424561 0.597900 0.116913
0.444122 0.597900 0.116913
0.462738 0.597900 0.116913
0.480652 0.597900 0.116913
0.498138 0.597900 0.116913
0.515533 0.597900 0.116913
0.532959 0.597900 0.116913
0.550812 0.597900 0.116913
0.556793 0.586426 0.116913
0.556793 0.569672 0.116913
0.556793 0.553009 0.116913
0.556793 0.536377 0.116913
0.577972 0.535461 0.122192
0.600311 0.534637 0.127350
0.624298 0.533752 0.132446
0.649994 0.532837 0.137634
0.677307 0.531952 0.142670
0.706177 0.531036 0.147736
0.736481 0.530151 0.152740
0.768097 0.529327 0.157745
0.800903 0.528381 0.162689
0.834747 0.527496 0.167633
0.869598 0.526672 0.172516
0.198883 0.617889 0.122192
0.229309 0.617889 0.122192
0.258942 0.617889 0.122192
0.287598 0.617889 0.122192
0.315125 0.617889 0.122192
0.341278 0.617889 0.122192
0.365936 0.617889 0.122192
0.388947 0.617889 0.122192
0.410522 0.617889 0.122192
0.430756 0.617889 0.122192
0.450012 0.617889 0.122192
0.468384 0.617889 0.122192
0.486145 0.617889 0.122192
0.503632 0.617889 0.122192
0.520996 0.617889 0.122192
0.538513 0.617889 0.122192
0.556519 0.617889 0.122192
0.575104 0.617889 0.122192
0.577972 0.602753 0.122192
0.577972 0.585571 0.122192
0.577972 0.568787 0.122192
0.577972 0.552185 0.122192
0.600311 0.551300 0.127350
0.624298 0.550446 0.132446
0.649994 0.549530 0.137634
0.677307 0.548706 0.142670
0.706177 0.547760 0.147736
0.736481 0.546906 0.152740
0.768097 0.545990 0.157745
0.800903 0.545135 0.162689
0.834747 0.544189 0.167633
0.869598 0.543396 0.172516
0.208496 0.638885 0.127350
0.238647 0.638885 0.127350
0.268005 0.638885 0.127350
0.296448 0.638885 0.127350
0.323547 0.638885 0.127350
0.349213 0.638885 0.127350
0.373383 0.638885 0.127350
0.395905 0.638885 0.127350
0.416992 0.638885 0.127350
0.437012 0.638885 0.127350
0.455933 0.638885 0.127350
0.474091 0.638885 0.127350
0.491669 0.638885 0.127350
0.509033 0.638885 0.127350
0.526398 0.638885 0.127350
0.544098 0.638885 0.127350
0.562225 0.638885 0.127350
0.581146 0.638885 0.127350
0.600311 0.638306 0.127350
0.600311 0.619659 0.127350
0.600311 0.601807 0.127350
0.600311 0.584625 0.127350
0.600311 0.567902 0.127350
0.624298 0.567047 0.132446
0.649994 0.566193 0.137634
0.677307 0.565216 0.142670
0.706177 0.564392 0.147736
0.736481 0.563568 0.152740
0.768097 0.562592 0.157745
0.800903 0.561737 0.162689
0.834747 0.560883 0.167633
0.869598 0.560028 0.172516
0.218048 0.661316 0.132446
0.248016 0.661316 0.132446
0.277039 0.661316 0.132446
0.304993 0.661316 0.132446
0.331665 0.661316 0.132446
0.356903 0.661316 0.132446
0.380554 0.661316 0.132446
0.402740 0.661316 0.132446
0.423462 0.661316 0.132446
0.443024 0.661316 0.132446
0.461700 0.661316 0.132446
0.479645 0.661316 0.132446
0.497162 0.661316 0.132446
0.514526 0.661316 0.132446
0.531921 0.661316 0.132446
0.549683 0.661316 0.132446
0.568024 0.661316 0.132446
0.587311 0.661316 0.132446
0.607605 0.661316 0.132446
0.624298 0.656860 0.132446
0.624298 0.637238 0.132446
0.624298 0.618652 0.132446
0.624298 0.600922 0.132446
0.624298 0.583801 0.132446
0.649994 0.582855 0.137634
0.677307 0.581970 0.142670
0.706177 0.581055 0.147736
0.736481 0.580200 0.152740
0.768097 0.579376 0.157745
0.800903 0.578491 0.162689
0.834747 0.577515 0.167633
0.869598 0.576691 0.172516
0.227570 0.685211 0.137634
0.257324 0.685211 0.137634
0.285919 0.685211 0.137634
0.313568 0.685211 0.137634
0.339844 0.685211 0.137634
0.364532 0.685211 0.137634
0.387726 0.685211 0.137634
0.409424 0.685211 0.137634
0.429626 0.685211 0.137634
0.448944 0.685211 0.137634
0.467407 0.685211 0.137634
0.485168 0.685211 0.137634
0.502625 0.685211 0.137634
0.519989 0.685211 0.137634
0.537415 0.685211 0.137634
0.555420 0.685211 0.137634
0.574005 0.685211 0.137634
0.593445 0.685211 0.137634
0.614166 0.685211 0.137634
0.636230 0.685211 0.137634
0.649994 0.676636 0.137634
0.649994 0.655853 0.137634
0.649994 0.636200 0.137634
0.649994 0.617767 0.137634
0.649994 0.600037 0.137634
0.677307 0.599091 0.142670
0.706177 0.598175 0.147736
0.736481 0.597260 0.152740
0.768097 0.596375 0.157745
0.800903 0.595490 0.162689
0.834747 0.594574 0.167633
0.869598 0.593628 0.172516
0.236938 0.710480 0.142670
0.266388 0.710480 0.142670
0.294830 0.710480 0.142670
0.321991 0.710480 0.142670
0.347687 0.710480 0.142670
0.371979 0.710480 0.142670
0.394623 0.710480 0.142670
0.415833 0.710480 0.142670
0.435852 0.710480 0.142670
0.454865 0.710480 0.142670
0.472992 0.710480 0.142670
0.490692 0.710480 0.142670
0.508057 0.710480 0.142670
0.525421 0.710480 0.142670
0.543060 0.710480 0.142670
0.561218 0.710480 0.142670
0.579956 0.710480 0.142670
0.599823 0.710480 0.142670
0.620880 0.710480 0.142670
0.643341 0.710480 0.142670
0.667114 0.710480 0.142670
0.677307 0.697205 0.142670
0.677307 0.675537 0.142670
0.677307 0.654785 0.142670
0.677307 0.635254 0.142670
0.677307 0.616760 0.142670
0.706177 0.615784 0.147736
0.736481 0.614899 0.152740
0.768097 0.613922 0.157745
0.800903 0.612976 0.162689
0.834747 0.612000 0.167633
0.869598 0.611053 0.172516
0.246307 0.737091 0.147736
0.275513 0.737091 0.147736
0.303436 0.737091 0.147736
0.330261 0.737091 0.147736
0.355560 0.737091 0.147736
0.379303 0.737091 0.147736
0.401428 0.737091 0.147736
0.422272 0.737091 0.147736
0.441864 0.737091 0.147736
0.460632 0.737091 0.147736
0.478577 0.737091 0.147736
0.496155 0.737091 0.147736
0.513458 0.737091 0.147736
0.530945 0.737091 0.147736
0.548645 0.737091 0.147736
0.566986 0.737091 0.147736
0.586182 0.737091 0.147736
0.606293 0.737091 0.147736
0.627869 0.737091 0.147736
0.650604 0.737091 0.147736
0.674835 0.737091 0.147736
0.700073 0.737091 0.147736
0.706177 0.718903 0.147736
0.706177 0.696136 0.147736
0.706177 0.674316 0.147736
0.706177 0.653748 0.147736
0.706177 0.634247 0.147736
0.736481 0.633209 0.152740
0.768097 0.632202 0.157745
0.800903 0.631256 0.162689
0.834747 0.630310 0.167633
0.869598 0.629242 0.172516
0.255554 0.764740 0.152740
0.284363 0.764740 0.152740
0.311920 0.764740 0.152740
0.338287 0.764740 0.152740
0.363190 0.764740 0.152740
0.386322 0.764740 0.152740
0.408081 0.764740 0.152740
0.428528 0.764740 0.152740
0.447906 0.764740 0.152740
0.466248 0.764740 0.152740
0.484161 0.764740 0.152740
0.501648 0.764740 0.152740
0.518860 0.764740 0.152740
0.536407 0.764740 0.152740
0.554352 0.764740 0.152740
0.572815 0.764740 0.152740
0.592316 0.764740 0.152740
0.612915 0.764740 0.152740
0.634888 0.764740 0.152740
0.658051 0.764740 0.152740
0.682617 0.764740 0.152740
0.708374 0.764740 0.152740
