bin/data/LUT/Moody.CUBE
TITLE "Moody" by Emma Souannhaphanh
LUT_3D_SIZE 5
DOMAIN_MIN 0.000000 0.000000 0.000000
DOMAIN_MAX 0.903226 0.903226 0.903226
0.000000 0.000000 0.000000
0.166687 0.012604 0.017426
0.364380 0.021515 0.043610
0.600006 0.030029 0.090790
0.847687 0.040405 0.162750
0.036377 0.168335 0.059204
0.201263 0.181274 0.081451
0.406250 0.186035 0.114807
0.657501 0.182495 0.174927
0.905884 0.155273 0.295959
0.078003 0.354736 0.149933
0.228241 0.375763 0.174286
0.425507 0.386810 0.198914
0.663147 0.394043 0.236725
0.891785 0.395691 0.306091
0.140472 0.573853 0.253693
0.269196 0.603912 0.286743
0.456879 0.619720 0.311005
0.684601 0.631226 0.341492
0.898132 0.640656 0.392731
0.226990 0.817566 0.395172
0.335907 0.842133 0.437622
0.507568 0.855865 0.467163
0.719452 0.865173 0.495911
0.911896 0.873322 0.536987
0.000031 0.002136 0.186737
0.138611 0.020325 0.251038
0.352417 0.024170 0.259644
0.596039 0.033844 0.280609
0.849182 0.047485 0.318359
0.028198 0.170929 0.266907
0.175873 0.191956 0.293152
0.395844 0.192108 0.309692
0.654297 0.189148 0.349823
0.907410 0.163361 0.447205
0.052887 0.373932 0.320282
0.210938 0.391510 0.340729
0.421326 0.397552 0.355957
0.664276 0.404114 0.384003
0.894226 0.406677 0.438751
0.108704 0.602203 0.391266
0.260193 0.622131 0.414368
0.457581 0.634033 0.433289
0.689484 0.644043 0.458832
0.901855 0.653320 0.502380
0.220123 0.832397 0.492706
0.335510 0.854034 0.531738
0.513428 0.865723 0.557465
0.727386 0.873901 0.582642
0.916565 0.881409 0.618561
0.000031 0.010406 0.367188
0.049377 0.055725 0.535645
0.312805 0.037262 0.525238
0.576385 0.039856 0.532806
0.842957 0.051514 0.556183
0.023285 0.170715 0.512054
0.084320 0.229340 0.575592
0.353546 0.207916 0.567444
0.632690 0.198151 0.593689
0.903015 0.167816 0.673859
0.051178 0.374146 0.554077
0.111298 0.435760 0.615173
0.383026 0.413971 0.601288
0.646454 0.413361 0.616699
0.889374 0.413727 0.655487
0.081116 0.617279 0.612823
0.155975 0.667755 0.664825
0.424988 0.650299 0.651611
0.675476 0.654358 0.665436
0.898651 0.661255 0.694885
0.118256 0.863068 0.704102
0.280487 0.871552 0.718994
0.488861 0.875854 0.728882
0.718292 0.881104 0.743683
0.915283 0.887115 0.767548
0.000031 0.026611 0.549286
0.032349 0.062073 0.785919
0.142242 0.105621 0.832703
0.525146 0.057159 0.806519
0.826050 0.059814 0.812561
0.014008 0.172028 0.773468
0.075165 0.230591 0.817688
0.185577 0.277069 0.852997
0.575226 0.221619 0.838776
0.887756 0.180756 0.878448
0.045990 0.373688 0.802307
0.106079 0.435364 0.841705
0.231598 0.477600 0.867737
0.596069 0.434296 0.852722
0.874786 0.425568 0.867401
0.078430 0.617279 0.834625
0.138367 0.673676 0.869110
0.296387 0.698456 0.884735
0.630035 0.672913 0.875122
0.886261 0.671875 0.884918
0.118774 0.864227 0.877838
0.178711 0.893860 0.905884
0.389343 0.896667 0.909607
0.680298 0.891174 0.907074
0.905548 0.893311 0.914948
0.000031 0.055054 0.735596
0.000031 0.080353 0.954834
0.075165 0.137115 0.982269
0.334351 0.130585 0.995880
0.777771 0.083710 0.986084
0.000031 0.177582 0.955414
0.057678 0.235779 0.977448
0.129456 0.299377 0.997620
0.375671 0.308044 1.000000
0.824677 0.239380 1.000000
0.035675 0.374268 0.972229
0.095825 0.435883 0.989349
0.176636 0.503143 1.000000
0.421326 0.515442 1.000000
0.826202 0.467163 1.000000
0.071686 0.616577 0.985260
0.135559 0.672363 1.000000
0.245575 0.723267 1.000000
0.495819 0.732025 1.000000
0.844086 0.710663 1.000000
0.127991 0.861877 1.000000
0.250519 0.882111 1.000000
0.391174 0.902130 1.000000
0.642487 0.905792 1.000000
0.888184 0.908844 1.000000
