bin/data/LUT/Moody.CUBE
TITLE "Moody" by Emma Souannhaphanh
LUT_3D_SIZE 8
DOMAIN_MIN 0.000000 0.000000 0.000000
DOMAIN_MAX 0.903226 0.903226 0.903226
0.000000 0.000000 0.000000
0.089508 0.008545 0.010162
0.193207 0.014008 0.020233
0.304993 0.019043 0.035126
0.425934 0.024078 0.053406
0.562866 0.028809 0.082275
0.710602 0.034027 0.118225
0.847687 0.040405 0.162750
0.024475 0.091553 0.032623
0.113373 0.100006 0.045288
0.220306 0.103271 0.058899
0.339355 0.104004 0.079407
0.473297 0.100555 0.111023
0.626892 0.092377 0.157593
0.764313 0.097992 0.191833
0.882416 0.104645 0.234283
0.041962 0.193634 0.070740
0.128571 0.203430 0.082977
0.232208 0.208679 0.096222
0.346558 0.212372 0.113770
0.473053 0.214264 0.136963
0.617126 0.213623 0.169495
0.770538 0.207489 0.217468
0.905975 0.184692 0.300476
0.063629 0.299835 0.123444
0.146759 0.311493 0.136963
0.246185 0.319305 0.149078
0.358002 0.325134 0.163452
0.481995 0.329315 0.181580
0.621857 0.332275 0.205963
0.767487 0.333008 0.241180
0.892120 0.329834 0.292114
0.093689 0.411713 0.176514
0.168915 0.427307 0.192963
0.263428 0.437805 0.206268
0.373230 0.445251 0.219696
0.495056 0.451080 0.235168
0.631653 0.456116 0.255646
0.773041 0.459900 0.284241
0.892670 0.461853 0.324951
0.131104 0.538666 0.236389
0.197113 0.558105 0.256866
0.286072 0.570984 0.272186
0.392731 0.579926 0.285583
0.512054 0.586975 0.300018
0.645569 0.593231 0.317993
0.782074 0.598907 0.342255
0.896729 0.603546 0.376556
0.174133 0.679260 0.307922
0.233978 0.699036 0.331024
0.316376 0.712921 0.348999
0.418793 0.722443 0.363922
0.534424 0.729980 0.378448
0.663666 0.736511 0.395203
0.794434 0.742615 0.417023
0.903198 0.748260 0.446838
0.226990 0.817566 0.395172
0.281128 0.833252 0.421356
0.357117 0.844574 0.442383
0.453491 0.852692 0.459442
0.564026 0.858704 0.474701
0.687225 0.863922 0.491180
0.810638 0.868713 0.511047
0.911896 0.873322 0.536987
0.000031 0.001068 0.104523
0.069916 0.013794 0.145477
0.183197 0.015472 0.149475
0.298920 0.019684 0.157867
0.422058 0.024841 0.169769
0.561707 0.030701 0.185730
0.711456 0.037476 0.208282
0.849518 0.045288 0.239105
0.018738 0.092133 0.155548
0.095490 0.105743 0.173615
0.211365 0.105652 0.181213
0.333588 0.105621 0.196808
0.469757 0.102448 0.220825
0.626465 0.094971 0.256592
0.765472 0.101837 0.278748
0.884064 0.109802 0.309296
0.032288 0.198273 0.183136
0.113403 0.210541 0.197479
0.224213 0.213196 0.204498
0.342316 0.216125 0.216217
0.471313 0.217926 0.233154
0.617310 0.217834 0.257935
0.771667 0.212830 0.297211
0.907471 0.190674 0.371857
0.045319 0.312347 0.218994
0.135040 0.321228 0.229279
0.241608 0.325989 0.237762
0.356903 0.330688 0.248749
0.482697 0.334717 0.263245
0.623779 0.337738 0.283569
0.769989 0.339172 0.312836
0.894287 0.336578 0.357452
0.077637 0.426422 0.256104
0.162048 0.438019 0.268555
0.261017 0.446655 0.279327
0.373657 0.453064 0.290436
0.497406 0.458344 0.303802
0.635101 0.463226 0.321899
0.776245 0.467285 0.346954
0.895081 0.469513 0.383789
0.122620 0.552185 0.300568
0.193481 0.569458 0.318817
0.286530 0.580475 0.332336
0.395081 0.588684 0.344757
0.516174 0.595215 0.357605
0.649963 0.601349 0.374329
0.786285 0.606781 0.396637
0.899536 0.611633 0.428589
0.171753 0.690491 0.360107
0.233459 0.709381 0.382721
0.318420 0.722046 0.399628
0.422577 0.730927 0.413483
0.539551 0.737885 0.427124
0.669159 0.744110 0.442993
0.799225 0.750000 0.463562
0.906281 0.755554 0.491364
0.228607 0.825439 0.438354
0.283539 0.840485 0.464203
0.360840 0.851196 0.484436
0.459015 0.858612 0.500671
0.570374 0.864288 0.515228
0.693604 0.869263 0.530823
0.815674 0.873840 0.549744
0.915161 0.878296 0.574188
0.000031 0.003082 0.212128
0.028381 0.029846 0.292480
0.161713 0.022827 0.287933
0.286102 0.023560 0.290924
0.413513 0.027313 0.298279
0.555969 0.032837 0.309662
0.708588 0.039642 0.325806
0.848724 0.048035 0.348541
0.016479 0.091797 0.282990
0.050720 0.123962 0.318817
0.188385 0.114441 0.316376
0.319336 0.110962 0.326202
0.459564 0.106537 0.346252
0.619812 0.098389 0.378174
0.763000 0.104279 0.395935
0.883514 0.112701 0.419006
0.031219 0.198334 0.305481
0.065704 0.230957 0.340271
0.203766 0.221741 0.334839
0.330078 0.221283 0.341797
0.462769 0.221954 0.355042
0.612061 0.221191 0.375885
0.768890 0.216400 0.409973
0.906372 0.195221 0.477295
0.045654 0.313324 0.333557
0.091644 0.341492 0.363190
0.222626 0.335571 0.360107
0.345795 0.336914 0.366760
0.475800 0.339447 0.378052
0.619568 0.342041 0.394714
0.768036 0.343292 0.419861
0.893890 0.341064 0.458588
0.060181 0.437408 0.369080
0.126007 0.457245 0.389771
0.245026 0.456909 0.391388
0.364502 0.460327 0.398926
0.492004 0.464264 0.409668
0.632172 0.468567 0.424805
0.775391 0.472290 0.446594
0.895325 0.474640 0.478577
0.079376 0.576141 0.414276
0.168304 0.585358 0.424591
0.272766 0.591431 0.432800
0.387909 0.596802 0.441833
0.512238 0.602142 0.452759
0.648590 0.607513 0.467102
0.786316 0.612701 0.486755
0.900269 0.617371 0.514618
0.145538 0.706940 0.454834
0.216705 0.721802 0.473206
0.308807 0.731689 0.486755
0.417603 0.738770 0.498230
0.537445 0.744751 0.510010
0.669128 0.750275 0.523895
0.800323 0.755768 0.542084
0.907440 0.761169 0.566864
0.214722 0.834991 0.515656
0.273468 0.848480 0.539368
0.354523 0.857971 0.557465
0.456238 0.864380 0.571411
0.569977 0.869385 0.584198
0.695099 0.873840 0.598145
0.817657 0.878113 0.614899
0.916809 0.882355 0.636749
0.000031 0.007080 0.317932
0.023804 0.030487 0.432434
0.104309 0.045197 0.455750
0.260590 0.032288 0.443512
0.396454 0.032471 0.446045
0.544403 0.036194 0.453461
0.701385 0.042114 0.465668
0.845551 0.050201 0.483368
0.012695 0.092072 0.422394
0.047089 0.124115 0.458984
0.128815 0.138702 0.479828
0.290955 0.121765 0.475281
0.438934 0.114349 0.489655
0.605438 0.104218 0.518066
0.756744 0.106842 0.535065
0.880859 0.114899 0.552551
0.028900 0.198090 0.444092
0.062408 0.231201 0.479767
0.148071 0.244659 0.497223
0.303680 0.231262 0.490509
0.445312 0.228241 0.498810
0.599609 0.226196 0.515472
0.761475 0.220520 0.544830
0.902557 0.200317 0.602966
0.044281 0.313202 0.468964
0.077820 0.346985 0.504364
0.172119 0.357269 0.516754
0.320587 0.347321 0.511414
0.458832 0.346405 0.517853
0.608673 0.346954 0.530975
0.761597 0.347382 0.551697
0.891235 0.344666 0.584808
0.059784 0.437958 0.498657
0.093079 0.472473 0.533691
0.200409 0.477051 0.540009
0.341431 0.470764 0.537354
0.476715 0.471497 0.543701
0.622406 0.473969 0.555115
0.769897 0.476868 0.572693
0.893066 0.478821 0.599182
0.076599 0.579071 0.536987
0.109802 0.611938 0.571259
0.235535 0.608795 0.569519
0.366730 0.607330 0.570709
0.498474 0.609650 0.577515
0.640106 0.613403 0.588318
0.781891 0.617584 0.604218
0.898560 0.621826 0.627045
0.095459 0.728638 0.587097
0.153412 0.747375 0.609955
0.277740 0.745453 0.608826
0.398834 0.748108 0.614166
0.525909 0.751678 0.621979
0.662109 0.756012 0.632629
0.796997 0.760620 0.647156
0.906372 0.765503 0.667389
0.165222 0.850922 0.633179
0.237518 0.860260 0.649353
0.331146 0.866272 0.660858
0.441223 0.870667 0.670319
0.560608 0.874420 0.679626
0.689850 0.878052 0.690430
0.815552 0.881805 0.703827
0.916321 0.885620 0.721527
0.000031 0.013641 0.419525
0.016846 0.032562 0.578400
0.056152 0.064880 0.618164
0.208557 0.051971 0.614960
0.367004 0.042358 0.606903
0.525024 0.042297 0.609222
0.689301 0.046173 0.616852
0.839691 0.053040 0.629639
0.007080 0.093231 0.569611
0.041656 0.125244 0.604675
0.079163 0.159027 0.641876
0.233765 0.144897 0.639374
0.404541 0.127625 0.642395
0.581268 0.114166 0.663055
0.745880 0.110992 0.679962
0.875946 0.117920 0.691864
0.025482 0.198059 0.591339
0.059082 0.231110 0.624908
0.095795 0.266052 0.660553
0.250549 0.252594 0.653992
0.413483 0.240143 0.651825
0.578766 0.234222 0.662415
0.748383 0.226959 0.684662
0.895813 0.207214 0.730011
0.041901 0.312958 0.613434
0.075317 0.346771 0.646118
0.111481 0.382935 0.680481
0.270172 0.367981 0.671051
0.428802 0.357941 0.667877
0.588898 0.354767 0.675232
0.750183 0.353058 0.690430
0.885956 0.349335 0.715942
0.058197 0.437775 0.638123
0.091492 0.472382 0.669861
0.127441 0.508789 0.703033
0.293518 0.490875 0.690369
0.448090 0.483093 0.687988
0.604065 0.481873 0.694183
0.759338 0.482697 0.706451
0.888397 0.483429 0.726349
0.075867 0.579437 0.668427
0.109192 0.612244 0.699219
0.144958 0.646179 0.730743
0.321991 0.625580 0.714264
0.471558 0.620636 0.713257
0.623199 0.620941 0.719025
0.772400 0.623352 0.729736
0.894409 0.626465 0.746552
0.095734 0.729553 0.706940
0.129059 0.756805 0.735870
0.183807 0.777924 0.758759
0.359161 0.762299 0.743927
0.501038 0.761017 0.745178
0.646942 0.762665 0.751007
0.788727 0.765747 0.760742
0.902863 0.769653 0.775116
0.118835 0.863556 0.755798
0.152130 0.880737 0.781769
0.272095 0.880493 0.782043
0.407379 0.879211 0.781342
0.539246 0.880463 0.785126
0.676758 0.882660 0.791351
0.808838 0.885437 0.800262
0.913605 0.888641 0.812500
0.000031 0.023499 0.522308
0.007050 0.036255 0.727722
0.045349 0.069244 0.759705
0.090759 0.101166 0.794800
0.309692 0.063568 0.775299
0.490845 0.053864 0.769165
0.668549 0.053650 0.771118
0.829651 0.057983 0.777954
0.000031 0.095276 0.721893
0.033722 0.127686 0.750885
0.071625 0.161224 0.780914
0.114349 0.195343 0.812012
0.338440 0.154633 0.795898
0.539459 0.131592 0.804108
0.727051 0.118378 0.818390
0.867554 0.122925 0.824280
0.020508 0.198578 0.741608
0.054047 0.231720 0.768799
0.090973 0.266418 0.796753
0.131195 0.302887 0.824554
0.352936 0.264038 0.805420
0.541626 0.248779 0.806213
0.725891 0.237823 0.818420
0.884644 0.217682 0.846008
0.038452 0.312683 0.759583
0.071808 0.346649 0.785461
0.108002 0.382690 0.811493
0.147339 0.420715 0.837250
0.370819 0.380981 0.816925
0.554291 0.368500 0.815674
0.729858 0.362640 0.823120
0.876740 0.356720 0.838287
0.055450 0.437469 0.777954
0.088837 0.471985 0.802521
0.124878 0.508453 0.826904
0.163696 0.546356 0.850830
0.391754 0.505798 0.829742
0.571075 0.495331 0.828125
0.740387 0.491943 0.833618
0.880066 0.490295 0.845001
0.074005 0.579193 0.799377
0.107239 0.612091 0.822113
0.143097 0.646118 0.844604
0.181732 0.680695 0.866608
0.418121 0.640991 0.844818
0.591614 0.633575 0.843506
0.754883 0.632019 0.847992
0.886810 0.632904 0.857239
0.094849 0.729797 0.824799
0.128082 0.757050 0.845398
0.163849 0.784210 0.865662
0.246338 0.797729 0.876221
0.451477 0.776764 0.862701
0.617493 0.772858 0.862396
0.772858 0.772949 0.866394
0.896118 0.774902 0.874207
0.118988 0.864166 0.855316
0.152283 0.881256 0.873322
0.188080 0.897919 0.891022
0.324280 0.896149 0.889862
0.494995 0.889923 0.884521
0.650452 0.889099 0.885437
0.795105 0.890076 0.889313
0.907806 0.892212 0.895996
0.000031 0.037628 0.625397
0.000031 0.049683 0.822205
0.030334 0.076019 0.877777
0.075073 0.108429 0.899384
0.126923 0.139771 0.921539
0.424469 0.077911 0.901581
0.631348 0.067413 0.897766
0.811890 0.066895 0.899017
0.000031 0.102631 0.826355
0.023315 0.131256 0.874420
0.060913 0.165070 0.893005
0.102936 0.199707 0.911774
0.151031 0.234131 0.930969
0.459778 0.165100 0.915771
0.692474 0.132507 0.925049
0.852631 0.131866 0.926239
0.013519 0.199982 0.870087
0.047241 0.232880 0.887146
0.083618 0.268036 0.903992
0.123840 0.304596 0.920898
0.168365 0.342255 0.937775
0.469849 0.277679 0.919708
0.685089 0.257050 0.922150
0.865234 0.234467 0.935028
0.033142 0.313049 0.881653
0.066589 0.346893 0.897614
0.102875 0.382935 0.913452
0.142120 0.421112 0.929047
0.184998 0.460724 0.944580
0.486328 0.396027 0.925751
0.692719 0.379913 0.925873
0.860443 0.369110 0.932526
0.051514 0.437195 0.892822
0.084808 0.471741 0.907776
0.120728 0.508301 0.922546
0.159637 0.546173 0.937195
0.203918 0.584290 0.951324
0.505554 0.521820 0.932587
0.705414 0.508514 0.931976
0.865021 0.501740 0.936615
0.070923 0.578766 0.905090
0.104187 0.611755 0.919037
0.139984 0.645721 0.932770
0.178558 0.680389 0.946411
0.255005 0.702148 0.955353
0.529236 0.657196 0.940735
0.722046 0.646912 0.939941
0.872955 0.643127 0.943512
0.092621 0.729584 0.919312
0.125854 0.756897 0.932068
0.161621 0.784058 0.944763
0.200104 0.810608 0.957397
0.316528 0.815674 0.960571
0.558990 0.790863 0.950562
0.742615 0.784515 0.949951
0.883392 0.783081 0.952911
0.117737 0.864288 0.936371
0.151062 0.881378 0.947876
0.186829 0.898041 0.959412
0.225250 0.914093 0.971039
0.383942 0.910126 0.968842
0.596985 0.899872 0.962708
0.768005 0.897247 0.962585
0.896545 0.897278 0.965302
0.000031 0.055054 0.735596
0.000031 0.069977 0.882202
0.007690 0.087280 0.962250
0.050842 0.120880 0.975220
0.101288 0.153290 0.989594
0.193542 0.176636 1.000000
0.556152 0.096069 0.988800
0.777771 0.083710 0.986084
0.000031 0.113678 0.908142
0.008667 0.137115 0.962646
0.045746 0.171204 0.973785
0.087006 0.206390 0.985626
0.133636 0.241913 0.998627
0.224792 0.272583 1.000000
0.599182 0.177521 1.000000
0.819458 0.155029 1.000000
0.003296 0.202637 0.961365
0.036774 0.235870 0.971436
0.073334 0.270905 0.982025
0.113525 0.307434 0.993286
0.162842 0.346710 1.000000
0.257141 0.377472 1.000000
0.602692 0.295258 1.000000
0.822723 0.271637 1.000000
0.025604 0.314087 0.968781
0.059021 0.347961 0.978546
0.095215 0.384125 0.988770
0.134399 0.422241 0.999603
0.191254 0.462769 1.000000
0.294098 0.489655 1.000000
0.615631 0.418488 1.000000
0.823669 0.400452 1.000000
0.045593 0.437347 0.975708
0.078796 0.471985 0.985138
0.114746 0.508423 0.995117
0.163055 0.545624 1.000000
0.223389 0.583344 1.000000
0.338867 0.603027 1.000000
0.634644 0.546936 1.000000
0.829742 0.534454 1.000000
0.066162 0.578552 0.983185
0.099457 0.611420 0.992432
0.140045 0.644653 1.000000
0.200653 0.675751 1.000000
0.266144 0.707153 1.000000
0.396698 0.718323 1.000000
0.661774 0.681152 1.000000
0.840393 0.675171 1.000000
0.088898 0.729218 0.992096
0.125458 0.755829 1.000000
0.188446 0.777802 1.000000
0.256226 0.799622 1.000000
0.329529 0.820923 1.000000
0.475372 0.824890 1.000000
0.702698 0.807312 1.000000
0.858002 0.807953 1.000000
0.127991 0.861877 1.000000
0.195923 0.873413 1.000000
0.269379 0.884979 1.000000
0.348999 0.896484 1.000000
0.435211 0.907806 1.000000
0.589752 0.908264 1.000000
0.768005 0.904175 1.000000
0.888184 0.908844 1.000000
