bin/data/LUT/Moody.CUBE
TITLE "Moody" by Emma Souannhaphanh
LUT_3D_SIZE 32
0.000000 0.000000 0.000000
0.020020 0.002838 0.003143
0.040924 0.005432 0.006653
0.064728 0.007080 0.008636
0.089508 0.008545 0.010162
0.114471 0.010010 0.012848
0.140411 0.011353 0.014679
0.166687 0.012604 0.017426
0.193207 0.014008 0.020233
0.220459 0.015320 0.023407
0.248291 0.016479 0.027374
0.276398 0.017761 0.030731
0.304993 0.019043 0.035126
0.334473 0.020233 0.039246
0.364380 0.021515 0.043610
0.394745 0.022797 0.048340
0.425934 0.024078 0.053406
0.458130 0.025146 0.060181
0.491943 0.026367 0.066315
0.526794 0.027557 0.073761
0.562866 0.028809 0.082275
0.600006 0.030029 0.090790
0.637054 0.031372 0.099915
0.674042 0.032623 0.109009
0.710602 0.034027 0.118225
0.746552 0.035522 0.128510
0.781555 0.037048 0.139191
0.815338 0.038666 0.150452
0.847687 0.040405 0.162750
0.879089 0.042389 0.176392
0.910889 0.044739 0.192902
0.948792 0.048279 0.217560
0.006622 0.021759 0.008972
0.028259 0.023773 0.012207
0.048492 0.026703 0.015839
0.072906 0.027740 0.019135
0.097687 0.029144 0.021515
0.123627 0.030090 0.023712
0.149902 0.030945 0.027313
0.177612 0.031433 0.030792
0.205933 0.031616 0.035431
0.234955 0.031769 0.039673
0.264221 0.031952 0.044922
0.292389 0.033264 0.049011
0.321472 0.034424 0.053223
0.350769 0.035767 0.056824
0.380707 0.037170 0.061188
0.411072 0.038269 0.066986
0.442383 0.039459 0.071960
0.474701 0.040710 0.077911
0.508240 0.041870 0.084473
0.542786 0.043060 0.092438
0.578796 0.044281 0.100281
0.615509 0.045593 0.108795
0.652130 0.046906 0.117188
0.688446 0.048309 0.126251
0.724213 0.049683 0.135803
0.759277 0.051147 0.145996
0.793243 0.052704 0.156616
0.825684 0.054260 0.167755
0.856659 0.056091 0.179932
0.886810 0.058105 0.193512
0.917358 0.060394 0.210205
0.953949 0.063934 0.234528
0.014771 0.043121 0.018738
0.035248 0.045837 0.021545
0.055450 0.048737 0.025146
0.078918 0.050476 0.027405
0.104553 0.051208 0.030731
0.131256 0.051697 0.033569
0.157593 0.052643 0.036652
0.185120 0.053101 0.040741
0.213409 0.053345 0.044800
0.242340 0.053528 0.049805
0.270996 0.054199 0.053894
0.301178 0.054169 0.059845
0.332642 0.053833 0.066040
0.364838 0.053223 0.072632
0.397400 0.052765 0.080048
0.427917 0.053986 0.085358
0.459229 0.055145 0.090332
0.491394 0.056458 0.096222
0.524780 0.057556 0.103577
0.559296 0.058899 0.110352
0.594788 0.060089 0.118561
0.631073 0.061523 0.126465
0.667175 0.062775 0.135284
0.702789 0.064117 0.144531
0.737732 0.065552 0.154083
0.771790 0.066986 0.163879
0.804657 0.068542 0.174255
0.835754 0.070251 0.185364
0.865509 0.072021 0.197388
0.894409 0.074036 0.211273
0.923676 0.076447 0.227600
0.959076 0.080017 0.251831
0.020233 0.066742 0.025635
0.040497 0.069427 0.028992
0.062073 0.071716 0.032440
0.085266 0.073486 0.035400
0.110687 0.074341 0.038269
0.136566 0.075500 0.040741
0.163513 0.075867 0.044952
0.190247 0.076874 0.048004
0.217804 0.077484 0.052704
0.246765 0.077637 0.057617
0.276215 0.077850 0.062256
0.306274 0.077911 0.068024
0.338104 0.077179 0.074860
0.369293 0.077484 0.080200
0.403320 0.075928 0.089294
0.436859 0.075226 0.096924
0.471527 0.074280 0.105286
0.508331 0.072388 0.115570
0.541382 0.073639 0.122345
0.575623 0.074768 0.130066
0.610840 0.076111 0.137665
0.646698 0.077484 0.145782
0.682159 0.078857 0.154053
0.716980 0.080231 0.163513
0.751160 0.081696 0.172150
0.784149 0.083191 0.181915
0.815674 0.084747 0.192474
0.845581 0.086365 0.203430
0.874084 0.088226 0.215546
0.901764 0.090240 0.229004
0.929901 0.092651 0.245544
0.964050 0.096161 0.269623
0.024475 0.091553 0.032623
0.044708 0.094269 0.035980
0.064911 0.097260 0.039520
0.088043 0.099060 0.042450
0.113373 0.100006 0.045288
0.139496 0.100677 0.048676
0.165039 0.102234 0.051147
0.192200 0.102814 0.054993
0.220306 0.103271 0.058899
0.248413 0.104034 0.063080
0.278229 0.104126 0.067719
0.308777 0.103760 0.073975
0.339355 0.104004 0.079407
0.371674 0.103424 0.086121
0.404694 0.102661 0.093964
0.438751 0.101532 0.102692
0.473297 0.100555 0.111023
0.509644 0.098938 0.120972
0.547516 0.096863 0.132996
0.586945 0.094666 0.144531
0.626892 0.092377 0.157593
0.662170 0.093719 0.165527
0.697083 0.095123 0.173737
0.731140 0.096558 0.182617
0.764313 0.097992 0.191833
0.796265 0.099487 0.201111
0.826538 0.101105 0.211548
0.855103 0.102814 0.222443
0.882416 0.104645 0.234283
0.908936 0.106720 0.247742
0.935913 0.109100 0.264160
0.969055 0.112732 0.288177
0.028656 0.116760 0.040161
0.048615 0.119507 0.044006
0.068848 0.122498 0.047516
0.092010 0.124359 0.049866
0.116791 0.125549 0.053192
0.142212 0.126892 0.055389
0.168671 0.127625 0.059296
0.194946 0.128815 0.062653
0.222778 0.129456 0.066315
0.251251 0.130005 0.070770
0.280609 0.130371 0.075134
0.310150 0.130798 0.079895
0.340759 0.130859 0.085907
0.371826 0.131165 0.091522
0.403687 0.131073 0.098602
0.437469 0.130127 0.106903
0.472107 0.129120 0.115417
0.507690 0.127991 0.124756
0.545410 0.126251 0.135376
0.584961 0.123840 0.147614
0.625793 0.121094 0.160980
0.667633 0.117737 0.175232
0.708801 0.114014 0.191010
0.745148 0.113007 0.203247
0.777252 0.114563 0.211823
0.807983 0.116089 0.221344
0.836914 0.117645 0.231598
0.864319 0.119446 0.242310
0.890503 0.121307 0.253815
0.915863 0.123352 0.267334
0.941864 0.125824 0.283569
0.973969 0.129425 0.307526
0.032074 0.142609 0.049408
0.052246 0.145386 0.052704
0.073425 0.147827 0.056396
0.096069 0.149872 0.059235
0.121826 0.150818 0.061340
0.145813 0.152649 0.064423
0.172028 0.153564 0.068237
0.198914 0.154633 0.070862
0.225800 0.155640 0.074951
0.253510 0.156738 0.078247
0.281891 0.157440 0.083344
0.311157 0.158081 0.087860
0.341949 0.158203 0.093719
0.372681 0.158539 0.099396
0.404968 0.158447 0.105804
0.437286 0.158600 0.112366
0.470886 0.157990 0.120911
0.505951 0.157379 0.129211
0.542664 0.156494 0.138123
0.580719 0.155060 0.148956
0.620850 0.152954 0.160858
0.661591 0.150574 0.173981
0.702911 0.147064 0.188751
0.743835 0.142517 0.205933
0.783386 0.137512 0.223969
0.819305 0.132904 0.242279
0.847137 0.134583 0.252411
0.873322 0.136292 0.262817
0.898315 0.138184 0.274475
0.922668 0.140289 0.287598
0.947632 0.142761 0.303650
0.978882 0.146454 0.327454
0.036377 0.168335 0.059204
0.057495 0.170563 0.062714
0.077759 0.173553 0.066162
0.101105 0.175293 0.068848
0.125183 0.176819 0.072296
0.149353 0.178833 0.074310
0.174744 0.180176 0.077820
0.201263 0.181274 0.081451
0.228638 0.182220 0.084930
0.256500 0.183044 0.089050
0.284912 0.183990 0.093018
0.313873 0.184784 0.097992
0.343903 0.185364 0.102783
0.374756 0.185699 0.108459
0.406250 0.186035 0.114807
0.438110 0.186340 0.121307
0.471344 0.186279 0.127930
0.505585 0.186310 0.135284
0.541809 0.185577 0.144440
0.579193 0.184906 0.153320
0.617981 0.183838 0.163910
0.657501 0.182495 0.174927
0.697327 0.180267 0.187866
0.736816 0.177307 0.202454
0.775085 0.173981 0.217896
0.813354 0.168182 0.237762
0.848724 0.161621 0.259491
0.881531 0.153992 0.283600
0.905884 0.155273 0.295959
0.929230 0.157440 0.308868
0.953278 0.159943 0.324799
0.983704 0.163696 0.348297
0.041962 0.193634 0.070740
0.062042 0.196503 0.074005
0.082123 0.199463 0.077972
0.104370 0.201813 0.080627
0.128571 0.203430 0.082977
0.152893 0.205200 0.086426
0.178833 0.206451 0.089111
0.205048 0.207642 0.092743
0.232208 0.208679 0.096222
0.259491 0.209961 0.100006
0.287445 0.210968 0.104919
0.316803 0.211670 0.109100
0.346558 0.212372 0.113770
0.376434 0.213409 0.119019
0.408081 0.213654 0.124695
0.439789 0.214264 0.130157
0.473053 0.214264 0.136963
0.506775 0.214478 0.144196
0.542236 0.214478 0.151489
0.579010 0.214203 0.159912
0.617126 0.213623 0.169495
0.656067 0.212708 0.179901
0.694702 0.211639 0.191132
0.732758 0.210144 0.203217
0.770538 0.207489 0.217468
0.806427 0.204681 0.232544
0.840790 0.200409 0.250641
0.873962 0.193939 0.272858
0.905975 0.184692 0.300476
0.935638 0.174805 0.331146
0.958862 0.177399 0.346405
0.988617 0.181183 0.369873
0.046814 0.219604 0.084106
0.066803 0.222504 0.087402
0.086548 0.225922 0.090118
0.109711 0.227570 0.093811
0.132599 0.229889 0.096466
0.157349 0.231415 0.099762
0.182495 0.233093 0.102264
0.208130 0.234741 0.105621
0.234955 0.235901 0.109222
0.262573 0.237030 0.112823
0.290619 0.238220 0.116394
0.319275 0.239288 0.120819
0.348999 0.240143 0.125183
0.379333 0.240845 0.130310
0.410492 0.241608 0.135345
0.442261 0.242065 0.141296
0.474915 0.242493 0.146881
0.508514 0.243042 0.153229
0.543182 0.243347 0.160553
0.579865 0.243286 0.168091
0.617218 0.243286 0.176788
0.655640 0.242828 0.186218
0.693939 0.242065 0.196869
0.731476 0.241119 0.207794
0.767883 0.239868 0.219971
0.803223 0.237915 0.233795
0.836823 0.235077 0.249359
0.868378 0.231567 0.267059
0.898743 0.226196 0.288757
0.929077 0.217407 0.317261
0.961090 0.202454 0.358368
0.993469 0.198914 0.392548
0.052521 0.245819 0.096649
0.071320 0.249268 0.100250
0.092651 0.251831 0.103271
0.114075 0.254608 0.106323
0.137115 0.256653 0.109802
0.161499 0.258392 0.113068
0.185791 0.260529 0.115723
0.211639 0.261932 0.119049
0.238434 0.263275 0.122314
0.265839 0.264557 0.125946
0.293732 0.265839 0.129364
0.321899 0.267181 0.133392
0.351532 0.268158 0.137573
0.381836 0.269073 0.141968
0.412750 0.269867 0.147064
0.444611 0.270416 0.152527
0.476868 0.271210 0.157837
0.510437 0.271698 0.163757
0.545166 0.272064 0.170837
0.581268 0.272522 0.177521
0.618530 0.272583 0.185852
0.656464 0.272522 0.194672
0.694061 0.272308 0.203918
0.730865 0.271881 0.214264
0.766968 0.271057 0.225494
0.801575 0.270050 0.237640
0.834534 0.268188 0.251831
0.865509 0.265839 0.267487
0.895111 0.262512 0.285950
0.923981 0.257477 0.308594
0.953949 0.249023 0.339966
0.994843 0.226044 0.402100
0.057495 0.272705 0.110199
0.077759 0.275665 0.113037
0.097717 0.278870 0.116486
0.119293 0.281464 0.119629
0.141296 0.284088 0.123169
0.164795 0.286285 0.126526
0.189941 0.287933 0.129181
0.215576 0.289520 0.132477
0.242249 0.290955 0.135590
0.269073 0.292603 0.138977
0.297577 0.293610 0.142426
0.325623 0.295044 0.146240
0.354980 0.296204 0.150238
0.385132 0.297211 0.154724
0.415680 0.298401 0.159241
0.447174 0.299255 0.164246
0.479462 0.299957 0.169250
0.512604 0.300781 0.174805
0.547119 0.301331 0.181335
0.582916 0.301971 0.187805
0.620117 0.302124 0.195618
0.657440 0.302490 0.203705
0.694672 0.302643 0.212280
0.731293 0.302399 0.222107
0.767029 0.302002 0.232727
0.801208 0.301300 0.244202
0.833435 0.300354 0.256622
0.864075 0.298828 0.271088
0.893219 0.296539 0.287689
0.921387 0.293365 0.307678
0.950439 0.287811 0.334076
0.987732 0.275452 0.379944
0.063629 0.299835 0.123444
0.084747 0.302216 0.126648
0.104309 0.305634 0.129852
0.124512 0.308899 0.133606
0.146759 0.311493 0.136963
0.169952 0.313904 0.140045
0.194336 0.315979 0.143097
0.219696 0.317719 0.146301
0.246185 0.319305 0.149078
0.272400 0.321167 0.152740
0.300446 0.322540 0.155914
0.329132 0.323761 0.159485
0.358002 0.325134 0.163452
0.388092 0.326263 0.167755
0.418793 0.327362 0.172028
0.450165 0.328339 0.176605
0.481995 0.329315 0.181580
0.515411 0.330078 0.186859
0.549805 0.330811 0.192841
0.585083 0.331604 0.199066
0.621857 0.332275 0.205963
0.659058 0.332672 0.213654
0.696106 0.332886 0.222565
0.732239 0.333130 0.231323
0.767487 0.333008 0.241180
0.801239 0.332886 0.251923
0.833374 0.332184 0.263519
0.863556 0.331268 0.276733
0.892120 0.329834 0.292114
0.920044 0.327454 0.310608
0.948578 0.323700 0.334320
0.984406 0.315765 0.373352
0.070038 0.327423 0.136505
0.089966 0.330353 0.139984
0.109924 0.333588 0.143524
0.129547 0.337128 0.147339
0.151489 0.339905 0.150787
0.174530 0.342407 0.153717
0.199036 0.344452 0.156891
0.224121 0.346344 0.160095
0.250366 0.348083 0.162872
0.276794 0.349854 0.166412
0.304230 0.351471 0.169922
0.332428 0.352997 0.173309
0.361633 0.354370 0.176941
0.391510 0.355591 0.181091
0.422119 0.356781 0.185150
0.453094 0.358002 0.189331
0.485321 0.358917 0.194275
0.518066 0.359985 0.199249
0.552277 0.360901 0.204712
0.587524 0.361755 0.210846
0.623871 0.362640 0.217346
0.660858 0.363251 0.224915
0.697388 0.363800 0.232849
0.733551 0.364044 0.241394
0.768341 0.364288 0.250610
0.801880 0.364380 0.260742
0.833527 0.364227 0.271454
0.863373 0.363586 0.284363
0.891785 0.362701 0.298431
0.919250 0.361267 0.315399
0.947357 0.358765 0.337036
0.982544 0.353088 0.372345
0.078003 0.354736 0.149933
0.097992 0.357819 0.152832
0.117157 0.361389 0.156647
0.135590 0.365479 0.160980
0.157043 0.368500 0.164581
0.180023 0.371002 0.168060
0.204163 0.373230 0.170929
0.228241 0.375763 0.174286
0.254181 0.377563 0.177307
0.280853 0.379395 0.180634
0.308197 0.381073 0.183716
0.335968 0.382843 0.187164
0.365540 0.383942 0.191162
0.394806 0.385590 0.194977
0.425507 0.386810 0.198914
0.456573 0.387970 0.203003
0.488373 0.389099 0.207733
0.521271 0.390198 0.212219
0.555054 0.391327 0.217590
0.590332 0.392181 0.223541
0.626404 0.393250 0.229767
0.663147 0.394043 0.236725
0.699493 0.394836 0.243958
0.734985 0.395477 0.252350
0.769592 0.395844 0.261108
0.802826 0.396149 0.270569
0.834167 0.396271 0.281006
0.863708 0.396118 0.292664
0.891785 0.395691 0.306091
0.919067 0.394623 0.322357
0.946747 0.393097 0.342163
0.981476 0.388916 0.374695
0.085358 0.383087 0.163055
0.105103 0.386230 0.166473
0.122772 0.390503 0.171143
0.141724 0.394470 0.175079
0.162811 0.397675 0.178528
0.184753 0.400665 0.182220
0.208191 0.403198 0.185394
0.232941 0.405396 0.188385
0.258667 0.407379 0.191467
0.285278 0.409241 0.194580
0.312256 0.411072 0.198303
0.340485 0.412689 0.201660
0.369202 0.414429 0.205017
0.398804 0.415802 0.208832
0.429169 0.417267 0.212708
0.460144 0.418579 0.216705
0.491547 0.419861 0.221069
0.524200 0.421021 0.225922
0.557953 0.422363 0.230774
0.593048 0.423401 0.236359
0.629028 0.424377 0.242493
0.665375 0.425476 0.249023
0.701385 0.426331 0.256134
0.736908 0.427032 0.263824
0.771149 0.427704 0.272217
0.804108 0.428131 0.281219
0.835144 0.428497 0.291351
0.864288 0.428772 0.302399
0.892090 0.428680 0.315063
0.919067 0.428253 0.330078
0.946533 0.427124 0.348846
0.980804 0.424347 0.379517
0.093689 0.411713 0.176514
0.111908 0.415497 0.180634
0.130005 0.419617 0.184875
0.148865 0.423645 0.189087
0.168915 0.427307 0.192963
0.190613 0.430481 0.196594
0.213959 0.433075 0.199921
0.238312 0.435425 0.203278
0.263428 0.437805 0.206268
0.289337 0.439972 0.209717
0.316620 0.441711 0.212982
0.344421 0.443542 0.216187
0.373230 0.445251 0.219696
0.402740 0.446747 0.223358
0.432983 0.448242 0.227081
0.463654 0.449829 0.230896
0.495056 0.451080 0.235168
0.527618 0.452362 0.239838
0.561371 0.453674 0.244446
0.596069 0.454926 0.249786
0.631653 0.456116 0.255646
0.668121 0.457153 0.262085
0.703766 0.458282 0.268951
0.738861 0.459198 0.276093
0.773041 0.459900 0.284241
0.805450 0.460663 0.292877
0.836090 0.461334 0.302490
0.865143 0.461639 0.313110
0.892670 0.461853 0.324951
0.919342 0.461792 0.339264
0.946564 0.461243 0.357269
0.980499 0.459442 0.386047
0.102051 0.441528 0.190521
0.120605 0.445251 0.194397
0.137299 0.450073 0.199188
0.155548 0.454285 0.203857
0.175568 0.458008 0.207916
0.196503 0.461609 0.211670
0.219513 0.464355 0.215149
0.243317 0.467072 0.218292
0.268066 0.469482 0.221741
0.294189 0.471649 0.225037
0.321350 0.473541 0.228119
0.348907 0.475464 0.231537
0.377441 0.477142 0.235077
0.407013 0.478821 0.238403
0.436798 0.480499 0.242401
0.467438 0.481934 0.246124
0.498657 0.483490 0.250275
0.531311 0.484772 0.254395
0.564728 0.486115 0.259308
0.599243 0.487427 0.264374
0.634888 0.488739 0.269928
0.670898 0.489929 0.276001
0.706451 0.491150 0.282318
0.741211 0.492157 0.289764
0.774841 0.493195 0.296875
0.807129 0.494049 0.305237
0.837555 0.494720 0.314545
0.866150 0.495483 0.324615
0.893402 0.495911 0.336090
0.919830 0.496216 0.349579
0.946869 0.496033 0.366882
0.980469 0.495026 0.393982
0.110748 0.472839 0.205170
0.128662 0.476898 0.209320
0.144684 0.481873 0.214569
0.162628 0.486328 0.219208
0.182129 0.490173 0.223663
0.203186 0.493683 0.227356
0.225037 0.497040 0.231110
0.248779 0.499664 0.234558
0.273804 0.502075 0.237640
0.299530 0.504333 0.241150
0.326508 0.506348 0.244293
0.353912 0.508362 0.247467
0.382080 0.510315 0.250946
0.411652 0.511902 0.254456
0.441498 0.513580 0.258148
0.471893 0.515259 0.261810
0.502899 0.516876 0.265839
0.535126 0.518311 0.269958
0.568420 0.519745 0.274658
0.602936 0.521118 0.279541
0.638123 0.522583 0.284821
0.673920 0.523865 0.290680
0.709167 0.525146 0.296997
0.743652 0.526306 0.303833
0.777008 0.527466 0.311096
0.809052 0.528442 0.318817
0.838989 0.529419 0.327576
0.867340 0.530273 0.337219
0.894348 0.530945 0.348358
0.920532 0.531403 0.361328
0.947266 0.531738 0.377777
0.980591 0.531372 0.403473
0.121216 0.504730 0.220337
0.137573 0.509521 0.225159
0.153107 0.514709 0.230560
0.170227 0.519531 0.235413
0.189392 0.523560 0.239624
0.209778 0.527344 0.243866
0.231812 0.530548 0.247375
0.255219 0.533356 0.251007
0.279846 0.535889 0.254333
0.305359 0.538300 0.257751
0.332031 0.540375 0.260834
0.359131 0.542480 0.264526
0.387238 0.544525 0.267578
0.416412 0.546356 0.271210
0.445953 0.548218 0.274689
0.476288 0.549835 0.278564
0.507355 0.551361 0.282196
0.539246 0.552979 0.286316
0.572510 0.554382 0.290955
0.606537 0.556000 0.295502
0.641754 0.557373 0.300873
0.677216 0.558716 0.306671
0.712219 0.560150 0.312592
0.746368 0.561493 0.318970
0.779480 0.562714 0.326080
0.811035 0.563843 0.333649
0.840729 0.564941 0.341949
0.868683 0.565948 0.351318
0.895386 0.566864 0.361938
0.921356 0.567566 0.374268
0.947876 0.568176 0.389954
0.980927 0.568390 0.414642
0.131104 0.538666 0.236389
0.146759 0.543579 0.241364
0.161987 0.548950 0.247009
0.178497 0.553894 0.252045
0.197113 0.558105 0.256866
0.217133 0.561981 0.261108
0.238708 0.565338 0.264923
0.261749 0.568329 0.268738
0.286072 0.570984 0.272186
0.311615 0.573273 0.275513
0.337738 0.575623 0.278809
0.364594 0.577942 0.282043
0.392731 0.579926 0.285583
0.421600 0.581757 0.288910
0.451233 0.583588 0.292633
0.481415 0.585327 0.296204
0.512054 0.586975 0.300018
0.543945 0.588623 0.304047
0.576843 0.590149 0.308380
0.610535 0.591766 0.312958
0.645569 0.593231 0.317993
0.680847 0.594696 0.323456
0.715515 0.596161 0.329315
0.749390 0.597534 0.335602
0.782074 0.598907 0.342255
0.813293 0.600159 0.349457
0.842712 0.601288 0.357605
0.870361 0.602478 0.366486
0.896729 0.603546 0.376556
0.922394 0.604492 0.388580
0.948547 0.605438 0.403564
0.981384 0.606140 0.427002
0.140472 0.573853 0.253693
0.156799 0.578461 0.258667
0.171631 0.583862 0.264282
0.187714 0.588959 0.269714
0.205963 0.593323 0.274353
0.225647 0.597260 0.278656
0.246613 0.600800 0.282837
0.269196 0.603912 0.286743
0.292908 0.606720 0.290283
0.317902 0.609283 0.293854
0.343719 0.611755 0.297363
0.370514 0.613953 0.300873
0.398712 0.615936 0.304016
0.427216 0.617950 0.307587
0.456879 0.619720 0.311005
0.486786 0.621460 0.314758
0.517334 0.623199 0.318359
0.548889 0.624817 0.322449
0.581421 0.626495 0.326630
0.615265 0.628113 0.331055
0.649658 0.629669 0.336182
0.684601 0.631226 0.341492
0.719025 0.632721 0.346985
0.752594 0.634186 0.352997
0.784973 0.635559 0.359558
0.815704 0.636932 0.366669
0.844727 0.638214 0.374481
0.872131 0.639465 0.383087
0.898132 0.640656 0.392731
0.923492 0.641846 0.404083
0.949463 0.642975 0.418396
0.981934 0.644043 0.440979
0.151825 0.608765 0.270935
0.166473 0.613892 0.276398
0.181427 0.619141 0.282196
0.197144 0.624237 0.287598
0.214783 0.628723 0.292816
0.233917 0.632782 0.297455
0.254669 0.636414 0.301727
0.276855 0.639587 0.305725
0.300476 0.642395 0.309265
0.324829 0.645111 0.313049
0.350464 0.647644 0.316498
0.377289 0.649811 0.319916
0.404694 0.652008 0.323425
0.433289 0.653992 0.326843
0.462463 0.655853 0.330475
0.492462 0.657532 0.333984
0.522705 0.659302 0.337738
0.553955 0.661011 0.341644
0.586517 0.662598 0.345795
0.619720 0.664276 0.350159
0.653931 0.665985 0.354919
0.688751 0.667480 0.360077
0.722778 0.669006 0.365692
0.755981 0.670471 0.371613
0.787964 0.671906 0.377930
0.818298 0.673370 0.384705
0.847015 0.674713 0.392059
0.873962 0.676056 0.400269
0.899750 0.677338 0.409637
0.924774 0.678619 0.420807
0.950470 0.679932 0.434631
0.982635 0.681458 0.455811
0.162659 0.644073 0.289032
0.177277 0.649109 0.294647
0.191772 0.654297 0.300598
0.206573 0.659607 0.306427
0.223877 0.664124 0.311646
0.242676 0.668121 0.316284
0.263184 0.671661 0.320892
0.285217 0.674927 0.324799
0.308075 0.677887 0.328796
0.332397 0.680573 0.332550
0.357666 0.683075 0.336273
0.384003 0.685394 0.339752
0.411407 0.687561 0.343445
0.439728 0.689484 0.346832
0.468658 0.691406 0.350464
0.498077 0.693329 0.354004
0.528381 0.694885 0.357697
0.559387 0.696625 0.361511
0.591644 0.698334 0.365662
0.624756 0.699951 0.370026
0.658600 0.701599 0.374634
0.692963 0.703217 0.379730
0.726685 0.704773 0.385010
0.759552 0.706146 0.390900
0.791168 0.707703 0.396820
0.821106 0.709137 0.403412
0.849396 0.710480 0.410736
0.875977 0.711914 0.418701
0.901367 0.713287 0.427673
0.926086 0.714691 0.438110
0.951477 0.716095 0.451385
0.983459 0.717804 0.471985
0.174133 0.679260 0.307922
0.188507 0.684143 0.313568
0.202118 0.689575 0.319916
0.217041 0.694580 0.325745
0.233978 0.699036 0.331024
0.252197 0.703156 0.336182
0.272400 0.706696 0.340668
0.293549 0.709991 0.345032
0.316376 0.712921 0.348999
0.340240 0.715729 0.352966
0.365265 0.718170 0.356934
0.391296 0.720459 0.360504
0.418793 0.722443 0.363922
0.446442 0.724609 0.367676
0.475281 0.726440 0.371185
0.504456 0.728271 0.374695
0.534424 0.729980 0.378448
0.565186 0.731720 0.382141
0.597168 0.733276 0.386353
0.629974 0.734924 0.390686
0.663666 0.736511 0.395203
0.697388 0.738159 0.400238
0.730988 0.739655 0.405579
0.763367 0.741180 0.411072
0.794434 0.742615 0.417023
0.824066 0.744019 0.423340
0.851868 0.745453 0.430298
0.878052 0.746857 0.438080
0.903198 0.748260 0.446838
0.927582 0.749664 0.456940
0.952698 0.751221 0.469482
0.984375 0.753052 0.489288
0.186157 0.714417 0.327454
0.199615 0.719452 0.333588
0.213440 0.724487 0.339905
0.227844 0.729431 0.346008
0.244293 0.733765 0.351624
0.262451 0.737671 0.356873
0.281921 0.741241 0.361725
0.302643 0.744568 0.366241
0.325470 0.747314 0.370270
0.348816 0.750061 0.374329
0.373444 0.752533 0.378265
0.399231 0.754791 0.381927
0.426147 0.756927 0.385712
0.453949 0.758850 0.389160
0.482330 0.760742 0.393066
0.511322 0.762482 0.396637
0.540771 0.764160 0.400330
0.571442 0.765808 0.404144
0.603027 0.767395 0.408203
0.635529 0.768951 0.412476
0.668762 0.770569 0.416962
0.702393 0.772125 0.421844
0.735413 0.773590 0.426880
0.767303 0.775024 0.432434
0.798065 0.776459 0.438293
0.827209 0.777863 0.444336
0.854614 0.779236 0.451141
0.880402 0.780640 0.458557
0.905090 0.782043 0.466858
0.929199 0.783417 0.476624
0.953949 0.784973 0.488770
0.985382 0.786926 0.507660
0.198944 0.749237 0.348206
0.212067 0.754089 0.354645
0.225586 0.758911 0.360962
0.239685 0.763641 0.367310
0.255768 0.767792 0.373138
0.273224 0.771637 0.378601
0.292480 0.775024 0.383606
0.312683 0.778229 0.388428
0.334717 0.781006 0.392822
0.357819 0.783661 0.397034
0.382172 0.786072 0.400940
0.407623 0.788269 0.404755
0.434418 0.790192 0.408539
0.461670 0.792145 0.412292
0.489960 0.793854 0.415955
0.518616 0.795593 0.419617
0.547882 0.797150 0.423401
0.578186 0.798706 0.427155
0.609283 0.800262 0.431213
0.641571 0.801727 0.435425
0.674500 0.803192 0.439941
0.707611 0.804718 0.444641
0.740173 0.806122 0.449738
0.771698 0.807526 0.455078
0.801971 0.808868 0.460815
0.830475 0.810211 0.466705
0.857391 0.811523 0.473267
0.882874 0.812836 0.480499
0.907166 0.814178 0.488403
0.930878 0.815521 0.497864
0.955383 0.817047 0.509521
0.986511 0.818939 0.527527
0.212341 0.783752 0.370697
0.225555 0.788116 0.376984
0.238403 0.792755 0.383667
0.252197 0.797119 0.390167
0.267883 0.801025 0.396179
0.284821 0.804657 0.401917
0.303375 0.807892 0.407166
0.323669 0.810822 0.412048
0.345306 0.813477 0.416595
0.368134 0.815887 0.420929
0.391876 0.818207 0.425140
0.417389 0.820160 0.429047
0.443512 0.822113 0.433014
0.470398 0.823914 0.436676
0.498138 0.825623 0.440674
0.526489 0.827179 0.444336
0.555542 0.828644 0.448059
0.585358 0.830139 0.451935
0.616364 0.831482 0.455902
0.647980 0.832947 0.460144
0.680634 0.834259 0.464508
0.713287 0.835663 0.469299
0.745422 0.836945 0.474152
