bin/data/LUT/Morning.CUBE
TITLE "Good Morning" by Emma Souannhaphanh
LUT_3D_SIZE 8
DOMAIN_MIN 0.000000 0.000000 0.000000
DOMAIN_MAX 0.903226 0.903226 0.903226
0.000000 0.000000 0.000000
0.159149 0.005768 0.020477
0.309326 0.008698 0.041718
0.431854 0.011353 0.065979
0.527252 0.013855 0.091827
0.627716 0.015564 0.124817
0.745605 0.017029 0.161102
0.861115 0.018494 0.197479
0.019348 0.178833 0.015686
0.191711 0.171722 0.034546
0.337219 0.160858 0.044403
0.454895 0.151794 0.061005
0.549652 0.142303 0.084900
0.655914 0.129120 0.115112
0.782654 0.151855 0.195435
0.908569 0.145996 0.264404
0.027618 0.334625 0.040070
0.222382 0.341888 0.071564
0.356079 0.322144 0.082947
0.468140 0.314545 0.098511
0.558990 0.308197 0.116394
0.660065 0.300140 0.137634
0.778351 0.289642 0.160919
0.892395 0.278259 0.186768
0.045929 0.455292 0.084503
0.233856 0.463593 0.124481
0.388672 0.466980 0.134277
0.480194 0.441254 0.145691
0.568665 0.434845 0.160248
0.667633 0.427551 0.176910
0.782806 0.418213 0.194183
0.893463 0.409088 0.213776
0.069733 0.545563 0.127472
0.244598 0.555756 0.174622
0.396240 0.559845 0.185272
0.514038 0.562500 0.195007
0.577667 0.533142 0.206177
0.675232 0.525208 0.220062
0.788330 0.516357 0.235229
0.896698 0.507721 0.250336
0.095856 0.635254 0.168274
0.254944 0.649811 0.221252
0.404327 0.655762 0.233856
0.519623 0.659515 0.243103
0.614166 0.662170 0.252625
0.683716 0.628754 0.263031
0.794800 0.619507 0.276764
0.900940 0.611542 0.290894
0.122040 0.738831 0.205475
0.241760 0.757416 0.235260
0.413483 0.765656 0.279968
0.526337 0.770142 0.288849
0.620331 0.773529 0.297424
0.725464 0.776154 0.306549
0.802032 0.737152 0.316254
0.905762 0.728546 0.328339
0.147034 0.842926 0.240814
0.251129 0.861542 0.266022
0.423492 0.870544 0.322968
0.532990 0.875458 0.331757
0.626617 0.878967 0.339752
0.732300 0.881622 0.347931
0.848541 0.883942 0.356506
0.910797 0.839691 0.365356
0.000031 0.016571 0.186157
0.148468 0.007935 0.215302
0.321960 0.009369 0.244659
0.443268 0.012146 0.260651
0.536926 0.015228 0.276093
0.635620 0.018158 0.293579
0.752045 0.021027 0.313721
0.866180 0.023743 0.335144
0.011475 0.196716 0.222931
0.177734 0.189392 0.235382
0.338440 0.183441 0.249878
0.458344 0.180206 0.267059
0.554169 0.176910 0.287811
0.661591 0.172119 0.314697
0.787781 0.165131 0.348450
0.912567 0.152313 0.391571
0.019714 0.339844 0.215973
0.183655 0.348907 0.233765
0.356415 0.341461 0.248840
0.469269 0.330353 0.259460
0.561096 0.321869 0.266479
0.662994 0.311768 0.276062
0.781982 0.299500 0.287933
0.896423 0.302795 0.318726
0.029510 0.464233 0.231598
0.194489 0.470215 0.245117
0.375366 0.473450 0.268158
0.484009 0.457458 0.275208
0.571991 0.449127 0.288116
0.671936 0.440216 0.296509
0.787750 0.429352 0.305817
0.898285 0.419067 0.317200
0.055756 0.554779 0.249115
0.207764 0.562592 0.264923
0.385284 0.566742 0.294067
0.507904 0.569031 0.301239
0.582703 0.547394 0.308746
0.680786 0.538055 0.321472
0.794159 0.528198 0.330994
0.902374 0.518494 0.339996
0.088715 0.645844 0.268402
0.223083 0.658234 0.287262
0.395660 0.664398 0.323303
0.514862 0.667664 0.330109
0.611786 0.670288 0.337433
0.690643 0.642731 0.345062
0.801605 0.632538 0.357422
0.907349 0.624054 0.367645
0.121307 0.750305 0.287933
0.239380 0.767273 0.309875
0.407990 0.775055 0.353302
0.522675 0.779327 0.360321
0.618988 0.782410 0.367188
0.727051 0.785126 0.374390
0.809662 0.750549 0.381805
0.912659 0.741302 0.391968
0.150238 0.853424 0.309723
0.256622 0.871124 0.332672
0.416840 0.879547 0.379608
0.530792 0.884216 0.390808
0.626617 0.887451 0.397156
0.735107 0.890076 0.403687
0.852203 0.892334 0.410400
0.918243 0.851593 0.417358
0.000031 0.033295 0.334717
0.099731 0.019623 0.392456
0.289093 0.013184 0.389496
0.450195 0.014313 0.427856
0.543365 0.016693 0.439087
0.640198 0.019470 0.451691
0.754791 0.022461 0.466400
0.867523 0.025421 0.481628
0.009460 0.209900 0.387115
0.139160 0.215546 0.406555
0.315430 0.181641 0.405426
0.465027 0.180603 0.432037
0.559479 0.178497 0.446106
0.664368 0.174347 0.464935
0.789185 0.167328 0.489807
0.912079 0.155334 0.520233
0.019196 0.371277 0.399506
0.153015 0.378143 0.416718
0.337372 0.354095 0.416199
0.470245 0.347961 0.426483
0.562653 0.346558 0.437134
0.664581 0.343628 0.450287
0.783112 0.340179 0.466156
0.897003 0.336426 0.484222
0.027863 0.465485 0.377350
0.168701 0.477234 0.401001
0.343811 0.477417 0.413544
0.479858 0.472168 0.424988
0.569336 0.463623 0.432037
0.670532 0.453613 0.434967
0.787048 0.441162 0.437836
0.898254 0.442291 0.455414
0.036011 0.560883 0.386475
0.186279 0.569153 0.405853
0.349670 0.571228 0.415833
0.490540 0.572510 0.433899
0.581879 0.561249 0.437958
0.679810 0.551422 0.448883
0.794373 0.540039 0.451019
0.903015 0.529053 0.454346
0.044189 0.660645 0.396973
0.205078 0.666443 0.411774
0.357452 0.670105 0.420746
0.498291 0.672821 0.445526
0.600281 0.674866 0.449768
0.691681 0.655945 0.454071
0.802490 0.645325 0.465637
0.908539 0.635681 0.469238
0.080841 0.766663 0.402649
0.225189 0.776245 0.417969
0.366272 0.781708 0.426422
0.507843 0.785339 0.459106
0.608398 0.787964 0.463257
0.719788 0.790222 0.467865
0.811890 0.762726 0.472260
0.914795 0.752838 0.480896
0.125336 0.865662 0.408203
0.246307 0.879517 0.425629
0.376434 0.886047 0.434418
0.518188 0.890106 0.474670
0.617462 0.892883 0.478912
0.728821 0.895294 0.483307
0.847900 0.897369 0.488037
0.920990 0.862396 0.492523
0.000031 0.047424 0.454529
0.042633 0.092529 0.527985
0.256714 0.021790 0.516235
0.403839 0.018677 0.514954
0.530457 0.019440 0.545227
0.640930 0.021454 0.570007
0.754211 0.023987 0.582001
0.866394 0.026825 0.594604
0.007233 0.220215 0.507996
0.060211 0.269531 0.538116
0.278168 0.189575 0.526489
0.428589 0.184143 0.527374
0.557861 0.180878 0.560272
0.663605 0.176819 0.577087
0.786591 0.170349 0.596710
0.908417 0.158966 0.622070
0.017700 0.380676 0.516113
0.071167 0.421997 0.546051
0.307709 0.369812 0.534851
0.445129 0.344360 0.535095
0.564697 0.344299 0.554260
0.664581 0.343536 0.563171
0.781799 0.340973 0.576019
0.895020 0.337646 0.590881
0.027130 0.506683 0.525177
0.088135 0.533844 0.553497
0.319336 0.497894 0.542847
0.463654 0.480164 0.542206
0.569153 0.473938 0.550354
0.669128 0.473267 0.559235
0.785522 0.470459 0.570770
0.896667 0.467346 0.582855
0.035797 0.561066 0.491699
0.116058 0.585449 0.520233
0.330139 0.576599 0.529724
0.468689 0.575653 0.540649
0.574982 0.571625 0.549255
0.675049 0.562653 0.553284
0.790955 0.554749 0.558105
0.900635 0.556305 0.572693
0.045013 0.661285 0.495636
0.150177 0.682648 0.519775
0.339935 0.676727 0.527893
0.470093 0.677216 0.536591
0.584106 0.677887 0.553741
0.687958 0.667542 0.556671
0.799438 0.656830 0.565521
0.906799 0.646606 0.566956
0.053558 0.776031 0.500000
0.182159 0.790710 0.519714
0.350861 0.788727 0.527252
0.472687 0.790314 0.534332
0.592590 0.792023 0.560303
0.707062 0.793793 0.563843
0.810059 0.774170 0.567169
0.913513 0.764069 0.576965
0.061859 0.884460 0.506500
0.211212 0.891541 0.521820
0.362915 0.892792 0.529785
0.477264 0.894928 0.536407
0.602356 0.897064 0.570374
0.716614 0.898926 0.573975
0.838287 0.900726 0.578156
0.920532 0.873016 0.582123
0.000031 0.062347 0.534149
0.035919 0.105957 0.630981
0.201477 0.042023 0.629364
0.379791 0.026245 0.625397
0.488556 0.024078 0.624634
0.601349 0.024628 0.639160
0.751587 0.026398 0.688385
0.863556 0.028717 0.700287
0.003998 0.229706 0.610992
0.056549 0.279205 0.644165
0.220947 0.207031 0.641785
0.401215 0.192535 0.636810
0.512512 0.186676 0.639404
0.633240 0.181213 0.659515
0.781464 0.174744 0.704895
0.902557 0.163971 0.730713
0.015808 0.389099 0.619934
0.068939 0.430664 0.653412
0.264709 0.397644 0.650330
0.414215 0.347595 0.645447
0.527649 0.344330 0.646484
0.648468 0.342957 0.662170
0.778595 0.341827 0.687103
0.891418 0.339020 0.701538
0.025696 0.515076 0.629089
0.079468 0.544647 0.663055
0.277588 0.517731 0.658539
0.441498 0.490265 0.654175
0.540100 0.469360 0.654846
0.662689 0.469147 0.667969
0.782867 0.469177 0.681915
0.893463 0.467072 0.693909
0.034821 0.611084 0.639282
0.089478 0.639343 0.673859
0.291351 0.613495 0.667389
0.449036 0.592468 0.663513
0.558807 0.579071 0.663544
0.673523 0.570190 0.673706
0.788208 0.570343 0.682800
0.897797 0.568176 0.694183
0.044434 0.661438 0.599365
0.098846 0.697113 0.636200
0.306305 0.687378 0.645142
0.456512 0.683167 0.654663
0.564331 0.681885 0.664001
0.678558 0.679291 0.673584
0.793610 0.676849 0.684265
0.902649 0.678192 0.698242
0.053711 0.776489 0.603546
0.107849 0.812103 0.640686
0.320587 0.799225 0.644165
0.460388 0.796356 0.651428
0.564606 0.796356 0.659760
0.687378 0.796570 0.678894
0.804871 0.787109 0.683594
0.909546 0.777618 0.692261
0.062500 0.885132 0.609985
0.116455 0.917206 0.647827
0.336090 0.902069 0.646301
0.465973 0.900604 0.652618
0.567230 0.901215 0.660339
0.691071 0.902252 0.680969
0.823334 0.903534 0.693237
0.917419 0.885651 0.697235
0.000031 0.078613 0.606171
0.028595 0.121521 0.750885
0.091064 0.108215 0.779480
0.342255 0.041565 0.755585
0.466644 0.031036 0.753967
0.569794 0.029419 0.753448
0.686798 0.029755 0.754761
0.859619 0.031219 0.825836
0.000092 0.241119 0.730347
0.052399 0.290649 0.767883
0.149017 0.312714 0.793701
0.362671 0.205994 0.768402
0.486908 0.195465 0.767487
0.597168 0.188263 0.772461
0.723938 0.180573 0.781769
0.894775 0.170258 0.855316
0.013306 0.399384 0.741364
0.066376 0.441132 0.778320
0.167297 0.456299 0.801697
0.373230 0.355591 0.777832
0.498993 0.348358 0.775085
0.610840 0.344727 0.777252
0.736267 0.342407 0.781738
0.886261 0.340637 0.830566
0.023956 0.525208 0.751495
0.077484 0.554718 0.788055
0.188293 0.560364 0.808075
0.412628 0.508057 0.786621
0.509033 0.468353 0.783966
0.623535 0.466461 0.785126
0.750916 0.465454 0.788452
0.889008 0.465729 0.823792
0.033447 0.621124 0.761993
0.087952 0.649139 0.798279
0.210114 0.651642 0.814362
0.421539 0.607727 0.795563
0.538422 0.589355 0.793121
0.635559 0.565552 0.794067
0.764435 0.565094 0.796844
0.893707 0.565887 0.823212
0.043396 0.721832 0.773346
0.097809 0.755646 0.809326
0.234161 0.755341 0.820801
0.430725 0.716675 0.805054
0.545013 0.701050 0.802948
0.659851 0.688416 0.803528
0.778564 0.675964 0.805969
0.898895 0.676758 0.823822
0.053040 0.785706 0.734009
0.107178 0.821167 0.770782
0.258118 0.827911 0.790070
0.440247 0.815277 0.795044
0.551819 0.813599 0.804260
0.667206 0.812164 0.814392
0.794403 0.799835 0.814850
0.904083 0.798401 0.825867
0.062408 0.885376 0.730255
0.116241 0.917480 0.766846
0.282074 0.918213 0.780914
0.447632 0.908295 0.783905
0.555573 0.906311 0.790894
0.670502 0.906128 0.801086
0.797729 0.906281 0.814026
0.911713 0.899506 0.826324
0.000031 0.097321 0.678894
0.018402 0.139618 0.867096
0.076233 0.187439 0.902863
0.284332 0.069183 0.885162
0.439697 0.043152 0.882141
0.547150 0.036469 0.880280
0.665802 0.034790 0.879974
0.782959 0.035126 0.881042
0.000031 0.253143 0.839508
0.047333 0.302826 0.885834
0.103180 0.348389 0.919037
0.306458 0.227448 0.898926
0.457367 0.208008 0.892151
0.570587 0.197784 0.894073
0.698792 0.188965 0.900482
0.822906 0.178345 0.911316
0.010254 0.410187 0.863007
0.063080 0.451324 0.896088
0.117645 0.487671 0.928558
0.361298 0.417053 0.907623
0.467865 0.356140 0.899567
0.582764 0.349854 0.899078
0.710144 0.346100 0.901642
0.830872 0.342834 0.906403
0.021820 0.535126 0.872345
0.075256 0.564423 0.904907
0.129242 0.590912 0.937012
0.371735 0.534210 0.915039
0.476166 0.471497 0.907166
0.593842 0.467560 0.905884
0.723083 0.465515 0.907471
0.843597 0.464172 0.910767
0.031708 0.630951 0.881317
0.086121 0.658539 0.913727
0.139618 0.686920 0.945435
0.382507 0.631622 0.922363
0.516693 0.603851 0.914734
0.604889 0.564972 0.913483
0.735413 0.563446 0.914551
0.855957 0.562622 0.917145
0.041931 0.731476 0.890839
0.096252 0.764679 0.922913
0.149506 0.798859 0.954498
0.393890 0.740631 0.929840
0.523499 0.715454 0.922821
0.639221 0.699402 0.921539
0.749725 0.673920 0.922516
0.869781 0.673401 0.924835
0.051849 0.846863 0.900970
0.106079 0.880310 0.932800
0.158813 0.912598 0.964111
0.405273 0.857208 0.937836
0.530792 0.835815 0.931366
0.646820 0.821838 0.930298
0.777710 0.809601 0.931061
0.885040 0.796753 0.933197
0.061676 0.911835 0.867615
0.115601 0.943420 0.900574
0.167999 0.974518 0.933380
0.417389 0.946106 0.929718
0.538300 0.940552 0.936035
0.654846 0.932800 0.939697
0.785156 0.921173 0.940521
0.902618 0.911499 0.942047
0.000031 0.117737 0.753326
0.006744 0.158203 0.971588
0.064819 0.206360 1.000000
0.179047 0.120178 1.000000
0.402100 0.067322 0.995087
0.522430 0.046478 0.996552
0.642731 0.042023 0.994598
0.763489 0.040771 0.994476
0.000031 0.265015 0.935699
0.041351 0.314301 0.992859
0.107422 0.359344 1.000000
0.270203 0.331665 1.000000
0.421539 0.228699 1.000000
0.540253 0.213745 1.000000
0.666809 0.206573 1.000000
0.788361 0.204742 1.000000
0.007172 0.420197 0.972748
0.061981 0.460449 1.000000
0.135040 0.492340 1.000000
0.293488 0.471313 1.000000
0.433136 0.372284 1.000000
0.551941 0.362549 1.000000
0.678131 0.358795 1.000000
0.798828 0.358795 1.000000
0.019409 0.544617 0.981506
0.083252 0.570709 1.000000
0.162506 0.589630 1.000000
0.318390 0.570679 1.000000
0.481659 0.519104 1.000000
0.563171 0.476074 1.000000
0.689789 0.474518 1.000000
0.809265 0.475647 1.000000
0.029846 0.639984 0.989960
0.107910 0.660248 1.000000
0.194275 0.677399 1.000000
0.347839 0.659424 1.000000
0.499451 0.622131 1.000000
0.577545 0.572632 1.000000
0.703735 0.572540 1.000000
0.820679 0.575165 1.000000
0.040253 0.740326 0.998627
0.138733 0.757782 1.000000
0.233887 0.775177 1.000000
0.382202 0.758667 1.000000
0.516449 0.728607 1.000000
0.627045 0.713898 1.000000
0.724030 0.684082 1.000000
0.836639 0.689667 1.000000
0.066498 0.849823 1.000000
0.179596 0.861206 1.000000
0.284637 0.872345 1.000000
0.422791 0.858093 1.000000
0.540375 0.837738 1.000000
0.650879 0.827240 1.000000
0.770935 0.821442 1.000000
0.860016 0.811005 1.000000
0.106659 0.948517 1.000000
0.235382 0.950714 1.000000
0.350159 0.953827 1.000000
0.471130 0.942291 1.000000
0.577820 0.929596 1.000000
0.691406 0.921936 1.000000
0.806885 0.918610 1.000000
0.902557 0.922394 1.000000
