bin/data/LUT/Morning.CUBE
TITLE "Good Morning" by Emma Souannhaphanh
LUT_3D_SIZE 5
DOMAIN_MIN 0.000000 0.000000 0.000000
DOMAIN_MAX 0.903226 0.903226 0.903226
0.000000 0.000000 0.000000
0.273834 0.007904 0.036133
0.480713 0.012756 0.078094
0.655914 0.016052 0.132904
0.861115 0.018494 0.197479
0.024170 0.298737 0.030334
0.318115 0.287170 0.068176
0.511017 0.273743 0.096405
0.687531 0.258881 0.135590
0.893127 0.237244 0.182983
0.055969 0.502625 0.106903
0.356567 0.514099 0.157593
0.529541 0.488281 0.176086
0.699249 0.475281 0.202576
0.894989 0.459503 0.231384
0.102478 0.659790 0.177734
0.371765 0.681122 0.243286
0.568542 0.687927 0.259308
0.713257 0.655182 0.276733
0.902039 0.640411 0.301331
0.147034 0.842926 0.240814
0.391205 0.868896 0.320374
0.579376 0.877350 0.335846
0.761505 0.882233 0.349976
0.910797 0.839691 0.365356
0.000031 0.028961 0.302460
0.255798 0.011841 0.349976
0.497131 0.014893 0.395416
0.666840 0.019928 0.418884
0.867462 0.025146 0.447540
0.017303 0.330688 0.359955
0.300049 0.315796 0.376160
0.514862 0.308411 0.396271
0.692413 0.303375 0.422180
0.897827 0.296326 0.457581
0.031799 0.514343 0.349060
0.311401 0.523834 0.376343
0.533020 0.514313 0.397461
0.704193 0.497375 0.411285
0.900757 0.477417 0.419342
0.064880 0.682709 0.368805
0.327545 0.694946 0.391144
0.555481 0.700623 0.423828
0.722015 0.679291 0.432678
0.910065 0.662292 0.448944
0.134796 0.862213 0.383423
0.347229 0.883179 0.409637
0.570831 0.890320 0.455414
0.761108 0.894714 0.463837
0.920715 0.859802 0.472778
0.000031 0.054565 0.497528
0.177399 0.035767 0.572418
0.448792 0.021393 0.568451
0.667023 0.023407 0.624603
0.865143 0.027649 0.645752
0.014252 0.347321 0.564819
0.234283 0.356201 0.589478
0.484406 0.306854 0.586792
0.690887 0.304657 0.622040
0.893799 0.299347 0.647797
0.030792 0.559998 0.580261
0.258545 0.561859 0.603058
0.512451 0.530090 0.600281
0.699432 0.522949 0.615356
0.897095 0.518555 0.635284
0.047150 0.689362 0.546051
0.285278 0.710297 0.580475
0.517456 0.708069 0.595734
0.715454 0.700012 0.614166
0.906616 0.682159 0.623199
0.062408 0.884918 0.555206
0.313721 0.897247 0.582550
0.521606 0.898315 0.594543
0.739563 0.901001 0.628662
0.919159 0.879028 0.635834
0.000031 0.082428 0.626129
0.069611 0.162354 0.810181
0.404602 0.037354 0.788727
0.592194 0.030701 0.786499
0.858307 0.032135 0.857910
0.009644 0.365021 0.770538
0.103577 0.439240 0.833313
0.431366 0.318176 0.806213
0.630707 0.308899 0.808167
0.884766 0.303314 0.865326
0.028412 0.576904 0.787903
0.122711 0.624390 0.849335
0.474426 0.550903 0.821350
0.653381 0.515472 0.821289
0.889832 0.515320 0.854980
0.045593 0.752380 0.806824
0.139832 0.813232 0.867035
0.487030 0.742065 0.837341
0.688629 0.718750 0.837036
0.899109 0.706696 0.854858
0.062225 0.885376 0.759583
0.155609 0.940979 0.821320
0.498688 0.908844 0.818329
0.699310 0.907257 0.835114
0.909821 0.902740 0.856812
0.000031 0.117737 0.753326
0.047852 0.194885 0.996368
0.319031 0.084320 0.998138
0.550781 0.044983 0.995789
0.763489 0.040771 0.994476
0.003662 0.383392 0.970367
0.110718 0.453766 1.000000
0.354034 0.349762 1.000000
0.579285 0.326599 1.000000
0.796143 0.323334 1.000000
0.024902 0.593536 0.985748
0.157288 0.628632 1.000000
0.428619 0.588196 1.000000
0.600403 0.523376 1.000000
0.814575 0.524750 1.000000
0.044403 0.767853 1.000000
0.221649 0.796295 1.000000
0.465424 0.767029 1.000000
0.661896 0.740723 1.000000
0.841675 0.720734 1.000000
0.106659 0.948517 1.000000
0.323090 0.952911 1.000000
0.525513 0.934784 1.000000
0.721405 0.920624 1.000000
0.902557 0.922394 1.000000
