bin/data/LUT/Morning.CUBE
TITLE "Good Morning" by Emma Souannhaphanh
LUT_3D_SIZE 32
0.000000 0.000000 0.000000
0.041748 0.002563 0.005829
0.080811 0.004059 0.010986
0.118958 0.005066 0.015991
0.159149 0.005768 0.020477
0.198334 0.006439 0.025696
0.236603 0.007202 0.030457
0.273834 0.007904 0.036133
0.309326 0.008698 0.041718
0.343323 0.009308 0.047394
0.374969 0.010010 0.053589
0.404572 0.010803 0.059052
0.431854 0.011353 0.065979
0.456970 0.012054 0.071686
0.480713 0.012756 0.078094
0.503967 0.013336 0.084717
0.527252 0.013855 0.091827
0.550934 0.014313 0.099609
0.575378 0.014801 0.107452
0.600830 0.015228 0.115723
0.627716 0.015564 0.124817
0.655914 0.016052 0.132904
0.685364 0.016357 0.142456
0.715393 0.016693 0.151978
0.745605 0.017029 0.161102
0.775330 0.017395 0.170410
0.804596 0.017822 0.179169
0.833160 0.018188 0.188293
0.861115 0.018494 0.197479
0.888611 0.018890 0.206177
0.915497 0.019257 0.215088
0.942017 0.019531 0.224030
0.007812 0.044830 0.006256
0.049896 0.043915 0.011597
0.090363 0.042023 0.013733
0.130676 0.038666 0.015625
0.170227 0.035675 0.017365
0.210144 0.031830 0.019409
0.247833 0.029022 0.021606
0.285461 0.025299 0.025238
0.321289 0.028992 0.036194
0.355804 0.033539 0.049500
0.387817 0.038208 0.062378
0.418060 0.041321 0.076447
0.445435 0.040771 0.084351
0.471466 0.039581 0.094635
0.496582 0.037933 0.105347
0.520081 0.038086 0.112823
0.543549 0.038605 0.119843
0.567505 0.039215 0.127045
0.592590 0.039734 0.135712
0.618744 0.040192 0.143585
0.646454 0.040527 0.152374
0.675354 0.040985 0.161774
0.705170 0.041351 0.170685
0.735291 0.041656 0.180023
0.765076 0.042023 0.188904
0.794434 0.042419 0.197937
0.823212 0.042786 0.207031
0.851318 0.043213 0.216034
0.878784 0.043518 0.224792
0.905792 0.044006 0.233368
0.932526 0.044464 0.241760
0.958832 0.044769 0.250732
0.011627 0.090332 0.009796
0.061401 0.091949 0.017181
0.099274 0.086884 0.019501
0.139709 0.083954 0.021606
0.178253 0.081909 0.022461
0.217499 0.078430 0.024719
0.255463 0.075409 0.026764
0.292145 0.072327 0.029968
0.327911 0.068787 0.033752
0.361511 0.065826 0.038025
0.393402 0.062103 0.043945
0.422363 0.059235 0.048553
0.449677 0.055481 0.054901
0.474518 0.061127 0.069916
0.498840 0.068451 0.088318
0.523407 0.076233 0.108643
0.548706 0.078400 0.124451
0.575592 0.075989 0.137451
0.603485 0.073486 0.151520
0.632996 0.071167 0.164581
0.664520 0.068298 0.179230
0.694946 0.067719 0.189606
0.724945 0.068146 0.198822
0.754883 0.068451 0.207886
0.784302 0.068848 0.216614
0.813141 0.069305 0.225494
0.841461 0.069641 0.233765
0.869080 0.070038 0.242493
0.896118 0.070343 0.251190
0.922943 0.070709 0.259430
0.949280 0.071106 0.268127
0.975494 0.071503 0.276764
0.015808 0.135376 0.012634
0.067352 0.137115 0.021637
0.111359 0.138916 0.025055
0.146118 0.130066 0.026184
0.185577 0.127136 0.027649
0.223175 0.124817 0.029327
0.261444 0.121216 0.031860
0.297607 0.118622 0.035126
0.332001 0.116302 0.038269
0.365051 0.113708 0.042023
0.396454 0.110840 0.046509
0.425049 0.108429 0.051208
0.451630 0.105804 0.055725
0.476746 0.102539 0.062592
0.500153 0.100250 0.068298
0.523865 0.097412 0.074707
0.548340 0.093506 0.083069
0.573425 0.090057 0.089935
0.600098 0.099457 0.113770
0.628601 0.108643 0.137451
0.659058 0.118561 0.163177
0.691742 0.115936 0.178619
0.725769 0.112488 0.194702
0.759155 0.109222 0.210144
0.792908 0.105225 0.226624
0.826508 0.100677 0.243866
0.858673 0.096619 0.260162
0.886505 0.096283 0.269531
0.913239 0.096680 0.278107
0.939667 0.097137 0.285980
0.965912 0.097534 0.294067
0.992035 0.097870 0.302643
0.019348 0.178833 0.015686
0.071014 0.181244 0.028503
0.117554 0.182404 0.029816
0.161041 0.184143 0.032074
0.191711 0.171722 0.034546
0.230011 0.168671 0.036011
0.266846 0.166077 0.038818
0.302643 0.163635 0.040955
0.337219 0.160858 0.044403
0.369843 0.158600 0.047729
0.400208 0.156586 0.051300
0.428650 0.154144 0.056702
0.454895 0.151794 0.061005
0.479065 0.149811 0.066406
0.502533 0.147522 0.071686
0.525726 0.145264 0.077911
0.549652 0.142303 0.084900
0.574097 0.139648 0.091705
0.599609 0.136688 0.098907
0.627167 0.132721 0.107483
0.655914 0.129120 0.115112
0.686584 0.124451 0.124329
0.718567 0.132996 0.146729
0.750702 0.141998 0.169922
0.782654 0.151855 0.195435
0.814331 0.157166 0.216522
0.846161 0.153656 0.232788
0.877380 0.150238 0.248230
0.908569 0.145996 0.264404
0.939941 0.140961 0.282379
0.971313 0.135742 0.299957
1.000000 0.132233 0.318665
0.021027 0.220337 0.018707
0.076050 0.223206 0.034363
0.122009 0.224579 0.036835
0.166595 0.226044 0.038727
0.210358 0.226898 0.041290
0.236145 0.211700 0.042938
0.272552 0.209076 0.045654
0.308044 0.206451 0.049225
0.341980 0.204102 0.052185
0.374176 0.201813 0.055450
0.404419 0.199799 0.059082
0.432434 0.197540 0.063538
0.458008 0.195831 0.067780
0.482178 0.193787 0.072723
0.505310 0.191833 0.078156
0.528259 0.190002 0.083618
0.551727 0.187561 0.090790
0.575684 0.185211 0.096832
0.600830 0.182800 0.103363
0.627838 0.179535 0.111176
0.655884 0.176636 0.117767
0.685791 0.173096 0.125336
0.716858 0.169220 0.132874
0.747864 0.165436 0.140839
0.779022 0.161163 0.148865
0.809662 0.157410 0.158203
0.839905 0.166290 0.180756
0.869568 0.175018 0.203003
0.898895 0.184265 0.226837
0.927826 0.193390 0.250244
0.957367 0.193970 0.268341
0.986725 0.190704 0.283020
0.021027 0.260590 0.022614
0.080627 0.263428 0.042053
0.127380 0.264435 0.044983
0.171051 0.266327 0.046936
0.214844 0.267303 0.048889
0.256989 0.268097 0.051666
0.278320 0.250122 0.054504
0.313477 0.247498 0.057770
0.346680 0.245361 0.061432
0.378479 0.243256 0.064636
0.408630 0.240997 0.068359
0.436035 0.239258 0.071686
0.461517 0.237366 0.076569
0.485168 0.235840 0.081024
0.508026 0.234009 0.086243
0.530731 0.232300 0.091492
0.553925 0.230194 0.098114
0.577881 0.227966 0.103943
0.602631 0.225861 0.109894
0.628967 0.223419 0.116425
0.656860 0.220612 0.122833
0.686188 0.217743 0.128906
0.716553 0.214478 0.136108
0.747406 0.210968 0.143585
0.777924 0.207428 0.150940
0.807648 0.204102 0.157959
0.837555 0.200195 0.165924
0.866425 0.196625 0.173279
0.895111 0.192322 0.182037
0.923248 0.189941 0.191559
0.951477 0.198273 0.212616
0.979584 0.207001 0.234741
0.024170 0.298737 0.030334
0.086456 0.301117 0.051971
0.130951 0.303040 0.055359
0.175476 0.304413 0.057648
0.218597 0.305725 0.059631
0.260284 0.306793 0.062195
0.300720 0.307404 0.065247
0.318115 0.287170 0.068176
0.351288 0.284760 0.071228
0.382904 0.282532 0.075134
0.412384 0.280487 0.079102
0.439667 0.278748 0.082611
0.464874 0.277008 0.086761
0.488342 0.275360 0.091644
0.511017 0.273743 0.096405
0.533508 0.272156 0.101166
0.556335 0.270477 0.106323
0.580078 0.268372 0.112244
0.604736 0.266388 0.117798
0.630768 0.264191 0.123322
0.658417 0.261597 0.129852
0.687531 0.258881 0.135590
0.717468 0.256165 0.141937
0.747620 0.253296 0.148407
0.777771 0.250122 0.155121
0.807526 0.246948 0.161987
0.836609 0.243774 0.168945
0.865021 0.240631 0.175659
0.893127 0.237244 0.182983
0.920807 0.233948 0.190643
0.948517 0.230347 0.198090
0.976013 0.226654 0.205963
0.027618 0.334625 0.040070
0.091736 0.336853 0.063202
0.135406 0.339081 0.067078
0.179596 0.340515 0.069580
0.222382 0.341888 0.071564
0.263672 0.342987 0.074493
0.304047 0.343719 0.077423
0.342346 0.344727 0.079651
0.356079 0.322144 0.082947
0.387115 0.319916 0.086670
0.416138 0.318024 0.090454
0.443146 0.316284 0.094177
0.468140 0.314545 0.098511
0.491455 0.313049 0.102753
0.513763 0.311554 0.107147
0.536285 0.309875 0.111664
0.558990 0.308197 0.116394
0.582275 0.306641 0.121460
0.606812 0.304565 0.126770
0.632751 0.302429 0.131836
0.660065 0.300140 0.137634
0.688843 0.297668 0.142914
0.718628 0.295013 0.148804
0.748535 0.292358 0.154968
0.778351 0.289642 0.160919
0.807556 0.286926 0.167175
0.836395 0.284058 0.173706
0.864716 0.281128 0.179993
0.892395 0.278259 0.186768
0.919891 0.274963 0.193970
0.946930 0.272156 0.200531
0.974060 0.268890 0.207703
0.031006 0.368500 0.050781
0.092407 0.370422 0.072235
0.139954 0.372864 0.079041
0.182587 0.374603 0.082764
0.225525 0.375824 0.085052
0.266449 0.377106 0.087830
0.307129 0.377899 0.089508
0.345276 0.378815 0.092499
0.379395 0.377045 0.095459
0.391113 0.355530 0.098999
0.420013 0.353302 0.101929
0.446625 0.351501 0.105499
0.471344 0.349762 0.110229
0.494293 0.348511 0.113983
0.516632 0.347107 0.118225
0.538818 0.345428 0.122772
0.561493 0.343842 0.126831
0.584808 0.342133 0.131744
0.609161 0.340240 0.136414
0.634766 0.338348 0.141418
0.661926 0.336182 0.146362
0.690369 0.333893 0.151398
0.719910 0.331329 0.156891
0.749634 0.328827 0.162354
0.779327 0.326111 0.168060
0.808319 0.323578 0.173767
0.836792 0.320953 0.180023
0.864807 0.318237 0.186005
0.892273 0.315704 0.191895
0.919434 0.312958 0.198761
0.946198 0.310181 0.205048
0.973053 0.307281 0.211548
0.034393 0.400208 0.062256
0.087341 0.402039 0.075623
0.142609 0.404633 0.092651
0.186249 0.406219 0.095642
0.228882 0.407501 0.098022
0.269806 0.408691 0.100861
0.309723 0.409576 0.103455
0.347717 0.410614 0.105316
0.384216 0.411224 0.108093
0.411804 0.405579 0.111633
0.423645 0.386353 0.114441
0.449951 0.384552 0.117676
0.474487 0.382751 0.121307
0.497284 0.381256 0.125732
0.519440 0.379913 0.129608
0.541473 0.378357 0.134338
0.563995 0.376831 0.138062
0.587097 0.375183 0.142395
0.611328 0.373352 0.146698
0.636780 0.371552 0.151123
0.663879 0.369385 0.155975
0.692230 0.367065 0.160767
0.721588 0.364624 0.165863
0.751129 0.362244 0.170837
0.780396 0.359650 0.176331
0.809174 0.357300 0.181335
0.837433 0.354797 0.187164
0.865204 0.352325 0.192749
0.892517 0.349854 0.198334
0.919250 0.347290 0.204559
0.945923 0.344849 0.210541
0.972473 0.342285 0.216614
0.040863 0.428680 0.073242
0.083862 0.431061 0.079834
0.145996 0.433777 0.105713
0.188721 0.435638 0.108643
0.231201 0.436920 0.111603
0.272583 0.437958 0.113831
0.312225 0.438873 0.116455
0.349945 0.439758 0.118988
0.386444 0.440338 0.121765
0.420288 0.441040 0.124084
0.441681 0.431854 0.127319
0.453217 0.415009 0.130463
0.477448 0.413116 0.133057
0.500183 0.411591 0.136566
0.522034 0.410126 0.140961
0.544037 0.408630 0.145050
0.566376 0.407104 0.149292
0.589447 0.405548 0.153290
0.613495 0.403717 0.157684
0.638916 0.401855 0.161774
0.665741 0.399719 0.165924
0.693909 0.397583 0.170715
0.723114 0.395081 0.175140
0.752441 0.392761 0.180084
0.781616 0.390411 0.185028
0.810181 0.388000 0.189941
0.838287 0.385620 0.195160
0.865845 0.383331 0.200409
0.892822 0.381042 0.205963
0.919525 0.378571 0.211395
0.945923 0.376221 0.216919
0.972290 0.373779 0.222839
0.045929 0.455292 0.084503
0.084412 0.457550 0.087341
0.150085 0.460297 0.118073
0.191742 0.462219 0.121552
0.233856 0.463593 0.124481
0.274780 0.464691 0.126770
0.314697 0.465485 0.129059
0.352478 0.466370 0.131744
0.388672 0.466980 0.134277
0.422241 0.467743 0.136719
0.453400 0.468323 0.139771
0.468842 0.455536 0.142456
0.480194 0.441254 0.145691
0.502869 0.439392 0.148590
0.524628 0.437897 0.151825
0.546387 0.436371 0.155914
0.568665 0.434845 0.160248
0.591492 0.433289 0.164642
0.615631 0.431458 0.168701
0.640839 0.429535 0.173004
0.667633 0.427551 0.176910
0.695740 0.425262 0.180695
0.724762 0.422974 0.185455
0.753754 0.420685 0.189301
0.782806 0.418213 0.194183
0.811340 0.415894 0.198975
0.839233 0.413544 0.203552
0.866608 0.411285 0.208527
0.893463 0.409088 0.213776
0.919983 0.406891 0.218750
0.946198 0.404663 0.224152
0.972443 0.402252 0.229828
0.050598 0.479858 0.095886
0.090027 0.481750 0.098633
0.146851 0.484863 0.124329
0.195038 0.486755 0.133972
0.236755 0.488129 0.137329
0.277344 0.489258 0.139526
0.317017 0.490112 0.142059
0.354614 0.490906 0.144623
0.390442 0.491608 0.147186
0.424103 0.492249 0.149689
0.455200 0.492889 0.152161
0.483704 0.493439 0.155090
0.493958 0.478119 0.157959
0.505402 0.465424 0.160767
0.527130 0.463715 0.163757
0.548889 0.462036 0.166809
0.570984 0.460388 0.171173
0.593750 0.458710 0.175354
0.617554 0.457123 0.179504
0.642883 0.455200 0.183960
0.669525 0.453217 0.187744
0.697571 0.450958 0.191498
0.726379 0.448669 0.195587
0.755432 0.446350 0.199677
0.784180 0.444031 0.203888
0.812378 0.441681 0.208405
0.840240 0.439484 0.212769
0.867493 0.437134 0.217529
0.894196 0.434937 0.222382
0.920593 0.432800 0.227081
0.946564 0.430664 0.231934
0.972595 0.428345 0.237122
0.055969 0.502625 0.106903
0.093689 0.504822 0.110138
0.141754 0.507782 0.127930
0.197998 0.509705 0.146698
0.239197 0.511200 0.149841
0.280090 0.512268 0.152313
0.319092 0.513245 0.155029
0.356567 0.514099 0.157593
0.392212 0.514771 0.160004
0.425751 0.515472 0.162506
0.456879 0.516022 0.164886
0.485229 0.516571 0.167664
0.511292 0.517120 0.170410
0.517609 0.499603 0.173065
0.529541 0.488281 0.176086
0.551147 0.486511 0.178864
0.573151 0.484741 0.182068
0.595886 0.483063 0.186157
0.619720 0.481354 0.190399
0.644714 0.479462 0.194702
0.671326 0.477509 0.198792
0.699249 0.475281 0.202576
0.727905 0.472961 0.206055
0.756866 0.470703 0.210175
0.785522 0.468384 0.214050
0.813660 0.466034 0.218170
0.841278 0.463837 0.222382
0.868408 0.461639 0.226837
0.894989 0.459503 0.231384
0.921265 0.457245 0.235870
0.947113 0.455078 0.240479
0.972992 0.453003 0.245331
0.062439 0.524231 0.117584
0.099121 0.526642 0.121155
0.137329 0.529877 0.131592
0.200928 0.532013 0.159149
0.241791 0.533539 0.162415
0.282288 0.534698 0.164948
0.321198 0.535706 0.167633
0.358307 0.536652 0.170105
0.394104 0.537384 0.172668
0.427460 0.538055 0.175079
0.458466 0.538635 0.177765
0.486847 0.539185 0.180023
0.512634 0.539764 0.182648
0.536926 0.540314 0.185272
0.540771 0.521240 0.188141
0.553436 0.510712 0.191162
0.575409 0.508850 0.194031
0.597992 0.507080 0.197174
0.621765 0.505157 0.200989
0.646790 0.503265 0.205139
0.673187 0.501312 0.209686
0.701050 0.499207 0.213593
0.729675 0.496887 0.217285
0.758392 0.494690 0.220734
0.786896 0.492340 0.224396
0.814880 0.490082 0.228546
0.842346 0.487854 0.232239
0.869446 0.485657 0.236572
0.895721 0.483612 0.240692
0.921936 0.481323 0.244965
0.947723 0.479248 0.249451
0.973389 0.477203 0.253723
0.069733 0.545563 0.127472
0.104156 0.548370 0.132782
0.136597 0.551575 0.137207
0.203461 0.554199 0.171509
0.244598 0.555756 0.174622
0.284668 0.557098 0.177673
0.323456 0.558136 0.180298
0.360474 0.559143 0.182770
0.396240 0.559845 0.185272
0.429291 0.560577 0.187653
0.459930 0.561310 0.189941
0.488190 0.561859 0.192474
0.514038 0.562500 0.195007
0.538239 0.563049 0.197510
0.561584 0.563538 0.200226
0.563995 0.542938 0.203125
0.577667 0.533142 0.206177
0.600281 0.531189 0.208771
0.623993 0.529175 0.211700
0.648865 0.527191 0.215851
0.675232 0.525208 0.220062
0.702972 0.523102 0.223969
0.731354 0.520874 0.228394
0.760010 0.518707 0.231720
0.788330 0.516357 0.235229
0.816284 0.514252 0.238708
0.843567 0.511932 0.242493
0.870392 0.509796 0.246399
0.896698 0.507721 0.250336
0.922668 0.505615 0.254333
0.948425 0.503540 0.258453
0.973969 0.501343 0.262787
0.076355 0.567078 0.138062
0.109344 0.570251 0.143097
0.140411 0.573761 0.148987
0.199066 0.576385 0.175385
0.246979 0.578308 0.187103
0.286865 0.579681 0.190155
0.325745 0.580780 0.192871
0.362762 0.581787 0.195282
0.397736 0.582703 0.197754
0.430939 0.583527 0.200073
0.461700 0.584198 0.202362
0.489563 0.584869 0.204803
0.515533 0.585480 0.207092
0.539490 0.586090 0.209717
0.563019 0.586578 0.212433
0.586304 0.587128 0.215027
0.587646 0.565338 0.217651
0.602478 0.555847 0.220490
0.626099 0.553741 0.223389
0.651031 0.551666 0.226227
0.677307 0.549500 0.230225
0.704895 0.547363 0.234589
0.733154 0.545319 0.238678
0.761688 0.543152 0.242798
0.789825 0.540802 0.246094
0.817596 0.538666 0.249451
0.844788 0.536469 0.253021
0.871521 0.534241 0.256683
0.897705 0.532257 0.260468
0.923553 0.530121 0.264191
0.949097 0.528046 0.267975
0.974579 0.526062 0.272034
0.082367 0.589142 0.148438
0.114624 0.592529 0.154053
0.145416 0.596222 0.159729
0.195404 0.599091 0.179199
0.249939 0.601288 0.199310
0.289703 0.602814 0.202148
0.327728 0.604187 0.204895
0.364746 0.605225 0.207397
0.399872 0.606140 0.209839
0.432739 0.606995 0.212219
0.463226 0.607788 0.214355
0.491180 0.608490 0.216919
0.516693 0.609161 0.219482
0.540924 0.609833 0.221649
0.564270 0.610382 0.224152
0.587677 0.610931 0.226776
0.611359 0.611450 0.229614
0.612000 0.588379 0.232544
0.628326 0.579163 0.235016
0.653198 0.576935 0.237732
0.679443 0.574615 0.240356
0.706909 0.572540 0.244781
0.735107 0.570312 0.248779
0.763397 0.568115 0.252960
0.791443 0.566132 0.256775
0.819092 0.563843 0.260315
0.846161 0.561737 0.263397
0.872711 0.559540 0.266785
0.898712 0.557526 0.270355
0.924438 0.555481 0.273865
0.949860 0.553497 0.277588
0.975250 0.551392 0.281342
0.089172 0.611786 0.158325
0.120270 0.615448 0.164642
0.150482 0.619324 0.170288
0.193146 0.622467 0.183502
0.253143 0.625031 0.211426
0.292145 0.626831 0.214417
0.330444 0.628204 0.217010
0.367035 0.629425 0.219696
0.402161 0.630432 0.221954
0.434631 0.631439 0.224304
0.464905 0.632294 0.226593
0.492493 0.633087 0.228973
0.518311 0.633789 0.231201
0.542236 0.634460 0.233429
0.565613 0.635101 0.235962
0.588959 0.635712 0.238403
0.612640 0.636261 0.241302
0.636810 0.636536 0.243805
0.637299 0.612122 0.246613
0.655365 0.603394 0.249207
0.681488 0.601105 0.251678
0.708984 0.598633 0.254669
0.736938 0.596527 0.258820
0.765167 0.594238 0.262909
0.793060 0.592133 0.266815
0.820496 0.590149 0.270691
0.847412 0.588104 0.274231
0.873810 0.585968 0.277435
0.899750 0.583954 0.280579
0.925323 0.581909 0.283905
0.950745 0.579803 0.287262
0.976013 0.577942 0.290924
0.095856 0.635254 0.168274
0.126068 0.639313 0.174683
0.154877 0.643707 0.180786
0.189209 0.647095 0.187073
0.254944 0.649811 0.221252
0.295044 0.651825 0.226257
0.333099 0.653290 0.229004
0.369354 0.654724 0.231689
0.404327 0.655762 0.233856
0.436523 0.656952 0.236206
0.466766 0.657898 0.238373
0.494232 0.658661 0.240875
0.519623 0.659515 0.243103
0.543671 0.660248 0.245392
0.567047 0.660950 0.247772
0.590302 0.661591 0.250336
0.614166 0.662170 0.252625
0.638611 0.662781 0.255188
0.663361 0.662659 0.257812
0.663879 0.636993 0.260590
0.683716 0.628754 0.263031
0.711060 0.626251 0.265686
0.739014 0.623718 0.268188
0.767059 0.621613 0.272644
0.794800 0.619507 0.276764
0.821960 0.617462 0.280548
0.848816 0.615509 0.284363
0.875122 0.613586 0.287842
0.900940 0.611542 0.290894
0.926361 0.609619 0.294098
0.951569 0.607574 0.297424
0.976715 0.605621 0.300537
0.102478 0.659790 0.177734
0.131165 0.664398 0.184540
0.159882 0.668915 0.190826
0.191132 0.672668 0.195374
0.251495 0.675598 0.224762
0.298492 0.677795 0.237671
0.335693 0.679688 0.240753
0.371765 0.681122 0.243286
0.406403 0.682373 0.245758
0.438599 0.683533 0.248077
0.468567 0.684540 0.250275
0.495880 0.685486 0.252563
0.521332 0.686310 0.254761
0.545105 0.687195 0.257050
0.568542 0.687927 0.259308
0.591888 0.688660 0.261536
0.615601 0.689301 0.264160
0.640076 0.689880 0.266571
0.665558 0.690552 0.269073
0.691071 0.689850 0.271820
0.691711 0.663177 0.274323
0.713257 0.655182 0.276733
0.741150 0.652618 0.279236
0.769104 0.650146 0.281860
0.796570 0.647980 0.286011
0.823700 0.645966 0.290009
0.850342 0.644135 0.293945
0.876373 0.642242 0.297638
0.902039 0.640411 0.301331
0.927307 0.638428 0.304230
0.952515 0.636353 0.307281
0.977539 0.634430 0.310516
0.108215 0.685669 0.187592
0.137115 0.690338 0.194122
0.164673 0.695374 0.200684
0.195679 0.699249 0.205261
0.247589 0.702484 0.228119
0.301697 0.704987 0.249176
0.338593 0.706970 0.252197
0.374512 0.708496 0.254913
0.408691 0.709839 0.257355
0.440704 0.711151 0.259583
0.470612 0.712189 0.261780
0.497650 0.713257 0.264038
0.522888 0.714142 0.266266
0.546692 0.715027 0.268463
0.569977 0.715851 0.270630
0.593384 0.716553 0.272858
0.617279 0.717285 0.275421
0.641632 0.717926 0.277710
0.667206 0.718597 0.280121
0.693970 0.719238 0.282654
0.719788 0.717560 0.285217
0.720306 0.689484 0.287872
0.743134 0.682404 0.290100
0.771027 0.679932 0.292633
0.798431 0.677521 0.295074
0.825348 0.675446 0.299225
0.851807 0.673492 0.303040
0.877747 0.671509 0.306946
0.903229 0.669739 0.310699
0.928467 0.667969 0.314178
0.953491 0.666168 0.317322
0.978363 0.664124 0.320343
0.115753 0.711884 0.196381
0.142975 0.717102 0.203400
0.169312 0.722473 0.210632
0.199432 0.726624 0.215393
0.245300 0.729858 0.231934
0.304840 0.732605 0.260468
0.341553 0.734619 0.263580
0.377289 0.736267 0.266357
0.411041 0.737793 0.268829
0.442993 0.739136 0.271179
0.472473 0.740265 0.273285
0.499329 0.741333 0.275543
0.524658 0.742279 0.277527
0.548279 0.743225 0.279785
0.571625 0.743958 0.281982
0.595062 0.744720 0.284119
0.618713 0.745514 0.286255
0.643341 0.746216 0.288757
0.668854 0.746948 0.291199
0.695679 0.747559 0.293457
0.723755 0.748169 0.295898
0.748718 0.744537 0.298370
0.749298 0.716248 0.301056
0.772888 0.709869 0.303467
0.800262 0.707428 0.305817
0.827118 0.705139 0.308258
0.853363 0.703064 0.311951
0.879089 0.701172 0.315918
0.904602 0.699280 0.319763
0.929535 0.697601 0.323303
0.954407 0.695892 0.326752
0.979279 0.693939 0.330322
0.122040 0.738831 0.205475
0.148102 0.744293 0.212860
0.174316 0.749725 0.219818
0.204041 0.753876 0.224701
0.241760 0.757416 0.235260
0.305054 0.760132 0.268066
0.344696 0.762299 0.274567
0.380127 0.764038 0.277344
0.413483 0.765656 0.279968
0.445251 0.766907 0.282166
0.474487 0.768036 0.284363
0.501282 0.769196 0.286621
0.526337 0.770142 0.288849
0.550018 0.771149 0.290894
0.573364 0.771912 0.292969
0.596649 0.772736 0.295105
0.620331 0.773529 0.297424
0.645020 0.774200 0.299652
0.670502 0.774902 0.301880
0.697327 0.775574 0.304199
0.725464 0.776154 0.306549
0.754578 0.776733 0.309174
0.777405 0.770813 0.311554
0.777863 0.742432 0.314117
0.802032 0.737152 0.316254
0.828705 0.734833 0.318695
0.854858 0.732483 0.321075
0.880493 0.730347 0.324432
0.905762 0.728546 0.328339
0.930664 0.726776 0.332001
0.955414 0.724945 0.335571
0.980072 0.723267 0.339111
0.128387 0.765656 0.214569
0.153900 0.771210 0.222015
0.179779 0.776459 0.229004
0.208160 0.780914 0.234436
0.239746 0.784363 0.239075
0.301178 0.787231 0.271057
0.347809 0.789520 0.285675
0.382782 0.791260 0.288513
0.416229 0.792847 0.291016
0.447327 0.794250 0.293365
0.476410 0.795410 0.295563
0.503052 0.796600 0.297699
0.527954 0.797546 0.299713
0.551514 0.798462 0.301910
0.574799 0.799347 0.304047
0.598114 0.800171 0.306091
0.622040 0.800934 0.308197
0.646576 0.801666 0.310364
0.672241 0.802307 0.312653
0.699066 0.803009 0.314789
0.727234 0.803619 0.317017
0.756317 0.804260 0.319519
0.785797 0.804779 0.321808
0.805298 0.795563 0.324371
0.805817 0.768036 0.326843
0.830383 0.763824 0.329163
0.856445 0.761444 0.331360
0.881989 0.759247 0.333679
0.907043 0.757202 0.336700
0.931763 0.755371 0.340515
0.956421 0.753571 0.344116
0.980927 0.751831 0.347717
0.134216 0.792145 0.223358
0.159790 0.797455 0.230774
0.184906 0.802887 0.237854
0.212921 0.807251 0.243683
0.243103 0.810730 0.247681
0.298584 0.813629 0.274628
0.350952 0.815979 0.296539
0.385406 0.817902 0.299164
0.418701 0.819397 0.301636
0.449677 0.820831 0.304077
0.478271 0.822113 0.306427
0.505005 0.823242 0.308624
0.529602 0.824280 0.310669
0.553101 0.825226 0.312775
0.576263 0.826111 0.314697
0.599670 0.826904 0.316925
0.623535 0.827637 0.318848
0.648132 0.828369 0.321014
0.673828 0.829102 0.323181
0.700714 0.829773 0.325378
0.728943 0.830353 0.327545
0.758026 0.830963 0.329803
0.787537 0.831543 0.332123
0.816650 0.832092 0.334503
0.832611 0.820038 0.336884
0.833099 0.793060 0.339294
0.857910 0.789825 0.341522
0.883331 0.787415 0.343689
0.908234 0.785339 0.345825
0.932983 0.783325 0.348602
0.957397 0.781494 0.352478
0.981812 0.779541 0.356018
0.141266 0.817657 0.231934
0.165588 0.823181 0.239594
0.189697 0.828766 0.246948
0.217377 0.832977 0.252686
0.247070 0.836456 0.256989
0.296082 0.839386 0.278137
0.354095 0.841858 0.307098
0.388580 0.843719 0.309692
0.421173 0.845398 0.312378
0.451965 0.846741 0.314850
0.480530 0.847961 0.317078
0.506714 0.849152 0.319275
0.531189 0.850250 0.321350
0.554718 0.851166 0.323486
0.577881 0.851990 0.325348
0.601318 0.852905 0.327423
0.625153 0.853607 0.329376
0.649719 0.854370 0.331482
0.675415 0.855072 0.333527
0.702362 0.855743 0.335663
0.730743 0.856323 0.337799
0.759857 0.856934 0.339935
