bin/data/LUT/Oil.CUBE
TITLE "Oil" by Emma Souannhaphanh
LUT_3D_SIZE 32
0.000000 0.000000 0.000000
0.000000 0.000000 0.000000
0.000000 0.000000 0.000000
0.000000 0.000000 0.000000
0.000000 0.000000 0.000000
0.000000 0.000000 0.000000
0.000000 0.000000 0.000000
0.000000 0.018311 0.018311
0.000000 0.055542 0.055542
0.000000 0.106567 0.106567
0.000000 0.173065 0.173065
0.000000 0.256927 0.256927
0.000000 0.354675 0.354675
0.000000 0.440857 0.440857
0.000000 0.484680 0.484680
0.000000 0.475067 0.475067
0.000000 0.426727 0.426727
0.000000 0.356689 0.356689
0.000000 0.281586 0.281586
0.000366 0.218292 0.218292
0.008728 0.183594 0.183594
0.018311 0.194275 0.194275
0.029297 0.267151 0.267151
0.041687 0.415863 0.415863
0.055542 0.572052 0.572052
0.070892 0.661743 0.661743
0.087860 0.694733 0.694733
0.106567 0.684326 0.684326
0.126892 0.644043 0.644043
0.149048 0.587494 0.587494
0.173065 0.527985 0.527985
0.199097 0.479065 0.479065
0.000000 0.000000 0.000000
0.000000 0.000000 0.000000
0.000000 0.000000 0.000000
0.000000 0.000000 0.000000
0.000000 0.000000 0.000000
0.000000 0.000000 0.000000
0.000000 0.000000 0.000000
0.000000 0.000366 0.018311
0.000000 0.029327 0.055542
0.000000 0.070953 0.106567
0.000000 0.126831 0.173065
0.000000 0.199097 0.256927
0.000000 0.288940 0.354675
0.000000 0.386322 0.440857
0.000000 0.461517 0.484680
0.000000 0.486816 0.475067
0.000000 0.462402 0.426727
0.000000 0.405060 0.356689
0.000000 0.331543 0.281586
0.000366 0.258453 0.218292
0.008728 0.202759 0.183594
0.018311 0.181305 0.194275
0.029297 0.210876 0.267151
0.041687 0.308258 0.415863
0.055542 0.473846 0.572052
0.070892 0.608948 0.661743
0.087860 0.678314 0.694733
0.106567 0.695404 0.684326
0.126892 0.673523 0.644043
0.149048 0.626373 0.587494
0.173065 0.567444 0.527985
0.199097 0.509796 0.479065
0.000000 0.000000 0.000000
0.000000 0.000000 0.000000
0.000000 0.000000 0.000000
0.000000 0.000000 0.000000
0.000000 0.000000 0.000000
0.000000 0.000000 0.000000
0.000000 0.000000 0.000000
0.000000 0.000000 0.018311
0.000000 0.008728 0.055542
0.000000 0.041687 0.106567
0.000000 0.087860 0.173065
0.000000 0.149048 0.256927
0.000000 0.226868 0.354675
0.000000 0.321869 0.440857
0.000000 0.415253 0.484680
0.000000 0.476440 0.475067
0.000000 0.483368 0.426727
0.000000 0.446106 0.356689
0.000000 0.381409 0.281586
0.000366 0.306122 0.218292
0.008728 0.237091 0.183594
0.018311 0.190979 0.194275
0.029297 0.184692 0.267151
0.041687 0.234955 0.415863
0.055542 0.358765 0.572052
0.070892 0.526855 0.661743
0.087860 0.638824 0.694733
0.106567 0.689240 0.684326
0.126892 0.691803 0.644043
0.149048 0.659912 0.587494
0.173065 0.607361 0.527985
0.199097 0.547211 0.479065
0.000000 0.000000 0.000000
0.000000 0.000000 0.000000
0.000000 0.000000 0.000000
0.000000 0.000000 0.000000
0.000000 0.000000 0.000000
0.000000 0.000000 0.000000
0.000000 0.000000 0.000000
0.000000 0.000000 0.018311
0.000000 0.000000 0.055542
0.000000 0.018372 0.106567
0.000000 0.055481 0.173065
0.000000 0.106476 0.256927
0.000000 0.173157 0.354675
0.000000 0.257050 0.440857
0.000000 0.354553 0.484680
0.000000 0.440857 0.475067
0.000000 0.484711 0.426727
0.000000 0.475067 0.356689
0.000000 0.426788 0.281586
0.000366 0.356689 0.218292
0.008728 0.281494 0.183594
0.018311 0.218292 0.194275
0.029297 0.183624 0.267151
0.041687 0.194336 0.415863
0.055542 0.267151 0.572052
0.070892 0.415405 0.661743
0.087860 0.571747 0.694733
0.106567 0.661835 0.684326
0.126892 0.694733 0.644043
0.149048 0.684418 0.587494
0.173065 0.644196 0.527985
0.199097 0.587341 0.479065
0.000000 0.000000 0.000000
0.000000 0.000000 0.000000
0.000000 0.000000 0.000000
0.000000 0.000000 0.000000
0.000000 0.000000 0.000000
0.000000 0.000000 0.000000
0.000000 0.000000 0.000000
0.000000 0.000000 0.018311
0.000000 0.000000 0.055542
0.000000 0.000366 0.106567
0.000000 0.029327 0.173065
0.000000 0.070892 0.256927
0.000000 0.126984 0.354675
0.000000 0.199097 0.440857
0.000000 0.288940 0.484680
0.000000 0.386200 0.475067
0.000000 0.461670 0.426727
0.000000 0.486816 0.356689
0.000000 0.462402 0.281586
0.000366 0.404877 0.218292
0.008728 0.331329 0.183594
0.018311 0.258392 0.194275
0.029297 0.202789 0.267151
0.041687 0.181305 0.415863
0.055542 0.210785 0.572052
0.070892 0.308258 0.661743
0.087860 0.474060 0.694733
0.106567 0.608948 0.684326
0.126892 0.678436 0.644043
0.149048 0.695404 0.587494
0.173065 0.673584 0.527985
0.199097 0.626495 0.479065
0.000000 0.000000 0.000000
0.000000 0.000000 0.000000
0.000000 0.000000 0.000000
0.000000 0.000000 0.000000
0.000000 0.000000 0.000000
0.000000 0.000000 0.000000
0.000000 0.000000 0.000000
0.000000 0.000000 0.018311
0.000000 0.000000 0.055542
0.000000 0.000000 0.106567
0.000000 0.008728 0.173065
0.000000 0.041626 0.256927
0.000000 0.087860 0.354675
0.000000 0.149139 0.440857
0.000000 0.226868 0.484680
0.000000 0.321869 0.475067
0.000000 0.415375 0.426727
0.000000 0.476440 0.356689
0.000000 0.483398 0.281586
0.000366 0.446106 0.218292
0.008728 0.381409 0.183594
0.018311 0.306122 0.194275
0.029297 0.237091 0.267151
0.041687 0.190918 0.415863
0.055542 0.184692 0.572052
0.070892 0.234955 0.661743
0.087860 0.358154 0.694733
0.106567 0.527435 0.684326
0.126892 0.639008 0.644043
0.149048 0.689209 0.587494
0.173065 0.691803 0.527985
0.199097 0.660065 0.479065
0.000000 0.000000 0.000000
0.000000 0.000000 0.000000
0.000000 0.000000 0.000000
0.000000 0.000000 0.000000
0.000000 0.000000 0.000000
0.000000 0.000000 0.000000
0.000000 0.000000 0.000000
0.000000 0.000000 0.018311
0.000000 0.000000 0.055542
0.000000 0.000000 0.106567
0.000000 0.000000 0.173065
0.000000 0.018311 0.256927
0.000000 0.055542 0.354675
0.000000 0.106628 0.440857
0.000000 0.173157 0.484680
0.000000 0.257050 0.475067
0.000000 0.354797 0.426727
0.000000 0.440765 0.356689
0.000000 0.484711 0.281586
0.000366 0.474976 0.218292
0.008728 0.426788 0.183594
0.018311 0.356598 0.194275
0.029297 0.281586 0.267151
0.041687 0.218231 0.415863
0.055542 0.183594 0.572052
0.070892 0.194275 0.661743
0.087860 0.267273 0.694733
0.106567 0.416077 0.684326
0.126892 0.571899 0.644043
0.149048 0.661896 0.587494
0.173065 0.694733 0.527985
0.199097 0.684387 0.479065
0.018311 0.000000 0.018311
0.000366 0.000000 0.018311
0.000000 0.000000 0.018311
0.000000 0.000000 0.018311
0.000000 0.000000 0.018311
0.000000 0.000000 0.018311
0.000000 0.000000 0.018311
0.000000 0.000000 0.018311
0.000000 0.000000 0.055542
0.000000 0.000000 0.106567
0.000000 0.000000 0.173065
0.000000 0.000366 0.256927
0.000000 0.029327 0.354675
0.000000 0.070831 0.440857
0.000000 0.126892 0.484680
0.000000 0.199097 0.475067
0.000000 0.288940 0.426727
0.000000 0.386414 0.356689
0.000000 0.461609 0.281586
0.000366 0.486816 0.218292
0.008728 0.462433 0.183594
0.018311 0.404968 0.194275
0.029297 0.331329 0.267151
0.041687 0.258453 0.415863
0.055542 0.202789 0.572052
0.070892 0.181305 0.661743
0.087860 0.210724 0.694733
0.106567 0.308105 0.684326
0.126892 0.474060 0.644043
0.149048 0.608826 0.587494
0.173065 0.678314 0.527985
0.199097 0.695404 0.479065
0.055542 0.000000 0.055542
0.029327 0.000000 0.055542
0.008728 0.000000 0.055542
0.000000 0.000000 0.055542
0.000000 0.000000 0.055542
0.000000 0.000000 0.055542
0.000000 0.000000 0.055542
0.000000 0.000000 0.055542
0.000000 0.000000 0.055542
0.000000 0.000000 0.106567
0.000000 0.000000 0.173065
0.000000 0.000000 0.256927
0.000000 0.008698 0.354675
0.000000 0.041626 0.440857
0.000000 0.087799 0.484680
0.000000 0.148987 0.475067
0.000000 0.227112 0.426727
0.000000 0.321991 0.356689
0.000000 0.415466 0.281586
0.000366 0.476440 0.218292
0.008728 0.483337 0.183594
0.018311 0.446045 0.194275
0.029297 0.381317 0.267151
0.041687 0.306213 0.415863
0.055542 0.236938 0.572052
0.070892 0.191010 0.661743
0.087860 0.184692 0.694733
0.106567 0.234833 0.684326
0.126892 0.358765 0.644043
0.149048 0.527039 0.587494
0.173065 0.638916 0.527985
0.199097 0.689209 0.479065
0.106567 0.000000 0.106567
0.070953 0.000000 0.106567
0.041687 0.000000 0.106567
0.018372 0.000000 0.106567
0.000366 0.000000 0.106567
0.000000 0.000000 0.106567
0.000000 0.000000 0.106567
0.000000 0.000000 0.106567
0.000000 0.000000 0.106567
0.000000 0.000000 0.106567
0.000000 0.000000 0.173065
0.000000 0.000000 0.256927
0.000000 0.000000 0.354675
0.000000 0.018311 0.440857
0.000000 0.055542 0.484680
0.000000 0.106415 0.475067
0.000000 0.173157 0.426727
0.000000 0.257050 0.356689
0.000000 0.354675 0.281586
0.000366 0.440948 0.218292
0.008728 0.484741 0.183594
0.018311 0.475037 0.194275
0.029297 0.426880 0.267151
0.041687 0.356689 0.415863
0.055542 0.281586 0.572052
0.070892 0.218414 0.661743
0.087860 0.183624 0.694733
0.106567 0.194336 0.684326
0.126892 0.266998 0.644043
0.149048 0.415863 0.587494
0.173065 0.571747 0.527985
0.199097 0.661835 0.479065
0.173065 0.000000 0.173065
0.126831 0.000000 0.173065
0.087860 0.000000 0.173065
0.055481 0.000000 0.173065
0.029327 0.000000 0.173065
0.008728 0.000000 0.173065
0.000000 0.000000 0.173065
0.000000 0.000000 0.173065
0.000000 0.000000 0.173065
0.000000 0.000000 0.173065
0.000000 0.000000 0.173065
0.000000 0.000000 0.256927
0.000000 0.000000 0.354675
0.000000 0.000366 0.440857
0.000000 0.029236 0.484680
0.000000 0.070831 0.475067
0.000000 0.126892 0.426727
0.000000 0.199188 0.356689
0.000000 0.289062 0.281586
0.000366 0.386200 0.218292
0.008728 0.461670 0.183594
0.018311 0.486816 0.194275
0.029297 0.462433 0.267151
0.041687 0.405060 0.415863
0.055542 0.331421 0.572052
0.070892 0.258301 0.661743
0.087860 0.202698 0.694733
0.106567 0.181305 0.684326
0.126892 0.210785 0.644043
0.149048 0.308258 0.587494
0.173065 0.474274 0.527985
0.199097 0.609222 0.479065
0.256927 0.000000 0.256927
0.199097 0.000000 0.256927
0.149048 0.000000 0.256927
0.106476 0.000000 0.256927
0.070892 0.000000 0.256927
0.041626 0.000000 0.256927
0.018311 0.000000 0.256927
0.000366 0.000000 0.256927
0.000000 0.000000 0.256927
0.000000 0.000000 0.256927
0.000000 0.000000 0.256927
0.000000 0.000000 0.256927
0.000000 0.000000 0.354675
0.000000 0.000000 0.440857
0.000000 0.008728 0.484680
0.000000 0.041626 0.475067
0.000000 0.087921 0.426727
0.000000 0.149139 0.356689
0.000000 0.226990 0.281586
0.000366 0.321991 0.218292
0.008728 0.415253 0.183594
0.018311 0.476532 0.194275
0.029297 0.483398 0.267151
0.041687 0.446106 0.415863
0.055542 0.381317 0.572052
0.070892 0.306122 0.661743
0.087860 0.237091 0.694733
0.106567 0.191010 0.684326
0.126892 0.184692 0.644043
0.149048 0.234741 0.587494
0.173065 0.358368 0.527985
0.199097 0.527435 0.479065
0.354675 0.000000 0.354675
0.288940 0.000000 0.354675
0.226868 0.000000 0.354675
0.173157 0.000000 0.354675
0.126984 0.000000 0.354675
0.087860 0.000000 0.354675
0.055542 0.000000 0.354675
0.029327 0.000000 0.354675
0.008698 0.000000 0.354675
0.000000 0.000000 0.354675
0.000000 0.000000 0.354675
0.000000 0.000000 0.354675
0.000000 0.000000 0.354675
0.000000 0.000000 0.440857
0.000000 0.000000 0.484680
0.000000 0.018280 0.475067
0.000000 0.055542 0.426727
0.000000 0.106567 0.356689
0.000000 0.173065 0.281586
0.000366 0.257050 0.218292
0.008728 0.354919 0.183594
0.018311 0.440948 0.194275
0.029297 0.484711 0.267151
0.041687 0.475037 0.415863
0.055542 0.426727 0.572052
0.070892 0.356689 0.661743
0.087860 0.281494 0.694733
0.106567 0.218231 0.684326
0.126892 0.183594 0.644043
0.149048 0.194214 0.587494
0.173065 0.267273 0.527985
0.199097 0.415405 0.479065
0.440857 0.000000 0.440857
0.386322 0.000000 0.440857
0.321869 0.000000 0.440857
0.257050 0.000000 0.440857
0.199097 0.000000 0.440857
0.149139 0.000000 0.440857
0.106628 0.000000 0.440857
0.070831 0.000000 0.440857
0.041626 0.000000 0.440857
0.018311 0.000000 0.440857
0.000366 0.000000 0.440857
0.000000 0.000000 0.440857
0.000000 0.000000 0.440857
0.000000 0.000000 0.440857
0.000000 0.000000 0.484680
0.000000 0.000366 0.475067
0.000000 0.029327 0.426727
0.000000 0.070953 0.356689
0.000000 0.126892 0.281586
0.000366 0.199188 0.218292
0.008728 0.289062 0.183594
0.018311 0.386078 0.194275
0.029297 0.461670 0.267151
0.041687 0.486816 0.415863
0.055542 0.462433 0.572052
0.070892 0.405060 0.661743
0.087860 0.331421 0.694733
0.106567 0.258301 0.684326
0.126892 0.202789 0.644043
0.149048 0.181305 0.587494
0.173065 0.210785 0.527985
0.199097 0.307922 0.479065
0.484680 0.000000 0.484680
0.461517 0.000000 0.484680
0.415253 0.000000 0.484680
0.354553 0.000000 0.484680
0.288940 0.000000 0.484680
0.226868 0.000000 0.484680
0.173157 0.000000 0.484680
0.126892 0.000000 0.484680
0.087799 0.000000 0.484680
0.055542 0.000000 0.484680
0.029236 0.000000 0.484680
0.008728 0.000000 0.484680
0.000000 0.000000 0.484680
0.000000 0.000000 0.484680
0.000000 0.000000 0.484680
0.000000 0.000000 0.475067
0.000000 0.008728 0.426727
0.000000 0.041687 0.356689
0.000000 0.087860 0.281586
0.000366 0.149139 0.218292
0.008728 0.227112 0.183594
0.018311 0.321747 0.194275
0.029297 0.415466 0.267151
0.041687 0.476501 0.415863
0.055542 0.483368 0.572052
0.070892 0.446167 0.661743
0.087860 0.381317 0.694733
0.106567 0.306213 0.684326
0.126892 0.237030 0.644043
0.149048 0.190948 0.587494
0.173065 0.184692 0.527985
0.199097 0.234833 0.479065
0.475067 0.000000 0.475067
0.486816 0.000000 0.475067
0.476440 0.000000 0.475067
0.440857 0.000000 0.475067
0.386200 0.000000 0.475067
0.321869 0.000000 0.475067
0.257050 0.000000 0.475067
0.199097 0.000000 0.475067
0.148987 0.000000 0.475067
0.106415 0.000000 0.475067
0.070831 0.000000 0.475067
0.041626 0.000000 0.475067
0.018280 0.000000 0.475067
0.000366 0.000000 0.475067
0.000000 0.000000 0.475067
0.000000 0.000000 0.475067
0.000000 0.000000 0.426727
0.000000 0.018311 0.356689
0.000000 0.055542 0.281586
0.000366 0.106476 0.218292
0.008728 0.173157 0.183594
0.018311 0.256805 0.194275
0.029297 0.354553 0.267151
0.041687 0.440948 0.415863
0.055542 0.484711 0.572052
0.070892 0.475098 0.661743
0.087860 0.426788 0.694733
0.106567 0.356506 0.684326
0.126892 0.281494 0.644043
0.149048 0.218414 0.587494
0.173065 0.183624 0.527985
0.199097 0.194275 0.479065
0.426727 0.000000 0.426727
0.462402 0.000000 0.426727
0.483368 0.000000 0.426727
0.484711 0.000000 0.426727
0.461670 0.000000 0.426727
0.415375 0.000000 0.426727
0.354797 0.000000 0.426727
0.288940 0.000000 0.426727
0.227112 0.000000 0.426727
0.173157 0.000000 0.426727
0.126892 0.000000 0.426727
0.087921 0.000000 0.426727
0.055542 0.000000 0.426727
0.029327 0.000000 0.426727
0.008728 0.000000 0.426727
0.000000 0.000000 0.426727
0.000000 0.000000 0.426727
0.000000 0.000366 0.356689
0.000000 0.029297 0.281586
0.000366 0.070953 0.218292
0.008728 0.126892 0.183594
0.018311 0.199005 0.194275
0.029297 0.288818 0.267151
0.041687 0.386414 0.415863
0.055542 0.461517 0.572052
0.070892 0.486816 0.661743
0.087860 0.462494 0.694733
0.106567 0.404877 0.684326
0.126892 0.331543 0.644043
0.149048 0.258453 0.587494
0.173065 0.202850 0.527985
0.199097 0.181305 0.479065
0.356689 0.000000 0.356689
0.405060 0.000000 0.356689
0.446106 0.000000 0.356689
0.475067 0.000000 0.356689
0.486816 0.000000 0.356689
0.476440 0.000000 0.356689
0.440765 0.000000 0.356689
0.386414 0.000000 0.356689
0.321991 0.000000 0.356689
0.257050 0.000000 0.356689
0.199188 0.000000 0.356689
0.149139 0.000000 0.356689
0.106567 0.000000 0.356689
0.070953 0.000000 0.356689
0.041687 0.000000 0.356689
0.018311 0.000000 0.356689
0.000366 0.000000 0.356689
0.000000 0.000000 0.356689
0.000000 0.008759 0.281586
0.000366 0.041687 0.218292
0.008728 0.087860 0.183594
0.018311 0.149048 0.194275
0.029297 0.226990 0.267151
0.041687 0.321747 0.415863
0.055542 0.415466 0.572052
0.070892 0.476501 0.661743
0.087860 0.483398 0.694733
0.106567 0.446106 0.684326
0.126892 0.381500 0.644043
0.149048 0.306122 0.587494
0.173065 0.237091 0.527985
0.199097 0.190948 0.479065
0.281586 0.000000 0.281586
0.331543 0.000000 0.281586
0.381409 0.000000 0.281586
0.426788 0.000000 0.281586
0.462402 0.000000 0.281586
0.483398 0.000000 0.281586
0.484711 0.000000 0.281586
0.461609 0.000000 0.281586
0.415466 0.000000 0.281586
0.354675 0.000000 0.281586
0.289062 0.000000 0.281586
0.226990 0.000000 0.281586
0.173065 0.000000 0.281586
0.126892 0.000000 0.281586
0.087860 0.000000 0.281586
0.055542 0.000000 0.281586
0.029297 0.000000 0.281586
0.008759 0.000000 0.281586
0.000000 0.000000 0.281586
0.000366 0.018402 0.218292
0.008728 0.055573 0.183594
0.018311 0.106476 0.194275
0.029297 0.173157 0.267151
0.041687 0.256805 0.415863
0.055542 0.354675 0.572052
0.070892 0.440857 0.661743
0.087860 0.484680 0.694733
0.106567 0.475067 0.684326
0.126892 0.426727 0.644043
0.149048 0.356598 0.587494
0.173065 0.281769 0.527985
0.199097 0.218231 0.479065
0.218292 0.000366 0.218292
0.258453 0.000366 0.218292
0.306122 0.000366 0.218292
0.356689 0.000366 0.218292
0.404877 0.000366 0.218292
0.446106 0.000366 0.218292
0.474976 0.000366 0.218292
0.486816 0.000366 0.218292
0.476440 0.000366 0.218292
0.440948 0.000366 0.218292
0.386200 0.000366 0.218292
0.321991 0.000366 0.218292
0.257050 0.000366 0.218292
0.199188 0.000366 0.218292
0.149139 0.000366 0.218292
0.106476 0.000366 0.218292
0.070953 0.000366 0.218292
0.041687 0.000366 0.218292
0.018402 0.000366 0.218292
0.000366 0.000366 0.218292
0.008728 0.029327 0.183594
0.018311 0.070892 0.194275
0.029297 0.126984 0.267151
0.041687 0.199005 0.415863
0.055542 0.288818 0.572052
0.070892 0.386200 0.661743
0.087860 0.461670 0.694733
0.106567 0.486816 0.684326
0.126892 0.462341 0.644043
0.149048 0.405121 0.587494
0.173065 0.331421 0.527985
0.199097 0.258545 0.479065
0.183594 0.008728 0.183594
0.202759 0.008728 0.183594
0.237091 0.008728 0.183594
0.281494 0.008728 0.183594
0.331329 0.008728 0.183594
0.381409 0.008728 0.183594
0.426788 0.008728 0.183594
0.462433 0.008728 0.183594
0.483337 0.008728 0.183594
0.484741 0.008728 0.183594
0.461670 0.008728 0.183594
0.415253 0.008728 0.183594
0.354919 0.008728 0.183594
0.289062 0.008728 0.183594
0.227112 0.008728 0.183594
0.173157 0.008728 0.183594
0.126892 0.008728 0.183594
0.087860 0.008728 0.183594
0.055573 0.008728 0.183594
0.029327 0.008728 0.183594
0.008728 0.008728 0.183594
0.018311 0.041626 0.194275
0.029297 0.087799 0.267151
0.041687 0.149048 0.415863
0.055542 0.227112 0.572052
0.070892 0.321747 0.661743
0.087860 0.415161 0.694733
0.106567 0.476501 0.684326
0.126892 0.483429 0.644043
0.149048 0.446167 0.587494
0.173065 0.381592 0.527985
0.199097 0.306305 0.479065
0.194275 0.018311 0.194275
0.181305 0.018311 0.194275
0.190979 0.018311 0.194275
0.218292 0.018311 0.194275
0.258392 0.018311 0.194275
0.306122 0.018311 0.194275
0.356598 0.018311 0.194275
0.404968 0.018311 0.194275
0.446045 0.018311 0.194275
0.475037 0.018311 0.194275
0.486816 0.018311 0.194275
0.476532 0.018311 0.194275
0.440948 0.018311 0.194275
0.386078 0.018311 0.194275
0.321747 0.018311 0.194275
0.256805 0.018311 0.194275
0.199005 0.018311 0.194275
0.149048 0.018311 0.194275
0.106476 0.018311 0.194275
0.070892 0.018311 0.194275
0.041626 0.018311 0.194275
0.018311 0.018311 0.194275
0.029297 0.055481 0.267151
0.041687 0.106567 0.415863
0.055542 0.173157 0.572052
0.070892 0.256805 0.661743
0.087860 0.354797 0.694733
0.106567 0.440765 0.684326
0.126892 0.484711 0.644043
0.149048 0.475067 0.587494
0.173065 0.426727 0.527985
0.199097 0.356812 0.479065
0.267151 0.029297 0.267151
0.210876 0.029297 0.267151
0.184692 0.029297 0.267151
0.183624 0.029297 0.267151
0.202789 0.029297 0.267151
0.237091 0.029297 0.267151
0.281586 0.029297 0.267151
0.331329 0.029297 0.267151
0.381317 0.029297 0.267151
0.426880 0.029297 0.267151
0.462433 0.029297 0.267151
0.483398 0.029297 0.267151
0.484711 0.029297 0.267151
0.461670 0.029297 0.267151
0.415466 0.029297 0.267151
0.354553 0.029297 0.267151
0.288818 0.029297 0.267151
0.226990 0.029297 0.267151
0.173157 0.029297 0.267151
0.126984 0.029297 0.267151
0.087799 0.029297 0.267151
0.055481 0.029297 0.267151
0.029297 0.029297 0.267151
0.041687 0.070892 0.415863
0.055542 0.126831 0.572052
0.070892 0.199188 0.661743
0.087860 0.288818 0.694733
0.106567 0.386078 0.684326
0.126892 0.461670 0.644043
0.149048 0.486816 0.587494
0.173065 0.462494 0.527985
0.199097 0.405060 0.479065
0.415863 0.041687 0.415863
0.308258 0.041687 0.415863
0.234955 0.041687 0.415863
0.194336 0.041687 0.415863
0.181305 0.041687 0.415863
0.190918 0.041687 0.415863
0.218231 0.041687 0.415863
0.258453 0.041687 0.415863
0.306213 0.041687 0.415863
0.356689 0.041687 0.415863
0.405060 0.041687 0.415863
0.446106 0.041687 0.415863
0.475037 0.041687 0.415863
0.486816 0.041687 0.415863
0.476501 0.041687 0.415863
0.440948 0.041687 0.415863
0.386414 0.041687 0.415863
0.321747 0.041687 0.415863
0.256805 0.041687 0.415863
0.199005 0.041687 0.415863
0.149048 0.041687 0.415863
0.106567 0.041687 0.415863
0.070892 0.041687 0.415863
0.041687 0.041687 0.415863
0.055542 0.087982 0.572052
0.070892 0.149139 0.661743
0.087860 0.227112 0.694733
0.106567 0.321991 0.684326
0.126892 0.415161 0.644043
0.149048 0.476349 0.587494
0.173065 0.483368 0.527985
0.199097 0.446106 0.479065
0.572052 0.055542 0.572052
0.473846 0.055542 0.572052
0.358765 0.055542 0.572052
0.267151 0.055542 0.572052
0.210785 0.055542 0.572052
0.184692 0.055542 0.572052
0.183594 0.055542 0.572052
0.202789 0.055542 0.572052
0.236938 0.055542 0.572052
0.281586 0.055542 0.572052
0.331421 0.055542 0.572052
0.381317 0.055542 0.572052
0.426727 0.055542 0.572052
0.462433 0.055542 0.572052
0.483368 0.055542 0.572052
0.484711 0.055542 0.572052
0.461517 0.055542 0.572052
0.415466 0.055542 0.572052
0.354675 0.055542 0.572052
0.288818 0.055542 0.572052
0.227112 0.055542 0.572052
0.173157 0.055542 0.572052
0.126831 0.055542 0.572052
0.087982 0.055542 0.572052
0.055542 0.055542 0.572052
0.070892 0.106567 0.661743
0.087860 0.173065 0.694733
0.106567 0.256927 0.684326
0.126892 0.354675 0.644043
0.149048 0.440765 0.587494
0.173065 0.484680 0.527985
0.199097 0.475037 0.479065
0.661743 0.070892 0.661743
0.608948 0.070892 0.661743
0.526855 0.070892 0.661743
0.415405 0.070892 0.661743
0.308258 0.070892 0.661743
0.234955 0.070892 0.661743
0.194275 0.070892 0.661743
0.181305 0.070892 0.661743
0.191010 0.070892 0.661743
0.218414 0.070892 0.661743
0.258301 0.070892 0.661743
0.306122 0.070892 0.661743
0.356689 0.070892 0.661743
0.405060 0.070892 0.661743
0.446167 0.070892 0.661743
0.475098 0.070892 0.661743
0.486816 0.070892 0.661743
0.476501 0.070892 0.661743
0.440857 0.070892 0.661743
0.386200 0.070892 0.661743
0.321747 0.070892 0.661743
0.256805 0.070892 0.661743
0.199188 0.070892 0.661743
0.149139 0.070892 0.661743
0.106567 0.070892 0.661743
0.070892 0.070892 0.661743
0.087860 0.126984 0.694733
0.106567 0.199005 0.684326
0.126892 0.288940 0.644043
0.149048 0.386200 0.587494
0.173065 0.461670 0.527985
0.199097 0.486816 0.479065
0.694733 0.087860 0.694733
0.678314 0.087860 0.694733
0.638824 0.087860 0.694733
0.571747 0.087860 0.694733
0.474060 0.087860 0.694733
0.358154 0.087860 0.694733
0.267273 0.087860 0.694733
0.210724 0.087860 0.694733
0.184692 0.087860 0.694733
0.183624 0.087860 0.694733
0.202698 0.087860 0.694733
0.237091 0.087860 0.694733
0.281494 0.087860 0.694733
0.331421 0.087860 0.694733
0.381317 0.087860 0.694733
0.426788 0.087860 0.694733
0.462494 0.087860 0.694733
0.483398 0.087860 0.694733
0.484680 0.087860 0.694733
0.461670 0.087860 0.694733
0.415161 0.087860 0.694733
0.354797 0.087860 0.694733
0.288818 0.087860 0.694733
0.227112 0.087860 0.694733
0.173065 0.087860 0.694733
0.126984 0.087860 0.694733
0.087860 0.087860 0.694733
0.106567 0.149231 0.684326
0.126892 0.227203 0.644043
0.149048 0.321991 0.587494
0.173065 0.415253 0.527985
0.199097 0.476532 0.479065
0.684326 0.106567 0.684326
0.695404 0.106567 0.684326
0.689240 0.106567 0.684326
0.661835 0.106567 0.684326
0.608948 0.106567 0.684326
0.527435 0.106567 0.684326
0.416077 0.106567 0.684326
0.308105 0.106567 0.684326
0.234833 0.106567 0.684326
0.194336 0.106567 0.684326
0.181305 0.106567 0.684326
0.191010 0.106567 0.684326
0.218231 0.106567 0.684326
0.258301 0.106567 0.684326
0.306213 0.106567 0.684326
0.356506 0.106567 0.684326
0.404877 0.106567 0.684326
0.446106 0.106567 0.684326
0.475067 0.106567 0.684326
0.486816 0.106567 0.684326
0.476501 0.106567 0.684326
0.440765 0.106567 0.684326
0.386078 0.106567 0.684326
