bin/data/LUT/Oil.CUBE
TITLE "Oil" by Emma Souannhaphanh
LUT_3D_SIZE 5
DOMAIN_MIN 0.000000 0.000000 0.000000
DOMAIN_MAX 0.903226 0.903226 0.903226
0.000000 0.000000 0.000000
0.000000 0.018311 0.018311
0.000000 0.484680 0.484680
0.018311 0.194275 0.194275
0.126892 0.644043 0.644043
0.018311 0.000000 0.018311
0.000000 0.000000 0.018311
0.000000 0.126892 0.484680
0.018311 0.404968 0.194275
0.126892 0.474060 0.644043
0.484680 0.000000 0.484680
0.126892 0.000000 0.484680
0.000000 0.000000 0.484680
0.018311 0.321747 0.194275
0.126892 0.237030 0.644043
0.194275 0.018311 0.194275
0.404968 0.018311 0.194275
0.321747 0.018311 0.194275
0.018311 0.018311 0.194275
0.126892 0.484711 0.644043
0.644043 0.126892 0.644043
0.474060 0.126892 0.644043
0.237030 0.126892 0.644043
0.484711 0.126892 0.644043
0.126892 0.126892 0.644043
0.018311 0.018311 0.000000
0.000000 0.018311 0.000000
0.000000 0.484680 0.126892
0.018311 0.194275 0.404968
0.126892 0.644043 0.474060
0.018311 0.000000 0.000000
0.126892 0.126892 0.126892
0.321747 0.405060 0.405060
0.484680 0.474060 0.474060
0.405060 0.509857 0.509857
0.484680 0.000000 0.126892
0.405060 0.321747 0.405060
0.321747 0.321747 0.405060
0.484680 0.237091 0.474060
0.405060 0.689209 0.509857
0.194275 0.018311 0.404968
0.474060 0.484680 0.474060
0.237091 0.484680 0.474060
0.484680 0.484680 0.474060
0.405060 0.194214 0.509857
0.644043 0.126892 0.474060
0.509857 0.405060 0.509857
0.689209 0.405060 0.509857
0.194214 0.405060 0.509857
0.405060 0.405060 0.509857
0.484680 0.484680 0.000000
0.126892 0.484680 0.000000
0.000000 0.484680 0.000000
0.018311 0.194275 0.321747
0.126892 0.644043 0.237030
0.484680 0.126892 0.000000
0.405060 0.405060 0.321747
0.321747 0.405060 0.321747
0.484680 0.474060 0.237091
0.405060 0.509857 0.689209
0.484680 0.000000 0.000000
0.405060 0.321747 0.321747
0.237091 0.237091 0.237091
0.194275 0.689209 0.689209
0.473846 0.447906 0.447906
0.194275 0.018311 0.321747
0.474060 0.484680 0.237091
0.689209 0.194275 0.689209
0.194275 0.194275 0.689209
0.473846 0.644104 0.447906
0.644043 0.126892 0.237030
0.509857 0.405060 0.689209
0.447906 0.473846 0.447906
0.644104 0.473846 0.447906
0.473846 0.473846 0.447906
0.194275 0.194275 0.018311
0.404968 0.194275 0.018311
0.321747 0.194275 0.018311
0.018311 0.194275 0.018311
0.126892 0.644043 0.484711
0.194275 0.404968 0.018311
0.474060 0.474060 0.484680
0.237091 0.474060 0.484680
0.484680 0.474060 0.484680
0.405060 0.509857 0.194214
0.194275 0.321747 0.018311
0.474060 0.237091 0.484680
0.689209 0.689209 0.194275
0.194275 0.689209 0.194275
0.473846 0.447906 0.644104
0.194275 0.018311 0.018311
0.474060 0.484680 0.484680
0.689209 0.194275 0.194275
0.644043 0.644043 0.644043
0.509857 0.503510 0.503510
0.644043 0.126892 0.484711
0.509857 0.405060 0.194214
0.447906 0.473846 0.644104
0.503510 0.509857 0.503510
0.509857 0.509857 0.503510
0.644043 0.644043 0.126892
0.474060 0.644043 0.126892
0.237030 0.644043 0.126892
0.484711 0.644043 0.126892
0.126892 0.644043 0.126892
0.644043 0.474060 0.126892
0.509857 0.509857 0.405060
0.689209 0.509857 0.405060
0.194214 0.509857 0.405060
0.405060 0.509857 0.405060
0.644043 0.237030 0.126892
0.509857 0.689209 0.405060
0.447906 0.447906 0.473846
0.644104 0.447906 0.473846
0.473846 0.447906 0.473846
0.644043 0.484711 0.126892
0.509857 0.194214 0.405060
0.447906 0.644104 0.473846
0.503510 0.503510 0.509857
0.509857 0.503510 0.509857
0.644043 0.126892 0.126892
0.509857 0.405060 0.405060
0.447906 0.473846 0.473846
0.503510 0.509857 0.509857
0.645966 0.645966 0.645966
