bin/data/LUT/Oil.CUBE
TITLE "Oil" by Emma Souannhaphanh
LUT_3D_SIZE 8
DOMAIN_MIN 0.000000 0.000000 0.000000
DOMAIN_MAX 0.903226 0.903226 0.903226
0.000000 0.000000 0.000000
0.000000 0.000000 0.000000
0.000000 0.055542 0.055542
0.000000 0.354675 0.354675
0.000000 0.426727 0.426727
0.008728 0.183594 0.183594
0.055542 0.572052 0.572052
0.126892 0.644043 0.644043
0.000000 0.000000 0.000000
0.000000 0.000000 0.000000
0.000000 0.000000 0.055542
0.000000 0.126984 0.354675
0.000000 0.461670 0.426727
0.008728 0.331329 0.183594
0.055542 0.210785 0.572052
0.126892 0.678436 0.644043
0.055542 0.000000 0.055542
0.000000 0.000000 0.055542
0.000000 0.000000 0.055542
0.000000 0.008698 0.354675
0.000000 0.227112 0.426727
0.008728 0.483337 0.183594
0.055542 0.236938 0.572052
0.126892 0.358765 0.644043
0.354675 0.000000 0.354675
0.126984 0.000000 0.354675
0.008698 0.000000 0.354675
0.000000 0.000000 0.354675
0.000000 0.055542 0.426727
0.008728 0.354919 0.183594
0.055542 0.426727 0.572052
0.126892 0.183594 0.644043
0.426727 0.000000 0.426727
0.461670 0.000000 0.426727
0.227112 0.000000 0.426727
0.055542 0.000000 0.426727
0.000000 0.000000 0.426727
0.008728 0.126892 0.183594
0.055542 0.461517 0.572052
0.126892 0.331543 0.644043
0.183594 0.008728 0.183594
0.331329 0.008728 0.183594
0.483337 0.008728 0.183594
0.354919 0.008728 0.183594
0.126892 0.008728 0.183594
0.008728 0.008728 0.183594
0.055542 0.227112 0.572052
0.126892 0.483429 0.644043
0.572052 0.055542 0.572052
0.210785 0.055542 0.572052
0.236938 0.055542 0.572052
0.426727 0.055542 0.572052
0.461517 0.055542 0.572052
0.227112 0.055542 0.572052
0.055542 0.055542 0.572052
0.126892 0.354675 0.644043
0.644043 0.126892 0.644043
0.678436 0.126892 0.644043
0.358765 0.126892 0.644043
0.183594 0.126892 0.644043
0.331543 0.126892 0.644043
0.483429 0.126892 0.644043
0.354675 0.126892 0.644043
0.126892 0.126892 0.644043
0.000000 0.000000 0.000000
0.000000 0.000000 0.000000
0.000000 0.055542 0.000000
0.000000 0.354675 0.126984
0.000000 0.426727 0.461670
0.008728 0.183594 0.331329
0.055542 0.572052 0.210785
0.126892 0.644043 0.678436
0.000000 0.000000 0.000000
0.000000 0.000000 0.000000
0.008728 0.126892 0.126892
0.055542 0.461609 0.461609
0.126892 0.331329 0.331329
0.226990 0.210876 0.210876
0.354675 0.678436 0.678436
0.461609 0.567291 0.567291
0.055542 0.000000 0.000000
0.126892 0.008728 0.126892
0.008728 0.008728 0.126892
0.055542 0.226990 0.461609
0.126892 0.483368 0.331329
0.226990 0.237030 0.210876
0.354675 0.358582 0.678436
0.461609 0.691803 0.567291
0.354675 0.000000 0.126984
0.461609 0.055542 0.461609
0.226990 0.055542 0.461609
0.055542 0.055542 0.461609
0.126892 0.354797 0.331329
0.226990 0.426727 0.210876
0.354675 0.183594 0.678436
0.461609 0.572235 0.567291
0.426727 0.000000 0.461670
0.331329 0.126892 0.331329
0.483368 0.126892 0.331329
0.354797 0.126892 0.331329
0.126892 0.126892 0.331329
0.226990 0.461609 0.210876
0.354675 0.331543 0.678436
0.461609 0.210876 0.567291
0.183594 0.008728 0.331329
0.210876 0.226990 0.210876
0.237030 0.226990 0.210876
0.426727 0.226990 0.210876
0.461609 0.226990 0.210876
0.226990 0.226990 0.210876
0.354675 0.483398 0.678436
0.461609 0.237183 0.567291
0.572052 0.055542 0.210785
0.678436 0.354675 0.678436
0.358582 0.354675 0.678436
0.183594 0.354675 0.678436
0.331543 0.354675 0.678436
0.483398 0.354675 0.678436
0.354675 0.354675 0.678436
0.461609 0.426727 0.567291
0.644043 0.126892 0.678436
0.567291 0.461609 0.567291
0.691803 0.461609 0.567291
0.572235 0.461609 0.567291
0.210876 0.461609 0.567291
0.237183 0.461609 0.567291
0.426727 0.461609 0.567291
0.461609 0.461609 0.567291
0.055542 0.055542 0.000000
0.000000 0.055542 0.000000
0.000000 0.055542 0.000000
0.000000 0.354675 0.008698
0.000000 0.426727 0.227112
0.008728 0.183594 0.483337
0.055542 0.572052 0.236938
0.126892 0.644043 0.358765
0.055542 0.000000 0.000000
0.126892 0.126892 0.008728
0.008728 0.126892 0.008728
0.055542 0.461609 0.226990
0.126892 0.331329 0.483368
0.226990 0.210876 0.237030
0.354675 0.678436 0.358582
0.461609 0.567291 0.691803
0.055542 0.000000 0.000000
0.126892 0.008728 0.008728
0.226990 0.226990 0.226990
0.354675 0.483398 0.483398
0.461609 0.237030 0.237030
0.483398 0.358582 0.358582
0.426788 0.691772 0.691772
0.331421 0.493347 0.493347
0.354675 0.000000 0.008698
0.461609 0.055542 0.226990
0.483398 0.354675 0.483398
0.354675 0.354675 0.483398
0.461609 0.426727 0.237030
0.483398 0.183594 0.358582
0.426788 0.572052 0.691772
0.331421 0.644043 0.493347
0.426727 0.000000 0.227112
0.331329 0.126892 0.483368
0.237030 0.461609 0.237030
0.426727 0.461609 0.237030
0.461609 0.461609 0.237030
0.483398 0.331421 0.358582
0.426788 0.210876 0.691772
0.331421 0.678314 0.493347
0.183594 0.008728 0.483337
0.210876 0.226990 0.237030
0.358582 0.483398 0.358582
0.183594 0.483398 0.358582
0.331421 0.483398 0.358582
0.483398 0.483398 0.358582
0.426788 0.237091 0.691772
0.331421 0.358154 0.493347
0.572052 0.055542 0.236938
0.678436 0.354675 0.358582
0.691772 0.426788 0.691772
0.572052 0.426788 0.691772
0.210876 0.426788 0.691772
0.237091 0.426788 0.691772
0.426788 0.426788 0.691772
0.331421 0.183624 0.493347
0.644043 0.126892 0.358765
0.567291 0.461609 0.691803
0.493347 0.331421 0.493347
0.644043 0.331421 0.493347
0.678314 0.331421 0.493347
0.358154 0.331421 0.493347
0.183624 0.331421 0.493347
0.331421 0.331421 0.493347
0.354675 0.354675 0.000000
0.126984 0.354675 0.000000
0.008698 0.354675 0.000000
0.000000 0.354675 0.000000
0.000000 0.426727 0.055542
0.008728 0.183594 0.354919
0.055542 0.572052 0.426727
0.126892 0.644043 0.183594
0.354675 0.126984 0.000000
0.461609 0.461609 0.055542
0.226990 0.461609 0.055542
0.055542 0.461609 0.055542
0.126892 0.331329 0.354797
0.226990 0.210876 0.426727
0.354675 0.678436 0.183594
0.461609 0.567291 0.572235
0.354675 0.008698 0.000000
0.461609 0.226990 0.055542
0.483398 0.483398 0.354675
0.354675 0.483398 0.354675
0.461609 0.237030 0.426727
0.483398 0.358582 0.183594
0.426788 0.691772 0.572052
0.331421 0.493347 0.644043
0.354675 0.000000 0.000000
0.461609 0.055542 0.055542
0.483398 0.354675 0.354675
0.426788 0.426788 0.426788
0.331421 0.183594 0.183594
0.237091 0.572052 0.572052
0.183624 0.644043 0.644043
0.210785 0.452454 0.452454
0.426727 0.000000 0.055542
0.331329 0.126892 0.354797
0.237030 0.461609 0.426727
0.183594 0.331421 0.183594
0.331421 0.331421 0.183594
0.237091 0.210876 0.572052
0.183624 0.678375 0.644043
0.210785 0.567291 0.452454
0.183594 0.008728 0.354919
0.210876 0.226990 0.426727
0.358582 0.483398 0.183594
0.572052 0.237091 0.572052
0.210876 0.237091 0.572052
0.237091 0.237091 0.572052
0.183624 0.358368 0.644043
0.210785 0.691772 0.452454
0.572052 0.055542 0.426727
0.678436 0.354675 0.183594
0.691772 0.426788 0.572052
0.644043 0.183624 0.644043
0.678375 0.183624 0.644043
0.358368 0.183624 0.644043
0.183624 0.183624 0.644043
0.210785 0.571899 0.452454
0.644043 0.126892 0.183594
0.567291 0.461609 0.572235
0.493347 0.331421 0.644043
0.452454 0.210785 0.452454
0.567291 0.210785 0.452454
0.691772 0.210785 0.452454
0.571899 0.210785 0.452454
0.210785 0.210785 0.452454
0.426727 0.426727 0.000000
0.461670 0.426727 0.000000
0.227112 0.426727 0.000000
0.055542 0.426727 0.000000
0.000000 0.426727 0.000000
0.008728 0.183594 0.126892
0.055542 0.572052 0.461517
0.126892 0.644043 0.331543
0.426727 0.461670 0.000000
0.331329 0.331329 0.126892
0.483368 0.331329 0.126892
0.354797 0.331329 0.126892
0.126892 0.331329 0.126892
0.226990 0.210876 0.461609
0.354675 0.678436 0.331543
0.461609 0.567291 0.210876
0.426727 0.227112 0.000000
0.331329 0.483368 0.126892
0.237030 0.237030 0.461609
0.426727 0.237030 0.461609
0.461609 0.237030 0.461609
0.483398 0.358582 0.331421
0.426788 0.691772 0.210876
0.331421 0.493347 0.678314
0.426727 0.055542 0.000000
0.331329 0.354797 0.126892
0.237030 0.426727 0.461609
0.183594 0.183594 0.331421
0.331421 0.183594 0.331421
0.237091 0.572052 0.210876
0.183624 0.644043 0.678375
0.210785 0.452454 0.567291
0.426727 0.000000 0.000000
0.331329 0.126892 0.126892
0.237030 0.461609 0.461609
0.183594 0.331421 0.331421
0.210876 0.210876 0.210876
0.358582 0.678436 0.678436
0.572052 0.567291 0.567291
0.678436 0.453064 0.453064
0.183594 0.008728 0.126892
0.210876 0.226990 0.461609
0.358582 0.483398 0.331421
0.572052 0.237091 0.210876
0.678436 0.358582 0.678436
0.358582 0.358582 0.678436
0.572052 0.691772 0.567291
0.678436 0.493286 0.453064
0.572052 0.055542 0.461517
0.678436 0.354675 0.331543
0.691772 0.426788 0.210876
0.644043 0.183624 0.678375
0.567291 0.572052 0.567291
0.691772 0.572052 0.567291
0.572052 0.572052 0.567291
0.678436 0.644104 0.453064
0.644043 0.126892 0.331543
0.567291 0.461609 0.210876
0.493347 0.331421 0.678314
0.452454 0.210785 0.567291
0.453064 0.678436 0.453064
0.493286 0.678436 0.453064
0.644104 0.678436 0.453064
0.678436 0.678436 0.453064
0.183594 0.183594 0.008728
0.331329 0.183594 0.008728
0.483337 0.183594 0.008728
0.354919 0.183594 0.008728
0.126892 0.183594 0.008728
0.008728 0.183594 0.008728
0.055542 0.572052 0.227112
0.126892 0.644043 0.483429
0.183594 0.331329 0.008728
0.210876 0.210876 0.226990
0.237030 0.210876 0.226990
0.426727 0.210876 0.226990
0.461609 0.210876 0.226990
0.226990 0.210876 0.226990
0.354675 0.678436 0.483398
0.461609 0.567291 0.237183
0.183594 0.483337 0.008728
0.210876 0.237030 0.226990
0.358582 0.358582 0.483398
0.183594 0.358582 0.483398
0.331421 0.358582 0.483398
0.483398 0.358582 0.483398
0.426788 0.691772 0.237091
0.331421 0.493347 0.358154
0.183594 0.354919 0.008728
0.210876 0.426727 0.226990
0.358582 0.183594 0.483398
0.572052 0.572052 0.237091
0.210876 0.572052 0.237091
0.237091 0.572052 0.237091
0.183624 0.644043 0.358368
0.210785 0.452454 0.691772
0.183594 0.126892 0.008728
0.210876 0.461609 0.226990
0.358582 0.331421 0.483398
0.572052 0.210876 0.237091
0.678436 0.678436 0.358582
0.358582 0.678436 0.358582
0.572052 0.567291 0.691772
0.678436 0.453064 0.493286
0.183594 0.008728 0.008728
0.210876 0.226990 0.226990
0.358582 0.483398 0.483398
0.572052 0.237091 0.237091
0.678436 0.358582 0.358582
0.691772 0.691772 0.691772
0.644043 0.493347 0.493347
0.567291 0.489502 0.489502
0.572052 0.055542 0.227112
0.678436 0.354675 0.483398
0.691772 0.426788 0.237091
0.644043 0.183624 0.358368
0.567291 0.572052 0.691772
0.493347 0.644043 0.493347
0.644043 0.644043 0.493347
0.567291 0.452454 0.489502
0.644043 0.126892 0.483429
0.567291 0.461609 0.237183
0.493347 0.331421 0.358154
0.452454 0.210785 0.691772
0.453064 0.678436 0.493286
0.489502 0.567291 0.489502
0.452454 0.567291 0.489502
0.567291 0.567291 0.489502
0.572052 0.572052 0.055542
0.210785 0.572052 0.055542
0.236938 0.572052 0.055542
0.426727 0.572052 0.055542
0.461517 0.572052 0.055542
0.227112 0.572052 0.055542
0.055542 0.572052 0.055542
0.126892 0.644043 0.354675
0.572052 0.210785 0.055542
0.678436 0.678436 0.354675
0.358582 0.678436 0.354675
0.183594 0.678436 0.354675
0.331543 0.678436 0.354675
0.483398 0.678436 0.354675
0.354675 0.678436 0.354675
0.461609 0.567291 0.426727
0.572052 0.236938 0.055542
0.678436 0.358582 0.354675
0.691772 0.691772 0.426788
0.572052 0.691772 0.426788
0.210876 0.691772 0.426788
0.237091 0.691772 0.426788
0.426788 0.691772 0.426788
0.331421 0.493347 0.183624
0.572052 0.426727 0.055542
0.678436 0.183594 0.354675
0.691772 0.572052 0.426788
0.644043 0.644043 0.183624
0.678375 0.644043 0.183624
0.358368 0.644043 0.183624
0.183624 0.644043 0.183624
0.210785 0.452454 0.571899
0.572052 0.461517 0.055542
0.678436 0.331543 0.354675
0.691772 0.210876 0.426788
0.644043 0.678375 0.183624
0.567291 0.567291 0.572052
0.691772 0.567291 0.572052
0.572052 0.567291 0.572052
0.678436 0.453064 0.644104
0.572052 0.227112 0.055542
0.678436 0.483398 0.354675
0.691772 0.237091 0.426788
0.644043 0.358368 0.183624
0.567291 0.691772 0.572052
0.493347 0.493347 0.644043
0.644043 0.493347 0.644043
0.567291 0.489502 0.452454
0.572052 0.055542 0.055542
0.678436 0.354675 0.354675
0.691772 0.426788 0.426788
0.644043 0.183624 0.183624
0.567291 0.572052 0.572052
0.493347 0.644043 0.644043
0.452454 0.452454 0.452454
0.453064 0.555817 0.555817
0.644043 0.126892 0.354675
0.567291 0.461609 0.426727
0.493347 0.331421 0.183624
0.452454 0.210785 0.571899
0.453064 0.678436 0.644104
0.489502 0.567291 0.452454
0.555817 0.453064 0.555817
0.453064 0.453064 0.555817
0.644043 0.644043 0.126892
0.678436 0.644043 0.126892
0.358765 0.644043 0.126892
0.183594 0.644043 0.126892
0.331543 0.644043 0.126892
0.483429 0.644043 0.126892
0.354675 0.644043 0.126892
0.126892 0.644043 0.126892
0.644043 0.678436 0.126892
0.567291 0.567291 0.461609
0.691803 0.567291 0.461609
0.572235 0.567291 0.461609
0.210876 0.567291 0.461609
0.237183 0.567291 0.461609
0.426727 0.567291 0.461609
0.461609 0.567291 0.461609
0.644043 0.358765 0.126892
0.567291 0.691803 0.461609
0.493347 0.493347 0.331421
0.644043 0.493347 0.331421
0.678314 0.493347 0.331421
0.358154 0.493347 0.331421
0.183624 0.493347 0.331421
0.331421 0.493347 0.331421
0.644043 0.183594 0.126892
0.567291 0.572235 0.461609
0.493347 0.644043 0.331421
0.452454 0.452454 0.210785
0.567291 0.452454 0.210785
0.691772 0.452454 0.210785
0.571899 0.452454 0.210785
0.210785 0.452454 0.210785
0.644043 0.331543 0.126892
0.567291 0.210876 0.461609
0.493347 0.678314 0.331421
0.452454 0.567291 0.210785
0.453064 0.453064 0.678436
0.493286 0.453064 0.678436
0.644104 0.453064 0.678436
0.678436 0.453064 0.678436
0.644043 0.483429 0.126892
0.567291 0.237183 0.461609
0.493347 0.358154 0.331421
0.452454 0.691772 0.210785
0.453064 0.493286 0.678436
0.489502 0.489502 0.567291
0.452454 0.489502 0.567291
0.567291 0.489502 0.567291
0.644043 0.354675 0.126892
0.567291 0.426727 0.461609
0.493347 0.183624 0.331421
0.452454 0.571899 0.210785
0.453064 0.644104 0.678436
0.489502 0.452454 0.567291
0.555817 0.555817 0.453064
0.453064 0.555817 0.453064
0.644043 0.126892 0.126892
0.567291 0.461609 0.461609
0.493347 0.331421 0.331421
0.452454 0.210785 0.210785
0.453064 0.678436 0.678436
0.489502 0.567291 0.567291
0.555817 0.453064 0.453064
0.645966 0.645966 0.645966
