bin/data/LUT/RedMoon.CUBE
TITLE "Red Moon" by Emma Souannhaphanh
LUT_3D_SIZE 32
0.000000 0.000000 0.000000
0.000000 0.000000 0.000000
0.000000 0.000000 0.000000
0.000000 0.000000 0.000000
0.000000 0.000000 0.000000
0.000946 0.000122 0.000275
0.019684 0.002655 0.006073
0.048126 0.006500 0.014832
0.083313 0.011261 0.025665
0.124084 0.016785 0.038239
0.169830 0.022949 0.052307
0.220123 0.029755 0.067810
0.274963 0.037170 0.084717
0.334167 0.045197 0.102966
0.397980 0.053833 0.122650
0.468323 0.063324 0.144318
0.545624 0.073792 0.168121
0.632507 0.085541 0.194916
0.738678 0.099915 0.227631
0.880859 0.119141 0.271454
0.880859 0.119141 0.271454
0.880859 0.119141 0.271454
0.880859 0.119141 0.271454
0.880859 0.119141 0.271454
0.880859 0.119141 0.271454
0.880859 0.119141 0.271454
0.880859 0.119141 0.271454
0.880859 0.119141 0.271454
0.880859 0.119141 0.271454
0.880859 0.119141 0.271454
0.880859 0.119141 0.271454
0.880859 0.119141 0.271454
0.000000 0.000000 0.000000
0.000000 0.000000 0.000000
0.000000 0.000000 0.000000
0.000000 0.000000 0.000000
0.000000 0.000000 0.000000
0.000946 0.000122 0.000275
0.019684 0.002655 0.006073
0.048126 0.006500 0.014832
0.083313 0.011261 0.025665
0.124084 0.016785 0.038239
0.169830 0.022949 0.052307
0.220123 0.029755 0.067810
0.274963 0.037170 0.084717
0.334167 0.045197 0.102966
0.397980 0.053833 0.122650
0.468323 0.063324 0.144318
0.545624 0.073792 0.168121
0.632507 0.085541 0.194916
0.738678 0.099915 0.227631
0.880859 0.119141 0.271454
0.880859 0.119141 0.271454
0.880859 0.119141 0.271454
0.880859 0.119141 0.271454
0.880859 0.119141 0.271454
0.880859 0.119141 0.271454
0.880859 0.119141 0.271454
0.880859 0.119141 0.271454
0.880859 0.119141 0.271454
0.880859 0.119141 0.271454
0.880859 0.119141 0.271454
0.880859 0.119141 0.271454
0.880859 0.119141 0.271454
0.000000 0.000000 0.000000
0.000000 0.000000 0.000000
0.000000 0.000000 0.000000
0.000000 0.000000 0.000000
0.000000 0.000000 0.000000
0.000946 0.000122 0.000275
0.019684 0.002655 0.006073
0.048126 0.006500 0.014832
0.083313 0.011261 0.025665
0.124084 0.016785 0.038239
0.169830 0.022949 0.052307
0.220123 0.029755 0.067810
0.274963 0.037170 0.084717
0.334167 0.045197 0.102966
0.397980 0.053833 0.122650
0.468323 0.063324 0.144318
0.545624 0.073792 0.168121
0.632507 0.085541 0.194916
0.738678 0.099915 0.227631
0.880859 0.119141 0.271454
0.880859 0.119141 0.271454
0.880859 0.119141 0.271454
0.880859 0.119141 0.271454
0.880859 0.119141 0.271454
0.880859 0.119141 0.271454
0.880859 0.119141 0.271454
0.880859 0.119141 0.271454
0.880859 0.119141 0.271454
0.880859 0.119141 0.271454
0.880859 0.119141 0.271454
0.880859 0.119141 0.271454
0.880859 0.119141 0.271454
0.010590 0.034332 0.004639
0.010590 0.034332 0.004639
0.010590 0.034332 0.004639
0.010590 0.034332 0.004639
0.010590 0.034332 0.004639
0.011414 0.034332 0.004639
0.027588 0.034332 0.004639
0.048126 0.027893 0.006500
0.083313 0.026550 0.011261
0.124084 0.025024 0.016785
0.169830 0.023315 0.022949
0.220123 0.029755 0.038116
0.274963 0.037170 0.054993
0.334167 0.045197 0.073273
0.397980 0.053833 0.092896
0.468323 0.063324 0.114655
0.545624 0.073792 0.138428
0.632507 0.085541 0.165253
0.738678 0.099915 0.197998
0.880859 0.119141 0.241699
0.880859 0.119141 0.241699
0.880859 0.119141 0.241699
0.880859 0.119141 0.241699
0.880859 0.119141 0.241699
0.880859 0.119141 0.241699
0.880859 0.119141 0.241699
0.880859 0.119141 0.241699
0.880859 0.119141 0.241699
0.880859 0.119141 0.241699
0.880859 0.119141 0.241699
0.880859 0.119141 0.241699
0.880859 0.119141 0.241699
0.026703 0.086670 0.011719
0.026703 0.086670 0.011719
0.026703 0.086670 0.011719
0.026703 0.086670 0.011719
0.026703 0.086670 0.011719
0.027557 0.086670 0.011719
0.043732 0.086670 0.011719
0.068329 0.086670 0.011719
0.086670 0.074585 0.011719
0.124084 0.070282 0.016785
0.169830 0.068512 0.022949
0.220123 0.066650 0.029755
0.274963 0.064575 0.037170
0.334167 0.062347 0.045197
0.397980 0.059967 0.053833
0.468323 0.063324 0.069366
0.545624 0.073792 0.093140
0.632507 0.085541 0.119995
0.738678 0.099915 0.152618
0.880859 0.119141 0.196503
0.880859 0.119141 0.196503
0.880859 0.119141 0.196503
0.880859 0.119141 0.196503
0.880859 0.119141 0.196503
0.880859 0.119141 0.196503
0.880859 0.119141 0.196503
0.880859 0.119141 0.196503
0.880859 0.119141 0.196503
0.880859 0.119141 0.196503
0.880859 0.119141 0.196503
0.880859 0.119141 0.196503
0.880859 0.119141 0.196503
0.038544 0.125153 0.016907
0.038544 0.125153 0.016907
0.038544 0.125153 0.016907
0.038544 0.125153 0.016907
0.038544 0.125153 0.016907
0.039398 0.125153 0.016907
0.055573 0.125153 0.016907
0.080200 0.125153 0.016907
0.110626 0.125153 0.016907
0.125153 0.104431 0.016907
0.169830 0.101837 0.022949
0.220123 0.099945 0.029755
0.274963 0.097839 0.037170
0.334167 0.095642 0.045197
0.397980 0.093231 0.053833
0.468323 0.090607 0.063324
0.545624 0.087738 0.073792
0.632507 0.085541 0.086731
0.738678 0.099915 0.119415
0.880859 0.119141 0.163208
0.880859 0.119141 0.163208
0.880859 0.119141 0.163208
0.880859 0.119141 0.163208
0.880859 0.119141 0.163208
0.880859 0.119141 0.163208
0.880859 0.119141 0.163208
0.880859 0.119141 0.163208
0.880859 0.119141 0.163208
0.880859 0.119141 0.163208
0.880859 0.119141 0.163208
0.880859 0.119141 0.163208
0.880859 0.119141 0.163208
0.048950 0.158905 0.021484
0.048950 0.158905 0.021484
0.048950 0.158905 0.021484
0.048950 0.158905 0.021484
0.048950 0.158905 0.021484
0.049805 0.158905 0.021484
0.065979 0.158905 0.021484
0.090607 0.158905 0.021484
0.121033 0.158905 0.021484
0.156250 0.158905 0.021484
0.169830 0.131042 0.022949
0.220123 0.129120 0.029755
0.274963 0.127045 0.037170
0.334167 0.124847 0.045197
0.397980 0.122467 0.053833
0.468323 0.119781 0.063324
0.545624 0.116882 0.073792
0.632507 0.113586 0.085541
0.738678 0.109589 0.099915
0.880859 0.119141 0.134033
0.880859 0.119141 0.134033
0.880859 0.119141 0.134033
0.880859 0.119141 0.134033
0.880859 0.119141 0.134033
0.880859 0.119141 0.134033
0.880859 0.119141 0.134033
0.880859 0.119141 0.134033
0.880859 0.119141 0.134033
0.880859 0.119141 0.134033
0.880859 0.119141 0.134033
0.880859 0.119141 0.134033
0.880859 0.119141 0.134033
0.058685 0.190369 0.025757
0.058685 0.190369 0.025757
0.058685 0.190369 0.025757
0.058685 0.190369 0.025757
0.058685 0.190369 0.025757
0.059509 0.190369 0.025757
0.075684 0.190369 0.025757
0.100311 0.190369 0.025757
0.130737 0.190369 0.025757
0.165985 0.190369 0.025757
0.190369 0.175232 0.025757
0.220123 0.156311 0.029755
0.274963 0.154266 0.037170
0.334167 0.152069 0.045197
0.397980 0.149628 0.053833
0.468323 0.146973 0.063324
0.545624 0.144073 0.073792
0.632507 0.140839 0.085541
0.738678 0.136871 0.099915
0.880859 0.131409 0.119141
0.880859 0.131409 0.119141
0.880859 0.131409 0.119141
0.880859 0.131409 0.119141
0.880859 0.131409 0.119141
0.880859 0.131409 0.119141
0.880859 0.131409 0.119141
0.880859 0.131409 0.119141
0.880859 0.131409 0.119141
0.880859 0.131409 0.119141
0.880859 0.131409 0.119141
0.880859 0.131409 0.119141
0.880859 0.131409 0.119141
0.067932 0.220398 0.029816
0.067932 0.220398 0.029816
0.067932 0.220398 0.029816
0.067932 0.220398 0.029816
0.067932 0.220398 0.029816
0.068756 0.220398 0.029816
0.084961 0.220398 0.029816
0.109558 0.220398 0.029816
0.139984 0.220398 0.029816
0.175232 0.220398 0.029816
0.214783 0.220398 0.029816
0.220398 0.182526 0.029816
0.274963 0.180206 0.037170
0.334167 0.178040 0.045197
0.397980 0.175568 0.053833
0.468323 0.172974 0.063324
0.545624 0.170105 0.073792
0.632507 0.166718 0.085541
0.738678 0.162750 0.099915
0.880859 0.157440 0.119141
0.880859 0.157440 0.119141
0.880859 0.157440 0.119141
0.880859 0.157440 0.119141
0.880859 0.157440 0.119141
0.880859 0.157440 0.119141
0.880859 0.157440 0.119141
0.880859 0.157440 0.119141
0.880859 0.157440 0.119141
0.880859 0.157440 0.119141
0.880859 0.157440 0.119141
0.880859 0.157440 0.119141
0.880859 0.157440 0.119141
0.076721 0.248962 0.033661
0.076721 0.248962 0.033661
0.076721 0.248962 0.033661
0.076721 0.248962 0.033661
0.076721 0.248962 0.033661
0.077545 0.248962 0.033661
0.093750 0.248962 0.033661
0.118347 0.248962 0.033661
0.148773 0.248962 0.033661
0.183990 0.248962 0.033661
0.223572 0.248962 0.033661
0.248962 0.230865 0.033661
0.274963 0.204956 0.037170
0.334167 0.202728 0.045197
0.397980 0.200287 0.053833
0.468323 0.197693 0.063324
0.545624 0.194733 0.073792
0.632507 0.191437 0.085541
0.738678 0.187561 0.099915
0.880859 0.182190 0.119141
0.880859 0.182190 0.119141
0.880859 0.182190 0.119141
0.880859 0.182190 0.119141
0.880859 0.182190 0.119141
0.880859 0.182190 0.119141
0.880859 0.182190 0.119141
0.880859 0.182190 0.119141
0.880859 0.182190 0.119141
0.880859 0.182190 0.119141
0.880859 0.182190 0.119141
0.880859 0.182190 0.119141
0.880859 0.182190 0.119141
0.085236 0.276581 0.037415
0.085236 0.276581 0.037415
0.085236 0.276581 0.037415
0.085236 0.276581 0.037415
0.085236 0.276581 0.037415
0.086060 0.276581 0.037415
0.102234 0.276581 0.037415
0.126862 0.276581 0.037415
0.157288 0.276581 0.037415
0.192566 0.276581 0.037415
0.232086 0.276581 0.037415
0.275574 0.276581 0.037415
0.276581 0.230164 0.037415
0.334167 0.226593 0.045197
0.397980 0.224213 0.053833
0.468323 0.221527 0.063324
0.545624 0.218597 0.073792
0.632507 0.215332 0.085541
0.738678 0.211426 0.099915
0.880859 0.205994 0.119141
0.880859 0.205994 0.119141
0.880859 0.205994 0.119141
0.880859 0.205994 0.119141
0.880859 0.205994 0.119141
0.880859 0.205994 0.119141
0.880859 0.205994 0.119141
0.880859 0.205994 0.119141
0.880859 0.205994 0.119141
0.880859 0.205994 0.119141
0.880859 0.205994 0.119141
0.880859 0.205994 0.119141
0.880859 0.205994 0.119141
0.093475 0.303406 0.041016
0.093475 0.303406 0.041016
0.093475 0.303406 0.041016
0.093475 0.303406 0.041016
0.093475 0.303406 0.041016
0.094299 0.303406 0.041016
0.110535 0.303406 0.041016
0.135132 0.303406 0.041016
0.165558 0.303406 0.041016
0.200775 0.303406 0.041016
0.240356 0.303406 0.041016
0.283875 0.303406 0.041016
0.303406 0.275543 0.041016
0.334167 0.249786 0.045197
0.397980 0.247406 0.053833
0.468323 0.244751 0.063324
0.545624 0.241852 0.073792
0.632507 0.238586 0.085541
0.738678 0.234497 0.099915
0.880859 0.229248 0.119141
0.880859 0.229248 0.119141
0.880859 0.229248 0.119141
0.880859 0.229248 0.119141
0.880859 0.229248 0.119141
0.880859 0.229248 0.119141
0.880859 0.229248 0.119141
0.880859 0.229248 0.119141
0.880859 0.229248 0.119141
0.880859 0.229248 0.119141
0.880859 0.229248 0.119141
0.880859 0.229248 0.119141
0.880859 0.229248 0.119141
0.101593 0.329620 0.044586
0.101593 0.329620 0.044586
0.101593 0.329620 0.044586
0.101593 0.329620 0.044586
0.101593 0.329620 0.044586
0.102417 0.329620 0.044586
0.118622 0.329620 0.044586
0.143188 0.329620 0.044586
0.173676 0.329620 0.044586
0.208893 0.329620 0.044586
0.248413 0.329620 0.044586
0.291901 0.329620 0.044586
0.329620 0.319885 0.044586
0.334167 0.272430 0.045197
0.397980 0.270020 0.053833
0.468323 0.267395 0.063324
0.545624 0.264557 0.073792
0.632507 0.261261 0.085541
0.738678 0.257263 0.099915
0.880859 0.251923 0.119141
0.880859 0.251923 0.119141
0.880859 0.251923 0.119141
0.880859 0.251923 0.119141
0.880859 0.251923 0.119141
0.880859 0.251923 0.119141
0.880859 0.251923 0.119141
0.880859 0.251923 0.119141
0.880859 0.251923 0.119141
0.880859 0.251923 0.119141
0.880859 0.251923 0.119141
0.880859 0.251923 0.119141
0.880859 0.251923 0.119141
0.109467 0.355225 0.048035
0.109467 0.355225 0.048035
0.109467 0.355225 0.048035
0.109467 0.355225 0.048035
0.109467 0.355225 0.048035
0.110291 0.355225 0.048035
0.126495 0.355225 0.048035
0.151093 0.355225 0.048035
0.181519 0.355225 0.048035
0.216766 0.355225 0.048035
0.256317 0.355225 0.048035
0.299805 0.355225 0.048035
0.347198 0.355225 0.048035
0.355225 0.312012 0.048035
0.397980 0.292206 0.053833
0.468323 0.289551 0.063324
0.545624 0.286682 0.073792
0.632507 0.283295 0.085541
0.738678 0.279419 0.099915
0.880859 0.274048 0.119141
0.880859 0.274048 0.119141
0.880859 0.274048 0.119141
0.880859 0.274048 0.119141
0.880859 0.274048 0.119141
0.880859 0.274048 0.119141
0.880859 0.274048 0.119141
0.880859 0.274048 0.119141
0.880859 0.274048 0.119141
0.880859 0.274048 0.119141
0.880859 0.274048 0.119141
0.880859 0.274048 0.119141
0.880859 0.274048 0.119141
0.117218 0.380402 0.051453
0.117218 0.380402 0.051453
0.117218 0.380402 0.051453
0.117218 0.380402 0.051453
0.117218 0.380402 0.051453
0.118042 0.380402 0.051453
0.134247 0.380402 0.051453
0.158813 0.380402 0.051453
0.189270 0.380402 0.051453
0.224518 0.380402 0.051453
0.264099 0.380402 0.051453
0.307556 0.380402 0.051453
0.355011 0.380402 0.051453
0.380402 0.354614 0.051453
0.397980 0.313965 0.053833
0.468323 0.311310 0.063324
0.545624 0.308441 0.073792
0.632507 0.305084 0.085541
0.738678 0.301086 0.099915
0.880859 0.295807 0.119141
0.880859 0.295807 0.119141
0.880859 0.295807 0.119141
0.880859 0.295807 0.119141
0.880859 0.295807 0.119141
0.880859 0.295807 0.119141
0.880859 0.295807 0.119141
0.880859 0.295807 0.119141
0.880859 0.295807 0.119141
0.880859 0.295807 0.119141
0.880859 0.295807 0.119141
0.880859 0.295807 0.119141
0.880859 0.295807 0.119141
0.124939 0.405457 0.054840
0.124939 0.405457 0.054840
0.124939 0.405457 0.054840
0.124939 0.405457 0.054840
0.124939 0.405457 0.054840
0.125793 0.405457 0.054840
0.141968 0.405457 0.054840
0.166534 0.405457 0.054840
0.197021 0.405457 0.054840
0.232300 0.405457 0.054840
0.271851 0.405457 0.054840
0.315308 0.405457 0.054840
0.362732 0.405457 0.054840
0.405457 0.396973 0.054840
0.405457 0.341766 0.054840
0.468323 0.332947 0.063324
0.545624 0.330109 0.073792
0.632507 0.326843 0.085541
0.738678 0.322754 0.099915
0.880859 0.317383 0.119141
0.880859 0.317383 0.119141
0.880859 0.317383 0.119141
0.880859 0.317383 0.119141
0.880859 0.317383 0.119141
0.880859 0.317383 0.119141
0.880859 0.317383 0.119141
0.880859 0.317383 0.119141
0.880859 0.317383 0.119141
0.880859 0.317383 0.119141
0.880859 0.317383 0.119141
0.880859 0.317383 0.119141
0.880859 0.317383 0.119141
0.132660 0.430511 0.058228
0.132660 0.430511 0.058228
0.132660 0.430511 0.058228
0.132660 0.430511 0.058228
0.132660 0.430511 0.058228
0.133484 0.430511 0.058228
0.149658 0.430511 0.058228
0.174286 0.430511 0.058228
0.204742 0.430511 0.058228
0.240021 0.430511 0.058228
0.279541 0.430511 0.058228
0.322998 0.430511 0.058228
0.370422 0.430511 0.058228
0.421600 0.430511 0.058228
0.430511 0.384155 0.058228
0.468323 0.354614 0.063324
0.545624 0.351746 0.073792
0.632507 0.348480 0.085541
0.738678 0.344452 0.099915
0.880859 0.339142 0.119141
0.880859 0.339142 0.119141
0.880859 0.339142 0.119141
0.880859 0.339142 0.119141
0.880859 0.339142 0.119141
0.880859 0.339142 0.119141
0.880859 0.339142 0.119141
0.880859 0.339142 0.119141
0.880859 0.339142 0.119141
0.880859 0.339142 0.119141
0.880859 0.339142 0.119141
0.880859 0.339142 0.119141
0.880859 0.339142 0.119141
0.140442 0.455719 0.061646
0.140442 0.455719 0.061646
0.140442 0.455719 0.061646
0.140442 0.455719 0.061646
0.140442 0.455719 0.061646
0.141296 0.455719 0.061646
0.157471 0.455719 0.061646
0.182098 0.455719 0.061646
0.212494 0.455719 0.061646
0.247711 0.455719 0.061646
0.287262 0.455719 0.061646
0.330841 0.455719 0.061646
0.378174 0.455719 0.061646
0.429352 0.455719 0.061646
0.455719 0.426849 0.061646
0.468323 0.376465 0.063324
0.545624 0.373535 0.073792
0.632507 0.370239 0.085541
0.738678 0.366272 0.099915
0.880859 0.360901 0.119141
0.880859 0.360901 0.119141
0.880859 0.360901 0.119141
0.880859 0.360901 0.119141
0.880859 0.360901 0.119141
0.880859 0.360901 0.119141
0.880859 0.360901 0.119141
0.880859 0.360901 0.119141
0.880859 0.360901 0.119141
0.880859 0.360901 0.119141
0.880859 0.360901 0.119141
0.880859 0.360901 0.119141
0.880859 0.360901 0.119141
0.148102 0.480621 0.065002
0.148102 0.480621 0.065002
0.148102 0.480621 0.065002
0.148102 0.480621 0.065002
0.148102 0.480621 0.065002
0.148926 0.480621 0.065002
0.165161 0.480621 0.065002
0.189697 0.480621 0.065002
0.220154 0.480621 0.065002
0.255463 0.480621 0.065002
0.294922 0.480621 0.065002
0.338470 0.480621 0.065002
0.385834 0.480621 0.065002
0.437103 0.480621 0.065002
0.480621 0.468964 0.065002
0.480621 0.408173 0.065002
0.545624 0.395081 0.073792
0.632507 0.391754 0.085541
0.738678 0.387787 0.099915
0.880859 0.382477 0.119141
0.880859 0.382477 0.119141
0.880859 0.382477 0.119141
0.880859 0.382477 0.119141
0.880859 0.382477 0.119141
0.880859 0.382477 0.119141
0.880859 0.382477 0.119141
0.880859 0.382477 0.119141
0.880859 0.382477 0.119141
0.880859 0.382477 0.119141
0.880859 0.382477 0.119141
0.880859 0.382477 0.119141
0.880859 0.382477 0.119141
0.155762 0.505432 0.068359
0.155762 0.505432 0.068359
0.155762 0.505432 0.068359
0.155762 0.505432 0.068359
0.155762 0.505432 0.068359
0.156616 0.505432 0.068359
0.172729 0.505432 0.068359
0.197357 0.505432 0.068359
0.227783 0.505432 0.068359
0.263092 0.505432 0.068359
0.302582 0.505432 0.068359
0.346130 0.505432 0.068359
0.393494 0.505432 0.068359
0.444702 0.505432 0.068359
0.499878 0.505432 0.068359
0.505432 0.450165 0.068359
0.545624 0.416504 0.073792
0.632507 0.413239 0.085541
0.738678 0.409302 0.099915
0.880859 0.403870 0.119141
0.880859 0.403870 0.119141
0.880859 0.403870 0.119141
0.880859 0.403870 0.119141
0.880859 0.403870 0.119141
0.880859 0.403870 0.119141
0.880859 0.403870 0.119141
0.880859 0.403870 0.119141
0.880859 0.403870 0.119141
0.880859 0.403870 0.119141
0.880859 0.403870 0.119141
0.880859 0.403870 0.119141
0.880859 0.403870 0.119141
0.163391 0.530243 0.071716
0.163391 0.530243 0.071716
0.163391 0.530243 0.071716
0.163391 0.530243 0.071716
0.163391 0.530243 0.071716
0.164185 0.530243 0.071716
0.180420 0.530243 0.071716
0.205048 0.530243 0.071716
0.235504 0.530243 0.071716
0.270752 0.530243 0.071716
0.310272 0.530243 0.071716
0.353699 0.530243 0.071716
0.401184 0.530243 0.071716
0.452332 0.530243 0.071716
0.507507 0.530243 0.071716
0.530243 0.492065 0.071716
0.545624 0.438019 0.073792
0.632507 0.434753 0.085541
0.738678 0.430695 0.099915
0.880859 0.425415 0.119141
0.880859 0.425415 0.119141
0.880859 0.425415 0.119141
0.880859 0.425415 0.119141
0.880859 0.425415 0.119141
0.880859 0.425415 0.119141
0.880859 0.425415 0.119141
0.880859 0.425415 0.119141
0.880859 0.425415 0.119141
0.880859 0.425415 0.119141
0.880859 0.425415 0.119141
0.880859 0.425415 0.119141
0.880859 0.425415 0.119141
0.171143 0.555420 0.075104
0.171143 0.555420 0.075104
0.171143 0.555420 0.075104
0.171143 0.555420 0.075104
0.171143 0.555420 0.075104
0.171967 0.555420 0.075104
0.188141 0.555420 0.075104
0.212769 0.555420 0.075104
0.243256 0.555420 0.075104
0.278442 0.555420 0.075104
0.317963 0.555420 0.075104
0.361450 0.555420 0.075104
0.408966 0.555420 0.075104
0.460083 0.555420 0.075104
0.515320 0.555420 0.075104
0.555420 0.534668 0.075104
0.555420 0.467834 0.075104
0.632507 0.456512 0.085541
0.738678 0.452515 0.099915
0.880859 0.447174 0.119141
0.880859 0.447174 0.119141
0.880859 0.447174 0.119141
0.880859 0.447174 0.119141
0.880859 0.447174 0.119141
0.880859 0.447174 0.119141
0.880859 0.447174 0.119141
0.880859 0.447174 0.119141
0.880859 0.447174 0.119141
0.880859 0.447174 0.119141
0.880859 0.447174 0.119141
0.880859 0.447174 0.119141
0.880859 0.447174 0.119141
0.178925 0.580627 0.078522
0.178925 0.580627 0.078522
0.178925 0.580627 0.078522
0.178925 0.580627 0.078522
0.178925 0.580627 0.078522
0.179779 0.580627 0.078522
0.195953 0.580627 0.078522
0.220612 0.580627 0.078522
0.251007 0.580627 0.078522
0.286194 0.580627 0.078522
0.325775 0.580627 0.078522
0.369293 0.580627 0.078522
0.416718 0.580627 0.078522
0.467865 0.580627 0.078522
0.523010 0.580627 0.078522
0.580627 0.577332 0.078522
0.580627 0.510498 0.078522
0.632507 0.478271 0.085541
0.738678 0.474335 0.099915
0.880859 0.468933 0.119141
0.880859 0.468933 0.119141
0.880859 0.468933 0.119141
0.880859 0.468933 0.119141
0.880859 0.468933 0.119141
0.880859 0.468933 0.119141
0.880859 0.468933 0.119141
0.880859 0.468933 0.119141
0.880859 0.468933 0.119141
0.880859 0.468933 0.119141
0.880859 0.468933 0.119141
0.880859 0.468933 0.119141
0.880859 0.468933 0.119141
0.186829 0.606293 0.082001
0.186829 0.606293 0.082001
0.186829 0.606293 0.082001
0.186829 0.606293 0.082001
0.186829 0.606293 0.082001
0.187744 0.606293 0.082001
0.203857 0.606293 0.082001
0.228424 0.606293 0.082001
0.258911 0.606293 0.082001
0.294098 0.606293 0.082001
0.333649 0.606293 0.082001
0.377167 0.606293 0.082001
0.424652 0.606293 0.082001
0.475861 0.606293 0.082001
0.531036 0.606293 0.082001
0.591827 0.606293 0.082001
0.606293 0.553955 0.082001
0.632507 0.500427 0.085541
0.738678 0.496490 0.099915
0.880859 0.491089 0.119141
0.880859 0.491089 0.119141
0.880859 0.491089 0.119141
0.880859 0.491089 0.119141
0.880859 0.491089 0.119141
0.880859 0.491089 0.119141
0.880859 0.491089 0.119141
0.880859 0.491089 0.119141
0.880859 0.491089 0.119141
0.880859 0.491089 0.119141
0.880859 0.491089 0.119141
0.880859 0.491089 0.119141
0.880859 0.491089 0.119141
0.194916 0.632477 0.085541
0.194916 0.632477 0.085541
0.194916 0.632477 0.085541
0.194916 0.632477 0.085541
0.194916 0.632477 0.085541
0.195709 0.632477 0.085541
0.211853 0.632477 0.085541
0.236572 0.632477 0.085541
0.266998 0.632477 0.085541
0.302246 0.632477 0.085541
0.341797 0.632477 0.085541
0.385315 0.632477 0.085541
0.432709 0.632477 0.085541
0.483856 0.632477 0.085541
0.539001 0.632477 0.085541
0.599884 0.632477 0.085541
0.632477 0.598297 0.085541
0.632507 0.523132 0.085541
0.738678 0.519104 0.099915
0.880859 0.513763 0.119141
0.880859 0.513763 0.119141
0.880859 0.513763 0.119141
0.880859 0.513763 0.119141
0.880859 0.513763 0.119141
0.880859 0.513763 0.119141
0.880859 0.513763 0.119141
0.880859 0.513763 0.119141
0.880859 0.513763 0.119141
0.880859 0.513763 0.119141
0.880859 0.513763 0.119141
0.880859 0.513763 0.119141
0.880859 0.513763 0.119141
0.203278 0.659668 0.089203
0.203278 0.659668 0.089203
0.203278 0.659668 0.089203
0.203278 0.659668 0.089203
0.203278 0.659668 0.089203
0.204102 0.659668 0.089203
0.220245 0.659668 0.089203
0.244904 0.659668 0.089203
0.275269 0.659668 0.089203
0.310516 0.659668 0.089203
0.350189 0.659668 0.089203
0.393646 0.659668 0.089203
0.441010 0.659668 0.089203
0.492249 0.659668 0.089203
0.547424 0.659668 0.089203
0.608276 0.659668 0.089203
0.659668 0.644196 0.089203
0.659668 0.569153 0.089203
0.738678 0.542664 0.099915
0.880859 0.537384 0.119141
0.880859 0.537384 0.119141
0.880859 0.537384 0.119141
0.880859 0.537384 0.119141
0.880859 0.537384 0.119141
0.880859 0.537384 0.119141
0.880859 0.537384 0.119141
0.880859 0.537384 0.119141
0.880859 0.537384 0.119141
0.880859 0.537384 0.119141
0.880859 0.537384 0.119141
0.880859 0.537384 0.119141
0.880859 0.537384 0.119141
0.211945 0.687775 0.093018
0.211945 0.687775 0.093018
0.211945 0.687775 0.093018
0.211945 0.687775 0.093018
0.211945 0.687775 0.093018
0.212799 0.687775 0.093018
0.228943 0.687775 0.093018
0.253601 0.687775 0.093018
0.283966 0.687775 0.093018
0.319244 0.687775 0.093018
0.358734 0.687775 0.093018
0.402313 0.687775 0.093018
0.449799 0.687775 0.093018
0.500885 0.687775 0.093018
0.556061 0.687775 0.093018
0.616913 0.687775 0.093018
0.683716 0.687775 0.093018
0.687775 0.616638 0.093018
0.738678 0.566986 0.099915
0.880859 0.561554 0.119141
0.880859 0.561554 0.119141
0.880859 0.561554 0.119141
0.880859 0.561554 0.119141
0.880859 0.561554 0.119141
0.880859 0.561554 0.119141
0.880859 0.561554 0.119141
0.880859 0.561554 0.119141
0.880859 0.561554 0.119141
0.880859 0.561554 0.119141
0.880859 0.561554 0.119141
0.880859 0.561554 0.119141
0.880859 0.561554 0.119141
0.221069 0.717407 0.097015
0.221069 0.717407 0.097015
0.221069 0.717407 0.097015
0.221069 0.717407 0.097015
0.221069 0.717407 0.097015
0.221985 0.717407 0.097015
0.238037 0.717407 0.097015
0.262726 0.717407 0.097015
0.293152 0.717407 0.097015
0.328308 0.717407 0.097015
0.367981 0.717407 0.097015
0.411438 0.717407 0.097015
0.458862 0.717407 0.097015
0.510040 0.717407 0.097015
0.565186 0.717407 0.097015
0.626068 0.717407 0.097015
0.692871 0.717407 0.097015
0.717407 0.666809 0.097015
0.738678 0.592560 0.099915
0.880859 0.587219 0.119141
0.880859 0.587219 0.119141
0.880859 0.587219 0.119141
