bin/data/LUT/RedMoon.CUBE
TITLE "Red Moon" by Emma Souannhaphanh
LUT_3D_SIZE 5
DOMAIN_MIN 0.000000 0.000000 0.000000
DOMAIN_MAX 0.903226 0.903226 0.903226
0.000000 0.000000 0.000000
0.048126 0.006500 0.014832
0.397980 0.053833 0.122650
0.880859 0.119141 0.271454
0.880859 0.119141 0.271454
0.058685 0.190369 0.025757
0.100311 0.190369 0.025757
0.397980 0.149628 0.053833
0.880859 0.131409 0.119141
0.880859 0.131409 0.119141
0.117218 0.380402 0.051453
0.158813 0.380402 0.051453
0.397980 0.313965 0.053833
0.880859 0.295807 0.119141
0.880859 0.295807 0.119141
0.171143 0.555420 0.075104
0.212769 0.555420 0.075104
0.515320 0.555420 0.075104
0.880859 0.447174 0.119141
0.880859 0.447174 0.119141
0.230865 0.749207 0.101318
0.272461 0.749207 0.101318
0.575043 0.749207 0.101318
0.880859 0.614746 0.119141
0.880859 0.614746 0.119141
0.011383 0.025940 0.084198
0.038452 0.011383 0.084198
0.397980 0.053833 0.195496
0.880859 0.119141 0.344360
0.880859 0.119141 0.344360
0.025757 0.190369 0.065674
0.073883 0.196869 0.080475
0.409363 0.175598 0.138031
0.892242 0.203339 0.249268
0.892242 0.203339 0.249268
0.051453 0.380402 0.058533
0.125824 0.386902 0.099579
0.409363 0.339874 0.138031
0.892242 0.321747 0.203339
0.892242 0.321747 0.203339
0.098328 0.555420 0.075104
0.179810 0.561920 0.123260
0.512085 0.566803 0.159332
0.892242 0.473114 0.203339
0.892242 0.473114 0.203339
0.158112 0.749207 0.101318
0.239471 0.755737 0.149475
0.571899 0.760590 0.185547
0.892242 0.640625 0.203339
0.892242 0.640625 0.203339
0.031067 0.070770 0.229645
0.033020 0.031067 0.229645
0.397980 0.053833 0.321259
0.880859 0.119141 0.470062
0.880859 0.119141 0.470062
0.031067 0.229645 0.223877
0.079193 0.233582 0.236145
0.423737 0.244202 0.314056
0.906616 0.309509 0.462860
0.906616 0.309509 0.462860
0.051453 0.380402 0.184296
0.099579 0.386902 0.199127
0.429047 0.384735 0.283478
0.911926 0.366516 0.348785
0.911926 0.366516 0.348785
0.075104 0.555420 0.177704
0.123260 0.561920 0.192566
0.506622 0.586487 0.304779
0.911926 0.517883 0.348785
0.911926 0.517883 0.348785
0.101318 0.749207 0.170441
0.149475 0.755737 0.185150
0.566376 0.780273 0.330963
0.911926 0.685486 0.348785
0.911926 0.685486 0.348785
0.056915 0.129669 0.420837
0.056915 0.088013 0.420837
0.328247 0.056915 0.420837
0.880859 0.119141 0.635376
0.880859 0.119141 0.635376
0.056915 0.294312 0.420837
0.105072 0.292511 0.427368
0.386932 0.247284 0.446594
0.906616 0.309509 0.628174
0.906616 0.309509 0.628174
0.056915 0.420837 0.383087
0.105072 0.427368 0.397949
0.445526 0.437317 0.472290
0.932312 0.499542 0.621033
0.932312 0.499542 0.621033
0.075104 0.555420 0.343048
0.123260 0.561920 0.357788
0.480560 0.609253 0.473114
0.937775 0.576782 0.539978
0.937775 0.576782 0.539978
0.101318 0.749207 0.335724
0.149475 0.755737 0.350616
0.540222 0.803040 0.499298
0.937775 0.744415 0.539978
0.937775 0.744415 0.539978
0.092133 0.209900 0.681183
0.092133 0.168213 0.681183
0.318481 0.092133 0.681183
0.880859 0.119141 0.860596
0.880859 0.119141 0.860596
0.092133 0.374573 0.681183
0.140259 0.372681 0.687683
0.377197 0.282501 0.706909
0.906616 0.309509 0.853271
0.906616 0.309509 0.853271
0.092133 0.538818 0.681183
0.140259 0.537048 0.687683
0.472534 0.509369 0.732635
0.932312 0.499542 0.846191
0.932312 0.499542 0.846191
0.092133 0.681183 0.672119
0.140259 0.687683 0.687012
0.490112 0.675232 0.735016
0.955963 0.674561 0.839569
0.955963 0.674561 0.839569
0.101318 0.749207 0.560822
0.149475 0.755737 0.575592
0.499298 0.803040 0.683502
0.972992 0.824646 0.800323
0.972992 0.824646 0.800323
