bin/data/LUT/RedMoon.CUBE
TITLE "Red Moon" by Emma Souannhaphanh
LUT_3D_SIZE 8
DOMAIN_MIN 0.000000 0.000000 0.000000
DOMAIN_MAX 0.903226 0.903226 0.903226
0.000000 0.000000 0.000000
0.000000 0.000000 0.000000
0.083313 0.011261 0.025665
0.274963 0.037170 0.084717
0.545624 0.073792 0.168121
0.880859 0.119141 0.271454
0.880859 0.119141 0.271454
0.880859 0.119141 0.271454
0.026703 0.086670 0.011719
0.026703 0.086670 0.011719
0.086670 0.074585 0.011719
0.274963 0.064575 0.037170
0.545624 0.073792 0.093140
0.880859 0.119141 0.196503
0.880859 0.119141 0.196503
0.880859 0.119141 0.196503
0.067932 0.220398 0.029816
0.067932 0.220398 0.029816
0.139984 0.220398 0.029816
0.274963 0.180206 0.037170
0.545624 0.170105 0.073792
0.880859 0.157440 0.119141
0.880859 0.157440 0.119141
0.880859 0.157440 0.119141
0.101593 0.329620 0.044586
0.101593 0.329620 0.044586
0.173676 0.329620 0.044586
0.329620 0.319885 0.044586
0.545624 0.264557 0.073792
0.880859 0.251923 0.119141
0.880859 0.251923 0.119141
0.880859 0.251923 0.119141
0.132660 0.430511 0.058228
0.132660 0.430511 0.058228
0.204742 0.430511 0.058228
0.370422 0.430511 0.058228
0.545624 0.351746 0.073792
0.880859 0.339142 0.119141
0.880859 0.339142 0.119141
0.880859 0.339142 0.119141
0.163391 0.530243 0.071716
0.163391 0.530243 0.071716
0.235504 0.530243 0.071716
0.401184 0.530243 0.071716
0.545624 0.438019 0.073792
0.880859 0.425415 0.119141
0.880859 0.425415 0.119141
0.880859 0.425415 0.119141
0.194916 0.632477 0.085541
0.194916 0.632477 0.085541
0.266998 0.632477 0.085541
0.432709 0.632477 0.085541
0.632477 0.598297 0.085541
0.880859 0.513763 0.119141
0.880859 0.513763 0.119141
0.880859 0.513763 0.119141
0.230865 0.749207 0.101318
0.230865 0.749207 0.101318
0.302979 0.749207 0.101318
0.468597 0.749207 0.101318
0.702698 0.749207 0.101318
0.880859 0.614746 0.119141
0.880859 0.614746 0.119141
0.880859 0.614746 0.119141
0.005127 0.011688 0.037964
0.005127 0.011688 0.037964
0.083313 0.011261 0.058502
0.274963 0.037170 0.117523
0.545624 0.073792 0.200958
0.880859 0.119141 0.304352
0.880859 0.119141 0.304352
0.880859 0.119141 0.304352
0.011719 0.086670 0.029572
0.011719 0.086670 0.029572
0.091797 0.086243 0.049683
0.280090 0.076294 0.075134
0.550751 0.111755 0.157410
0.885986 0.157104 0.260681
0.885986 0.157104 0.260681
0.885986 0.157104 0.260681
0.035126 0.220398 0.029816
0.035126 0.220398 0.029816
0.138550 0.225525 0.067749
0.280090 0.191925 0.075134
0.550751 0.181732 0.111755
0.885986 0.169220 0.157104
0.885986 0.169220 0.157104
0.885986 0.169220 0.157104
0.068726 0.329620 0.044586
0.068726 0.329620 0.044586
0.172180 0.334747 0.082520
0.334747 0.331543 0.082520
0.550751 0.276154 0.111755
0.885986 0.263519 0.157104
0.885986 0.263519 0.157104
0.885986 0.263519 0.157104
0.099854 0.430511 0.058228
0.099854 0.430511 0.058228
0.203278 0.435638 0.096191
0.369019 0.435638 0.096191
0.550751 0.363403 0.111755
0.885986 0.350891 0.157104
0.885986 0.350891 0.157104
0.885986 0.350891 0.157104
0.130585 0.530243 0.071716
0.130585 0.530243 0.071716
0.234070 0.535370 0.109680
0.399750 0.535370 0.109680
0.550751 0.449677 0.111755
0.885986 0.437012 0.157104
0.885986 0.437012 0.157104
0.885986 0.437012 0.157104
0.162048 0.632477 0.085541
0.162048 0.632477 0.085541
0.265594 0.637634 0.123505
0.431274 0.637634 0.123505
0.637634 0.610016 0.123505
0.885986 0.525452 0.157104
0.885986 0.525452 0.157104
0.885986 0.525452 0.157104
0.197968 0.749207 0.101318
0.197968 0.749207 0.101318
0.301453 0.754333 0.139282
0.467224 0.754333 0.139282
0.701324 0.754333 0.139282
0.885986 0.626343 0.157104
0.885986 0.626343 0.157104
0.885986 0.626343 0.157104
0.013794 0.031433 0.101990
0.013794 0.031433 0.101990
0.068237 0.013794 0.101990
0.274963 0.037170 0.172913
0.545624 0.073792 0.256378
0.880859 0.119141 0.359589
0.880859 0.119141 0.359589
0.880859 0.119141 0.359589
0.013794 0.101990 0.097595
0.013794 0.101990 0.097595
0.097107 0.103210 0.113251
0.286682 0.123840 0.169647
0.557343 0.160461 0.253082
0.892578 0.205811 0.356384
0.892578 0.205811 0.356384
0.892578 0.205811 0.356384
0.029816 0.220398 0.079895
0.029816 0.220398 0.079895
0.120697 0.231659 0.113129
0.288757 0.211670 0.139160
0.559418 0.201447 0.175781
0.894653 0.221130 0.253357
0.894653 0.221130 0.253357
0.894653 0.221130 0.253357
0.044586 0.329620 0.075775
0.044586 0.329620 0.075775
0.154358 0.340881 0.127899
0.335541 0.343414 0.146576
0.559418 0.295959 0.175781
0.894653 0.283295 0.221130
0.894653 0.283295 0.221130
0.894653 0.283295 0.221130
0.058228 0.430511 0.071960
0.058228 0.430511 0.071960
0.185455 0.441772 0.141541
0.366638 0.444305 0.160217
0.559418 0.383148 0.175781
0.894653 0.370605 0.221130
0.894653 0.370605 0.221130
0.894653 0.370605 0.221130
0.075195 0.530243 0.071716
0.075195 0.530243 0.071716
0.216156 0.541504 0.155029
0.397308 0.544037 0.173706
0.559418 0.469421 0.175781
0.894653 0.456757 0.221130
0.894653 0.456757 0.221130
0.894653 0.456757 0.221130
0.106781 0.632477 0.085541
0.106781 0.632477 0.085541
0.247711 0.643768 0.168884
0.428894 0.646301 0.187531
0.646301 0.629730 0.187531
0.894653 0.545227 0.221130
0.894653 0.545227 0.221130
0.894653 0.545227 0.221130
0.142609 0.749207 0.101318
0.142609 0.749207 0.101318
0.283630 0.760498 0.184662
0.464844 0.763000 0.203308
0.698914 0.763000 0.203308
0.894653 0.646179 0.221130
0.894653 0.646179 0.221130
0.894653 0.646179 0.221130
0.024780 0.056488 0.183289
0.024780 0.056488 0.183289
0.065155 0.024780 0.183289
0.274963 0.037170 0.243256
0.545624 0.073792 0.326630
0.880859 0.119141 0.429901
0.880859 0.119141 0.429901
0.880859 0.119141 0.429901
0.024780 0.131439 0.183289
0.024780 0.131439 0.183289
0.108124 0.128296 0.194580
0.286682 0.123840 0.239960
0.557343 0.160461 0.323334
0.892578 0.205811 0.426636
0.892578 0.205811 0.426636
0.892578 0.205811 0.426636
0.029816 0.220398 0.150238
0.029816 0.220398 0.150238
0.113129 0.231659 0.175873
0.299744 0.236725 0.220490
0.570404 0.257111 0.287720
0.905640 0.302429 0.390930
0.905640 0.302429 0.390930
0.905640 0.302429 0.390930
0.044586 0.329620 0.146118
0.044586 0.329620 0.146118
0.127899 0.340881 0.171783
0.332428 0.354401 0.227875
0.570404 0.320984 0.257111
0.905640 0.308319 0.302429
0.905640 0.308319 0.302429
0.905640 0.308319 0.302429
0.058228 0.430511 0.142303
0.058228 0.430511 0.142303
0.141541 0.441772 0.167938
0.363525 0.455292 0.241516
0.570404 0.408264 0.257111
0.905640 0.395660 0.302429
0.905640 0.395660 0.302429
0.905640 0.395660 0.302429
0.071716 0.530243 0.138550
0.071716 0.530243 0.138550
0.155029 0.541504 0.164185
0.394257 0.555023 0.255005
0.570404 0.494446 0.257111
0.905640 0.481812 0.302429
0.905640 0.481812 0.302429
0.905640 0.481812 0.302429
0.085541 0.632477 0.134674
0.085541 0.632477 0.134674
0.177338 0.643768 0.168884
0.425812 0.657288 0.268860
0.657288 0.654724 0.268860
0.905640 0.570312 0.302429
0.905640 0.570312 0.302429
0.905640 0.570312 0.302429
0.101318 0.749207 0.130280
0.101318 0.749207 0.130280
0.213348 0.760498 0.184662
0.461700 0.774017 0.284637
0.695770 0.774017 0.284637
0.905640 0.671204 0.302429
0.905640 0.671204 0.302429
0.905640 0.671204 0.302429
0.037811 0.086151 0.279633
0.037811 0.086151 0.279633
0.061554 0.037811 0.279633
0.227203 0.037811 0.279633
0.545624 0.073792 0.409912
0.880859 0.119141 0.513214
0.880859 0.119141 0.513214
0.880859 0.119141 0.513214
0.037811 0.161072 0.279633
0.037811 0.161072 0.279633
0.121155 0.157990 0.290924
0.253967 0.124481 0.291351
0.557343 0.160461 0.406677
0.892578 0.205811 0.509949
0.892578 0.205811 0.509949
0.892578 0.205811 0.509949
0.037811 0.276733 0.279633
0.037811 0.276733 0.279633
0.121155 0.273651 0.290924
0.295166 0.258209 0.309448
0.575409 0.294189 0.401642
0.910675 0.339539 0.504913
0.910675 0.339539 0.504913
0.910675 0.339539 0.504913
0.044586 0.329620 0.229401
0.044586 0.329620 0.229401
0.127899 0.340881 0.255096
0.324951 0.366821 0.319550
0.583435 0.353455 0.356201
0.918671 0.398773 0.459564
0.918671 0.398773 0.459564
0.918671 0.398773 0.459564
0.058228 0.430511 0.225647
0.058228 0.430511 0.225647
0.141541 0.441772 0.251282
0.356049 0.467682 0.333191
0.583435 0.437897 0.353455
0.918671 0.425293 0.398773
0.918671 0.425293 0.398773
0.918671 0.425293 0.398773
0.071716 0.530243 0.221832
0.071716 0.530243 0.221832
0.155029 0.541504 0.247498
0.386780 0.567413 0.346680
0.583435 0.524139 0.353455
0.918671 0.511475 0.398773
0.918671 0.511475 0.398773
0.918671 0.511475 0.398773
0.085541 0.632477 0.217987
0.085541 0.632477 0.217987
0.168884 0.643768 0.243652
0.418243 0.669678 0.360504
0.656158 0.670319 0.365204
0.918671 0.599945 0.398773
0.918671 0.599945 0.398773
0.918671 0.599945 0.398773
0.101318 0.749207 0.213623
0.101318 0.749207 0.213623
0.184662 0.760498 0.239349
0.454315 0.786407 0.376312
0.692169 0.787048 0.380981
0.918671 0.700867 0.398773
0.918671 0.700867 0.398773
0.918671 0.700867 0.398773
0.052795 0.120300 0.390350
0.052795 0.120300 0.390350
0.057343 0.052795 0.390350
0.223053 0.052795 0.390350
0.545624 0.073792 0.505646
0.880859 0.119141 0.608978
0.880859 0.119141 0.608978
0.880859 0.119141 0.608978
0.052795 0.195190 0.390350
0.052795 0.195190 0.390350
0.136108 0.192047 0.401611
0.249817 0.139465 0.402069
0.557343 0.160461 0.502411
0.892578 0.205811 0.605713
0.892578 0.205811 0.605713
0.892578 0.205811 0.605713
0.052795 0.310913 0.390350
0.052795 0.310913 0.390350
0.136108 0.307739 0.401611
0.290985 0.273193 0.420166
0.575409 0.294189 0.497345
0.910675 0.339539 0.600708
0.910675 0.339539 0.600708
0.910675 0.339539 0.600708
0.052795 0.390350 0.375366
0.052795 0.390350 0.375366
0.136108 0.401611 0.401031
0.327759 0.394958 0.427521
0.590179 0.403412 0.493286
0.925446 0.448761 0.596558
0.925446 0.448761 0.596558
0.925446 0.448761 0.596558
0.058228 0.430511 0.321350
0.058228 0.430511 0.321350
0.141541 0.441772 0.346985
0.333191 0.467682 0.406036
0.598419 0.472015 0.464142
0.933655 0.509491 0.559601
0.933655 0.509491 0.559601
0.933655 0.509491 0.559601
0.071716 0.530243 0.317535
0.071716 0.530243 0.317535
0.155029 0.541504 0.343262
0.346680 0.567413 0.402283
0.598419 0.558258 0.464142
0.933655 0.545624 0.509491
0.933655 0.545624 0.509491
0.933655 0.545624 0.509491
0.085541 0.632477 0.313751
0.085541 0.632477 0.313751
0.168884 0.643768 0.339417
0.360504 0.669678 0.398468
0.652008 0.685303 0.475891
0.933655 0.634064 0.509491
0.933655 0.634064 0.509491
0.933655 0.634064 0.509491
0.101318 0.749207 0.309326
0.101318 0.749207 0.309326
0.184662 0.760498 0.335083
0.376312 0.786407 0.394043
0.687988 0.802002 0.491669
0.933655 0.735046 0.509491
0.933655 0.735046 0.509491
0.933655 0.735046 0.509491
0.070435 0.160492 0.520782
0.070435 0.160492 0.520782
0.070435 0.088470 0.520782
0.218201 0.070435 0.520782
0.472717 0.073792 0.545624
0.880859 0.119141 0.721863
0.880859 0.119141 0.721863
0.880859 0.119141 0.721863
0.070435 0.235474 0.520782
0.070435 0.235474 0.520782
0.153778 0.232269 0.532043
0.244904 0.157104 0.532501
0.499481 0.160461 0.557343
0.892578 0.205811 0.718536
0.892578 0.205811 0.718536
0.892578 0.205811 0.718536
0.070435 0.351135 0.520782
0.070435 0.351135 0.520782
0.153778 0.347900 0.532043
0.290833 0.295593 0.550568
0.540680 0.294189 0.575409
0.910675 0.339539 0.713501
0.910675 0.339539 0.713501
0.910675 0.339539 0.713501
0.070435 0.445587 0.520782
0.070435 0.445587 0.520782
0.153778 0.442383 0.532043
0.345398 0.435181 0.557953
0.574310 0.403412 0.590179
0.925446 0.448761 0.709320
0.925446 0.448761 0.709320
0.925446 0.448761 0.709320
0.070435 0.520782 0.508789
0.070435 0.520782 0.508789
0.153778 0.529633 0.532043
0.345398 0.522400 0.557953
0.603851 0.504303 0.602264
0.939087 0.549652 0.705566
0.939087 0.549652 0.705566
0.939087 0.549652 0.705566
0.071716 0.530243 0.430389
0.071716 0.530243 0.430389
0.155029 0.541504 0.456024
0.346680 0.567413 0.515076
0.616058 0.598450 0.594574
0.951294 0.639923 0.693970
0.951294 0.639923 0.693970
0.951294 0.639923 0.693970
0.085541 0.632477 0.426575
0.085541 0.632477 0.426575
0.168884 0.643768 0.452240
0.360504 0.669678 0.511230
0.647125 0.702942 0.606323
0.951294 0.674286 0.639923
0.951294 0.674286 0.639923
0.951294 0.674286 0.639923
0.101318 0.749207 0.422089
0.101318 0.749207 0.422089
0.184662 0.760498 0.447845
0.376312 0.786407 0.506866
0.683075 0.819641 0.622101
0.951294 0.775238 0.639923
0.951294 0.775238 0.639923
0.951294 0.775238 0.639923
0.092133 0.209900 0.681183
0.092133 0.209900 0.681183
0.092133 0.137878 0.681183
0.212067 0.092133 0.681183
0.446198 0.092133 0.681183
0.880859 0.119141 0.860596
0.880859 0.119141 0.860596
0.880859 0.119141 0.860596
0.092133 0.284851 0.681183
0.092133 0.284851 0.681183
0.175446 0.281738 0.692444
0.238800 0.178802 0.692902
0.472870 0.178802 0.692902
0.892578 0.205811 0.857208
0.892578 0.205811 0.857208
0.892578 0.205811 0.857208
0.092133 0.400452 0.681183
0.092133 0.400452 0.681183
0.175446 0.397339 0.692444
0.312531 0.345032 0.710999
0.514099 0.312531 0.710999
0.910675 0.339539 0.852264
0.910675 0.339539 0.852264
0.910675 0.339539 0.852264
0.092133 0.494934 0.681183
0.092133 0.494934 0.681183
0.175446 0.491760 0.692444
0.367096 0.484589 0.718353
0.547791 0.421753 0.725769
0.925446 0.448761 0.848053
0.925446 0.448761 0.848053
0.925446 0.448761 0.848053
0.092133 0.582245 0.681183
0.092133 0.582245 0.681183
0.175446 0.579102 0.692444
0.367096 0.571808 0.718353
0.578857 0.522644 0.739410
0.939087 0.549652 0.844299
0.939087 0.549652 0.844299
0.939087 0.549652 0.844299
0.092133 0.668396 0.681183
0.092133 0.668396 0.681183
0.175446 0.665314 0.692444
0.367096 0.658081 0.718353
0.622375 0.635193 0.752899
0.952576 0.649384 0.840515
0.952576 0.649384 0.840515
0.952576 0.649384 0.840515
0.092133 0.681183 0.605530
0.092133 0.681183 0.605530
0.175446 0.692444 0.631226
0.367096 0.718353 0.690216
0.637756 0.736328 0.754974
0.966400 0.751617 0.836670
0.966400 0.751617 0.836670
0.966400 0.751617 0.836670
0.101318 0.749207 0.560822
0.101318 0.749207 0.560822
0.184662 0.760498 0.586456
0.376312 0.786407 0.645538
0.646942 0.822998 0.728943
0.972992 0.824646 0.800323
0.972992 0.824646 0.800323
0.972992 0.824646 0.800323
